hwyao/LCQP_planner_core/matlab/data/dynamic_example_v2.csv
__time,/LCQP_controller_multipleObstacle/distance/data.0,/LCQP_controller_multipleObstacle/distance/data.1,/LCQP_controller_multipleObstacle/distance/data.10,/LCQP_controller_multipleObstacle/distance/data.11,/LCQP_controller_multipleObstacle/distance/data.2,/LCQP_controller_multipleObstacle/distance/data.3,/LCQP_controller_multipleObstacle/distance/data.4,/LCQP_controller_multipleObstacle/distance/data.5,/LCQP_controller_multipleObstacle/distance/data.6,/LCQP_controller_multipleObstacle/distance/data.7,/LCQP_controller_multipleObstacle/distance/data.8,/LCQP_controller_multipleObstacle/distance/data.9,/LCQP_controller_multipleObstacle/distance/layout/data_offset,/joint_states/header/seq,/joint_states/header/stamp,/joint_states/panda_finger_joint1/effort,/joint_states/panda_finger_joint1/position,/joint_states/panda_finger_joint1/velocity,/joint_states/panda_finger_joint2/effort,/joint_states/panda_finger_joint2/position,/joint_states/panda_finger_joint2/velocity,/joint_states/panda_joint1/effort,/joint_states/panda_joint1/position,/joint_states/panda_joint1/velocity,/joint_states/panda_joint2/effort,/joint_states/panda_joint2/position,/joint_states/panda_joint2/velocity,/joint_states/panda_joint3/effort,/joint_states/panda_joint3/position,/joint_states/panda_joint3/velocity,/joint_states/panda_joint4/effort,/joint_states/panda_joint4/position,/joint_states/panda_joint4/velocity,/joint_states/panda_joint5/effort,/joint_states/panda_joint5/position,/joint_states/panda_joint5/velocity,/joint_states/panda_joint6/effort,/joint_states/panda_joint6/position,/joint_states/panda_joint6/velocity,/joint_states/panda_joint7/effort,/joint_states/panda_joint7/position,/joint_states/panda_joint7/velocity
1709656271.296465,,,,,,,,,,,,,,2.000000000,1709656271.296144962,0.000000000,0.033855762,0.000000000,0.000000000,0.033855762,0.000000000,-0.248328209,0.000746067,0.000264825,-3.729341507,-0.785533828,0.000086101,-0.742046952,0.000352481,-0.000120180,22.252681732,-2.356372622,-0.000817466,0.656542957,0.002568374,0.000118344,2.342100620,1.572031856,-0.000033031,-0.093199767,0.789574370,-0.000322813
1709656271.329694,,,,,,,,,,,,,,3.000000000,1709656271.329489946,0.000000000,0.033855762,0.000000000,0.000000000,0.033855762,0.000000000,-0.208655357,0.000743283,-0.001635510,-3.772981644,-0.785529961,0.000890232,-0.742046952,0.000352595,-0.000045727,22.133663177,-2.356364882,-0.003601771,0.668444812,0.002567038,-0.000048474,2.349424839,1.572031042,-0.000428790,-0.093199767,0.789577607,0.000227609
1709656271.362974,,,,,,,,,,,,,,4.000000000,1709656271.362804890,0.000000000,0.033855762,0.000000000,0.000000000,0.033855762,0.000000000,-0.248328209,0.000746067,0.000219615,-3.772981644,-0.785529804,0.001445590,-0.742046952,0.000354636,0.000287311,22.213008881,-2.356369761,-0.001052495,0.668444812,0.002567050,-0.000255235,2.342100620,1.572034673,0.007920086,-0.085875548,0.789574566,-0.001017851
1709656271.396619,,,,,,,,,,,,,,5.000000000,1709656271.396241903,0.000000000,0.033855762,0.000000000,0.000000000,0.033855762,0.000000000,-0.288001060,0.000747905,-0.001020379,-3.729341507,-0.785533048,-0.000189145,-0.742046952,0.000354924,0.000201754,22.173336029,-2.356366985,-0.000293131,0.662036121,0.002567249,-0.000146073,2.334776402,1.572032670,-0.002784840,-0.107848205,0.789576236,-0.000154865
1709656271.429760,,,,,,,,,,,,,,6.000000000,1709656271.429476976,0.000000000,0.033855762,0.000000000,0.000000000,0.033855762,0.000000000,-0.288001060,0.000748852,0.000666370,-3.729341507,-0.785533754,0.000467255,-0.702374101,0.000351826,-0.000163814,22.173336029,-2.356366977,0.000177655,0.662036121,0.002563029,-0.002191266,2.334776402,1.572033023,0.000101758,-0.128905341,0.789583030,0.001275697
1709656271.463008,,,,,,,,,,,,,,7.000000000,1709656271.462804079,0.000000000,0.033855762,0.000000000,0.000000000,0.033855762,0.000000000,-0.248328209,0.000748198,-0.000100593,-3.729341507,-0.785535163,-0.000332319,-0.742046952,0.000353190,-0.000030057,22.173336029,-2.356366977,-0.000607251,0.662036121,0.002564212,-0.000021977,2.342100620,1.572031843,-0.002260519,-0.064818420,0.789575871,-0.000671356
1709656271.496358,,,,,,,,,,,,,,8.000000000,1709656271.496145010,0.000000000,0.033855762,0.000000000,0.000000000,0.033855762,0.000000000,1.052941322,0.000774533,0.010781363,-1.940095901,-0.785535966,0.000907708,0.793292403,0.000395766,0.021035792,20.828426361,-2.356396116,-0.012180229,0.758166492,0.002598969,0.009461104,2.334776402,1.572027963,-0.005174558,-0.085875548,0.789570376,-0.000233177
1709656271.529727,,,,,,,,,,,,,,9.000000000,1709656271.529464006,0.000000000,0.033855762,0.000000000,0.000000000,0.033855762,0.000000000,-0.010291100,0.001932991,0.033021639,-2.590730667,-0.784439546,0.045729896,-0.150921464,0.001421201,0.032480169,22.054317474,-2.356880459,-0.008096126,0.829577625,0.002899291,-0.003194505,2.589293003,1.572177948,0.004626280,-0.143553779,0.789580322,0.001289479
1709656271.563006,,,,,,,,,,,,,,10.000000000,1709656271.562725067,0.000000000,0.033856090,0.000000000,0.000000000,0.033856090,0.000000000,-0.208655357,0.002905945,0.035602879,-3.078706741,-0.782776208,0.053961270,-0.583355546,0.003054704,0.047860523,22.133663177,-2.357287647,-0.008805625,0.763659656,0.003232198,0.011470259,2.473021030,1.572662846,0.014225797,-0.100523986,0.789579885,-0.000437643
1709656271.596404,,,,,,,,,,,,,,11.000000000,1709656271.596134901,0.000000000,0.033856090,0.000000000,0.000000000,0.033856090,0.000000000,-0.089636803,0.004121348,0.028581460,-3.324678421,-0.780954979,0.056698880,-0.623028398,0.004594169,0.050383042,21.939266205,-2.357708463,-0.012482252,0.793872058,0.003605910,0.010370734,2.436399937,1.573097954,0.007053248,-0.057494201,0.789574947,-0.001261443
1709656271.629956,,,,,,,,,,,,,,12.000000000,1709656271.629681110,0.000000000,0.033856090,0.000000000,0.000000000,0.033856090,0.000000000,-0.010291100,0.005348996,0.037167780,-3.324678421,-0.779092390,0.049877108,-0.583355546,0.006068246,0.044157092,22.252681732,-2.358225255,-0.010459775,0.817675769,0.003978806,0.015379920,2.524290562,1.573508673,0.008505775,-0.143553779,0.789580255,0.001976793
1709656271.662983,,,,,,,,,,,,,,13.000000000,1709656271.662811995,0.000000000,0.033856090,0.000000000,0.000000000,0.033856090,0.000000000,-0.327673912,0.006596900,0.038678389,-3.285005569,-0.777301081,0.053311127,-0.702374101,0.007674326,0.045513995,22.133663177,-2.358748038,-0.014187528,0.787463367,0.004375198,0.013479069,2.545347691,1.573929316,0.011498451,-0.093199767,0.789574423,-0.000330834
1709656271.696772,,,,,,,,,,,,,,14.000000000,1709656271.696194887,0.000000000,0.033856090,0.000000000,0.000000000,0.033856090,0.000000000,-0.089636803,0.007749688,0.029417737,-3.487337112,-0.775458989,0.054609050,-0.702374101,0.009148600,0.040863128,22.173336029,-2.359201066,-0.013050577,0.829577625,0.004759019,0.009526261,2.567320347,1.574401270,0.017271665,-0.107848205,0.789580210,0.000621032
1709656271.729476,,,,,,,,,,,,,,15.000000000,1709656271.729305029,0.000000000,0.033856090,0.000000000,0.000000000,0.033856090,0.000000000,-0.129309654,0.008898871,0.032673945,-3.487337112,-0.773640667,0.055781650,-0.543682694,0.010580542,0.041387921,22.093990326,-2.359640575,-0.005428779,0.865283191,0.005114539,0.008814130,2.567320347,1.574866038,0.015557449,-0.115172423,0.789581501,0.001088765
1709656271.746702,0.563994300,0.697781212,0.541853410,0.362476028,0.522708461,0.391891647,0.402211279,0.542112579,0.346218374,0.503764515,0.363564997,0.379521827,0.000000000,,,,,,,,,,,,,,,,,,,,,,,,,,,,,
1709656271.763236,,,,,,,,,,,,,,16.000000000,1709656271.762876987,0.000000000,0.033856090,0.000000000,0.000000000,0.033856090,0.000000000,-0.089636803,0.010106505,0.036512908,-3.487337112,-0.771782429,0.049701193,-0.388958573,0.012007657,0.043977511,22.332027435,-2.360065840,-0.017613016,0.865283191,0.005507142,0.007921992,2.603941441,1.575370293,0.015764231,-0.107848205,0.789580174,0.001076633
1709656271.780715,0.563994300,0.697559103,0.541596870,0.361179102,0.521317924,0.388303915,0.398653521,0.540379429,0.346218374,0.503535116,0.362411679,0.379521827,0.000000000,,,,,,,,,,,,,,,,,,,,,,,,,,,,,
1709656271.796520,,,,,,,,,,,,,,17.000000000,1709656271.796224117,0.000000000,0.033856090,0.000000000,0.000000000,0.033856090,0.000000000,-0.327673912,0.011299221,0.038209615,-3.364351273,-0.770025239,0.051343684,-0.742046952,0.013656702,0.052725766,22.093990326,-2.360497934,-0.014064021,0.835070789,0.005906521,0.016129412,2.567320347,1.575856671,0.011240439,-0.136229560,0.789582264,0.001558422
1709656271.814746,0.563994300,0.697315109,0.541317114,0.359891383,0.519936671,0.384719300,0.395097667,0.538661454,0.346218374,0.503284289,0.361265372,0.379521827,0.000000000,,,,,,,,,,,,,,,,,,,,,,,,,,,,,
1709656271.829951,,,,,,,,,,,,,,18.000000000,1709656271.829694033,0.000000000,0.033856090,0.000000000,0.000000000,0.033856090,0.000000000,-0.129309654,0.012433969,0.032763850,-3.527009964,-0.768117176,0.058470952,-0.742046952,0.015227466,0.048072169,22.213008881,-2.360895661,-0.017929152,0.858874500,0.006301991,0.004859979,2.559996128,1.576419561,0.019548966,-0.064818420,0.789572211,-0.001220783
1709656271.848868,0.563994300,0.697058667,0.541023808,0.358586689,0.518544903,0.381135549,0.391540350,0.536949130,0.346218374,0.503021094,0.360105623,0.379521827,0.000000000,,,,,,,,,,,,,,,,,,,,,,,,,,,,,
1709656271.863446,,,,,,,,,,,,,,19.000000000,1709656271.862843037,0.000000000,0.033856090,0.000000000,0.000000000,0.033856090,0.000000000,-0.248328209,0.013604431,0.032564716,-3.610322952,-0.766155444,0.055103213,-0.662701249,0.016782993,0.041076409,22.252681732,-2.361300918,-0.013911797,0.841479480,0.006692171,0.016268618,2.589293003,1.576953590,0.016753013,-0.079466857,0.789574333,-0.000776745
1709656271.882863,0.563994300,0.696811752,0.540739704,0.357313393,0.517184690,0.377550660,0.387978145,0.535222840,0.346218374,0.502766751,0.358973326,0.379521827,0.000000000,,,,,,,,,,,,,,,,,,,,,,,,,,,,,
1709656271.896457,,,,,,,,,,,,,,20.000000000,1709656271.896193981,0.000000000,0.033856090,0.000000000,0.000000000,0.033856090,0.000000000,-0.129309654,0.014751224,0.028808601,-3.610322952,-0.764247537,0.054715260,-0.702374101,0.018315368,0.043572895,22.133663177,-2.361683371,-0.010278392,0.823168933,0.007092659,0.020435410,2.538938999,1.577519308,0.018540947,-0.072142638,0.789575268,-0.001069781
1709656271.917076,0.563994300,0.696549613,0.540442070,0.356028745,0.515815305,0.373975046,0.384426808,0.533507515,0.346218374,0.502498980,0.357830294,0.379521827,0.000000000,,,,,,,,,,,,,,,,,,,,,,,,,,,,,
1709656271.929942,,,,,,,,,,,,,,21.000000000,1709656271.929533958,0.000000000,0.033855762,0.000000000,0.000000000,0.033855762,0.000000000,-0.168982506,0.015858614,0.031291741,-3.975313187,-0.762269410,0.066823784,-0.861065507,0.019856283,0.045366527,22.371700287,-2.362080121,-0.009894320,0.846972644,0.007512208,0.012900246,2.574644566,1.578070612,0.018046275,-0.079466857,0.789576116,-0.001403125
1709656271.950790,0.563994300,0.696294066,0.540150659,0.354772466,0.514476829,0.370399691,0.380872945,0.531776460,0.346218374,0.502237259,0.356713094,0.379521827,0.000000000,,,,,,,,,,,,,,,,,,,,,,,,,,,,,
1709656271.963146,,,,,,,,,,,,,,22.000000000,1709656271.962846994,0.000000000,0.033855762,0.000000000,0.000000000,0.033855762,0.000000000,-0.208655357,0.016985922,0.031428076,-3.812654495,-0.760355336,0.057298874,-0.742046952,0.021346597,0.038783472,22.252681732,-2.362451278,-0.012729568,0.841479480,0.007914983,0.005264009,2.552671909,1.578619503,0.010005083,-0.136229560,0.789582779,0.001845324
1709656271.984854,0.563994300,0.696055676,0.539874667,0.353513763,0.513129932,0.366811162,0.377298109,0.530055937,0.346218374,0.501990815,0.355593429,0.379521827,0.000000000,,,,,,,,,,,,,,,,,,,,,,,,,,,,,
1709656271.996526,,,,,,,,,,,,,,23.000000000,1709656271.996212006,0.000000000,0.033855762,0.000000000,0.000000000,0.033855762,0.000000000,-0.129309654,0.018196719,0.040271984,-3.649995804,-0.758488435,0.053668736,-0.861065507,0.022835068,0.044034790,22.213008881,-2.362804424,-0.008023783,0.841479480,0.008312793,0.015318758,2.559996128,1.579179512,0.018536169,-0.136229560,0.789582255,0.001753820
1709656272.018771,0.563994300,0.695817474,0.539596467,0.352242307,0.511766093,0.363212432,0.373706643,0.528356814,0.346218374,0.501743234,0.354462648,0.379521827,0.000000000,,,,,,,,,,,,,,,,,,,,,,,,,,,,,
1709656272.030176,,,,,,,,,,,,,,24.000000000,1709656272.029805899,0.000000000,0.033855762,0.000000000,0.000000000,0.033855762,0.000000000,-0.208655357,0.019465812,0.034619924,-3.892000198,-0.756524165,0.054437676,-0.821392655,0.024294567,0.049767009,22.252681732,-2.363142367,-0.010127986,0.835070789,0.008722216,0.007220303,2.545347691,1.579779815,0.018886447,-0.107848205,0.789579460,0.000301319
1709656272.052901,0.563994300,0.695556877,0.539298365,0.350975260,0.510410692,0.359630096,0.370136186,0.526660696,0.346218374,0.501475890,0.353334244,0.379521827,0.000000000,,,,,,,,,,,,,,,,,,,,,,,,,,,,,
1709656272.063142,,,,,,,,,,,,,,25.000000000,1709656272.062854052,0.000000000,0.033855762,0.000000000,0.000000000,0.033855762,0.000000000,-0.208655357,0.020623837,0.036678021,-3.812654495,-0.754547163,0.056459566,-0.781719804,0.025787852,0.038045973,22.252681732,-2.363475125,-0.011331365,0.835070789,0.009115694,0.010543170,2.559996128,1.580369402,0.016814151,-0.128905341,0.789578351,0.000514354
1709656272.086769,0.563994300,0.695288015,0.538992676,0.349702744,0.509048959,0.356051556,0.366568917,0.524976884,0.346218374,0.501201133,0.352200775,0.379521827,0.000000000,,,,,,,,,,,,,,,,,,,,,,,,,,,,,
1709656272.096313,,,,,,,,,,,,,,26.000000000,1709656272.096048117,0.000000000,0.033855762,0.000000000,0.000000000,0.033855762,0.000000000,-0.129309654,0.021767757,0.034557649,-4.014986038,-0.752517681,0.061973885,-0.861065507,0.027312025,0.048052931,22.252681732,-2.363798005,-0.008461030,0.817675769,0.009504497,0.008977052,2.538938999,1.580956074,0.020916071,-0.115172423,0.789576850,0.001058399
1709656272.120737,0.563994300,0.695017666,0.538683015,0.348394607,0.507649525,0.352461717,0.362985918,0.523319688,0.346218374,0.500923609,0.351036266,0.379521827,0.000000000,,,,,,,,,,,,,,,,,,,,,,,,,,,,,
1709656272.129830,,,,,,,,,,,,,,27.000000000,1709656272.129537106,0.000000000,0.033855762,0.000000000,0.000000000,0.033855762,0.000000000,-0.248328209,0.023009442,0.038640785,-4.217317581,-0.750460776,0.065427965,-0.940411210,0.028843759,0.043398561,22.292354584,-2.364121051,-0.012833509,0.811267078,0.009899197,0.013670936,2.559996128,1.581534806,0.020223265,-0.072142638,0.789572270,-0.001710246
1709656272.154789,0.563994300,0.694745503,0.538373775,0.347083707,0.506244411,0.348877948,0.359413299,0.521671484,0.346218374,0.500645639,0.349867790,0.379521827,0.000000000,,,,,,,,,,,,,,,,,,,,,,,,,,,,,
1709656272.163127,,,,,,,,,,,,,,28.000000000,1709656272.162832022,0.000000000,0.033855762,0.000000000,0.000000000,0.033855762,0.000000000,-0.288001060,0.024179327,0.034406160,-4.300630569,-0.748441911,0.059319510,-1.095135331,0.030426115,0.047633079,22.371700287,-2.364451866,-0.010333087,0.835070789,0.010304005,0.017136904,2.531614780,1.582112829,0.014126912,-0.128905341,0.789578740,0.001083646
1709656272.188673,0.563994300,0.694471532,0.538064796,0.345815733,0.504884589,0.345306136,0.355859356,0.520002755,0.346218374,0.500367135,0.348735240,0.379521827,0.000000000,,,,,,,,,,,,,,,,,,,,,,,,,,,,,
1709656272.196406,,,,,,,,,,,,,,29.000000000,1709656272.196158886,0.000000000,0.033855762,0.000000000,0.000000000,0.033855762,0.000000000,-0.248328209,0.025289749,0.030029261,-4.260957718,-0.746461744,0.052890839,-0.980084062,0.031944129,0.047339797,22.371700287,-2.364761902,-0.009138558,0.835070789,0.010714951,0.011002945,2.538938999,1.582739368,0.015432010,-0.128905341,0.789582990,0.000808324
1709656272.222771,0.563994300,0.694202480,0.537759934,0.344583556,0.503564703,0.341735328,0.352308578,0.518313427,0.346218374,0.500092858,0.347634800,0.379521827,0.000000000,,,,,,,,,,,,,,,,,,,,,,,,,,,,,
1709656272.229797,,,,,,,,,,,,,,30.000000000,1709656272.229496956,0.000000000,0.033855762,0.000000000,0.000000000,0.033855762,0.000000000,-0.129309654,0.026398388,0.030848142,-4.300630569,-0.744479390,0.061153609,-0.980084062,0.033410584,0.043509929,22.332027435,-2.365056653,-0.011240729,0.841479480,0.011118746,0.010607107,2.516966343,1.583369136,0.011397139,-0.128905341,0.789579767,0.001047541
1709656272.256710,0.563994300,0.693931854,0.537452237,0.343326259,0.502215867,0.338157442,0.348749601,0.516648609,0.346218374,0.499816414,0.346511814,0.379521827,0.000000000,,,,,,,,,,,,,,,,,,,,,,,,,,,,,
1709656272.264280,,,,,,,,,,,,,,31.000000000,1709656272.263586998,0.000000000,0.033856090,0.000000000,0.000000000,0.033856090,0.000000000,-0.049963951,0.027550848,0.026624957,-4.379976273,-0.742441486,0.061463379,-1.015789628,0.034879687,0.048268459,22.332027435,-2.365329365,-0.008700243,0.841479480,0.011514627,0.013250730,2.487669468,1.584009571,0.008368922,-0.122496642,0.789578953,0.001237254
1709656272.290771,0.563994300,0.693646898,0.537130055,0.342066569,0.500862741,0.334582915,0.345197175,0.515002674,0.346218374,0.499526362,0.345387193,0.379521827,0.000000000,,,,,,,,,,,,,,,,,,,,,,,,,,,,,
1709656272.296584,,,,,,,,,,,,,,32.000000000,1709656272.296211958,0.000000000,0.033856090,0.000000000,0.000000000,0.033856090,0.000000000,-0.049963951,0.027550848,0.026624957,-4.379976273,-0.742441486,0.061463379,-1.015789628,0.034879687,0.048268459,22.332027435,-2.365329365,-0.008700243,0.841479480,0.011514627,0.013250730,2.487669468,1.584009571,0.008368922,-0.122496642,0.789578953,0.001237254
1709656272.324822,0.563994300,0.693355558,0.536802313,0.340832614,0.499539940,0.331217097,0.341853207,0.513493143,0.346218374,0.499230756,0.344284793,0.379521827,0.000000000,,,,,,,,,,,,,,,,,,,,,,,,,,,,,
1709656272.330151,,,,,,,,,,,,,,33.000000000,1709656272.329838037,0.000000000,0.033856090,0.000000000,0.000000000,0.033856090,0.000000000,-0.248328209,0.028699317,0.035442579,-4.463289261,-0.740362601,0.062636213,-1.134808183,0.036369020,0.039998015,22.252681732,-2.365575171,-0.008590424,0.799365222,0.011911245,0.010675662,2.538938999,1.584636583,0.017714963,-0.100523986,0.789578443,-0.000394006
1709656272.359379,0.563994300,0.693063388,0.536473108,0.339575361,0.498191292,0.327646780,0.338310282,0.511853384,0.346218374,0.498934039,0.343160952,0.379521827,0.000000000,,,,,,,,,,,,,,,,,,,,,,,,,,,,,
1709656272.363509,,,,,,,,,,,,,,34.000000000,1709656272.362984896,0.000000000,0.033856090,0.000000000,0.000000000,0.033856090,0.000000000,-0.129309654,0.029889743,0.033306876,-4.586275101,-0.738078433,0.065122945,-1.015789628,0.037952208,0.050042774,22.292354584,-2.365841100,-0.007479977,0.829577625,0.012327723,0.017387614,2.487669468,1.585360696,0.023233060,-0.115172423,0.789580309,0.000915224
1709656272.393226,0.563994300,0.692780806,0.536152570,0.338297744,0.496813731,0.324065666,0.334754118,0.510238300,0.346218374,0.498645899,0.342018285,0.379521827,0.000000000,,,,,,,,,,,,,,,,,,,,,,,,,,,,,
1709656272.396475,,,,,,,,,,,,,,35.000000000,1709656272.396177053,0.000000000,0.033856090,0.000000000,0.000000000,0.033856090,0.000000000,-0.129309654,0.031037919,0.036377175,-4.665620804,-0.735979049,0.062151230,-0.980084062,0.039434223,0.042915606,22.332027435,-2.366099099,-0.005494033,0.835070789,0.012713271,0.009717091,2.516966343,1.586032656,0.020683210,-0.072142638,0.789573394,-0.001074483
1709656272.427426,0.563994300,0.692494911,0.535830551,0.337023754,0.495432108,0.320489077,0.331206233,0.508640806,0.346218374,0.498355667,0.340876803,0.379521827,0.000000000,,,,,,,,,,,,,,,,,,,,,,,,,,,,,
1709656272.431071,,,,,,,,,,,,,,36.000000000,1709656272.430284023,0.000000000,0.033856090,0.000000000,0.000000000,0.033856090,0.000000000,-0.129309654,0.032245611,0.036410999,-4.665620804,-0.733914100,0.059273023,-0.940411210,0.040943508,0.040949758,22.411373138,-2.366329088,-0.009420143,0.841479480,0.013092162,0.004649657,2.538938999,1.586702393,0.023293912,-0.115172423,0.789578162,0.001015338
1709656272.460929,0.563994300,0.692203430,0.535503429,0.335762775,0.494064018,0.316917488,0.327667292,0.507044639,0.346218374,0.498060445,0.339747290,0.379521827,0.000000000,,,,,,,,,,,,,,,,,,,,,,,,,,,,,
1709656272.463482,,,,,,,,,,,,,,37.000000000,1709656272.463184118,0.000000000,0.033856090,0.000000000,0.000000000,0.033856090,0.000000000,-0.168982506,0.033406701,0.036832783,-4.748933792,-0.731850180,0.064522239,-1.174481034,0.042525341,0.049243647,22.252681732,-2.366519954,-0.002182606,0.835070789,0.013492410,0.017452240,2.494993687,1.587389606,0.018605543,-0.085875548,0.789576776,0.000024673
1709656272.495086,0.563994300,0.691904347,0.535166940,0.334495152,0.492692707,0.313343834,0.324127452,0.505455234,0.346218374,0.497757087,0.338612552,0.379521827,0.000000000,,,,,,,,,,,,,,,,,,,,,,,,,,,,,
1709656272.496501,,,,,,,,,,,,,,38.000000000,1709656272.496227980,0.000000000,0.033856090,0.000000000,0.000000000,0.033856090,0.000000000,-0.089636803,0.034564847,0.031885357,-4.625947952,-0.729760395,0.067305561,-1.134808183,0.044065354,0.044032811,22.332027435,-2.366700956,-0.008766955,0.817675769,0.013904927,0.014268643,2.487669468,1.588082412,0.019090165,-0.064818420,0.789572545,-0.001181093
1709656272.528813,0.563994300,0.691596955,0.534820529,0.333207495,0.491305698,0.309767823,0.320586354,0.503875619,0.346218374,0.497445009,0.337460254,0.379521827,0.000000000,,,,,,,,,,,,,,,,,,,,,,,,,,,,,
1709656272.529750,,,,,,,,,,,,,,39.000000000,1709656272.529459953,0.000000000,0.033855435,0.000000000,0.000000000,0.033855435,0.000000000,-0.208655357,0.035756613,0.034267646,-4.828279495,-0.727592435,0.066452488,-1.174481034,0.045565717,0.042202987,22.292354584,-2.366877027,-0.007507820,0.811267078,0.014322346,0.011873717,2.502317905,1.588767367,0.028285228,-0.128905341,0.789582924,0.001452068
1709656272.562691,0.563994300,0.691278937,0.534466318,0.331930106,0.489940305,0.306209250,0.317071562,0.502275246,0.346218374,0.497124477,0.336315967,0.379521827,0.000000000,,,,,,,,,,,,,,,,,,,,,,,,,,,,,
1709656272.563051,,,,,,,,,,,,,,40.000000000,1709656272.562743902,0.000000000,0.033855435,0.000000000,0.000000000,0.033855435,0.000000000,-0.208655357,0.036926057,0.030766032,-4.990938187,-0.725384570,0.067972379,-1.214153886,0.047054187,0.039437790,22.451045990,-2.367105050,-0.014685729,0.823168933,0.014732139,0.011790344,2.494993687,1.589479173,0.011355620,-0.064818420,0.789574718,-0.000871439
1709656272.596570,,,,,,,,,,,,,,41.000000000,1709656272.596216917,0.000000000,0.033855435,0.000000000,0.000000000,0.033855435,0.000000000,-0.129309654,0.037991437,0.029101688,-5.153596878,-0.723191664,0.065111750,-1.253826737,0.048533116,0.041281543,22.530391693,-2.367366097,-0.012573052,0.817675769,0.015127449,0.008423514,2.524290562,1.590201955,0.027445193,-0.093199767,0.789574382,-0.000328649
1709656272.596763,0.563994300,0.690963275,0.534114840,0.330673046,0.488593711,0.302652856,0.313561837,0.500673568,0.346218374,0.496806404,0.335189977,0.379521827,0.000000000,,,,,,,,,,,,,,,,,,,,,,,,,,,,,
1709656272.630049,,,,,,,,,,,,,,42.000000000,1709656272.629478931,0.000000000,0.033855435,0.000000000,0.000000000,0.033855435,0.000000000,-0.208655357,0.039086050,0.033330662,-5.236909866,-0.721004970,0.063418388,-1.174481034,0.049976714,0.037764307,22.490718842,-2.367574610,-0.000275725,0.823168933,0.015521014,0.010368257,2.516966343,1.590908543,0.018834463,-0.100523986,0.789575426,-0.000118788
1709656272.630816,0.563994300,0.690654813,0.533769446,0.329449275,0.487269147,0.299090459,0.310045864,0.499084881,0.346218374,0.496494544,0.334093601,0.379521827,0.000000000,,,,,,,,,,,,,,,,,,,,,,,,,,,,,
1709656272.663196,,,,,,,,,,,,,,43.000000000,1709656272.662892103,0.000000000,0.033855435,0.000000000,0.000000000,0.033855435,0.000000000,-0.168982506,0.040216675,0.036610399,-5.316255569,-0.718864314,0.066059298,-1.214153886,0.051417153,0.044813917,22.411373138,-2.367701363,-0.002344326,0.805773914,0.015920783,0.014474636,2.480345249,1.591649605,0.016977548,-0.115172423,0.789576707,0.000241598
1709656272.664722,0.563994300,0.690351012,0.533429530,0.328234217,0.485946873,0.295527995,0.306531940,0.497505697,0.346218374,0.496187564,0.333003590,0.379521827,0.000000000,,,,,,,,,,,,,,,,,,,,,,,,,,,,,
1709656272.696557,,,,,,,,,,,,,,44.000000000,1709656272.696218967,0.000000000,0.033855435,0.000000000,0.000000000,0.033855435,0.000000000,-0.168982506,0.041333557,0.031023545,-5.197237015,-0.716732908,0.062801085,-1.214153886,0.052882952,0.047371609,22.371700287,-2.367797740,-0.001428033,0.805773914,0.016317429,0.016092540,2.487669468,1.592397597,0.024007470,-0.050169982,0.789572702,-0.002405832
1709656272.698998,0.563994300,0.690029465,0.533073542,0.327007779,0.484610759,0.291975104,0.303033437,0.495948704,0.346218374,0.495864761,0.331902544,0.379521827,0.000000000,,,,,,,,,,,,,,,,,,,,,,,,,,,,,
1709656272.729494,,,,,,,,,,,,,,45.000000000,1709656272.729296923,0.000000000,0.033856090,0.000000000,0.000000000,0.033856090,0.000000000,-0.168982506,0.042375262,0.030437541,-5.197237015,-0.714592261,0.068914267,-1.293499589,0.054359608,0.040221813,22.371700287,-2.367872511,-0.000669219,0.823168933,0.016703831,0.007147668,2.502317905,1.593127970,0.018935755,-0.128905341,0.789578709,0.001135443
1709656272.732763,0.563994300,0.689700870,0.532708866,0.325768246,0.483261217,0.288618519,0.299725211,0.494552483,0.346218374,0.495534419,0.330790441,0.379521827,0.000000000,,,,,,,,,,,,,,,,,,,,,,,,,,,,,
1709656272.763041,,,,,,,,,,,,,,46.000000000,1709656272.762733936,0.000000000,0.033856090,0.000000000,0.000000000,0.033856090,0.000000000,-0.208655357,0.043495412,0.032835403,-5.399568558,-0.712359106,0.065305744,-1.293499589,0.055870509,0.041828836,22.332027435,-2.367964272,-0.005570767,0.799365222,0.017118745,0.015854783,2.494993687,1.593886260,0.028073285,-0.072142638,0.789576326,-0.001085798
1709656272.766785,0.563994300,0.689378532,0.532349242,0.324479915,0.481868142,0.285053569,0.296214406,0.493019705,0.346218374,0.495209353,0.329634922,0.379521827,0.000000000,,,,,,,,,,,,,,,,,,,,,,,,,,,,,
1709656272.796452,,,,,,,,,,,,,,47.000000000,1709656272.796189070,0.000000000,0.033856090,0.000000000,0.000000000,0.033856090,0.000000000,-0.208655357,0.044684199,0.034728988,-5.478914261,-0.710122464,0.067097511,-1.293499589,0.057378695,0.041913128,22.411373138,-2.368147259,-0.005432689,0.841479480,0.017521477,0.016809654,2.473021030,1.594628788,0.027764538,-0.042845763,0.789568700,-0.002345619
1709656272.801100,0.563994300,0.689057167,0.531990276,0.323175263,0.480460317,0.281486644,0.292703215,0.491493236,0.346218374,0.494885058,0.328464719,0.379521827,0.000000000,,,,,,,,,,,,,,,,,,,,,,,,,,,,,
1709656272.829926,,,,,,,,,,,,,,48.000000000,1709656272.829582930,0.000000000,0.033856090,0.000000000,0.000000000,0.033856090,0.000000000,-0.208655357,0.045861448,0.034025375,-5.562227249,-0.707892707,0.067295092,-1.487896562,0.058892104,0.047119805,22.490718842,-2.368326769,-0.001352208,0.829577625,0.017912918,0.008201872,2.509642124,1.595366194,0.019407415,-0.085875548,0.789573807,-0.000513252
1709656272.834707,0.563994300,0.688726677,0.531624379,0.321927724,0.479103430,0.277933799,0.289213793,0.489965830,0.346218374,0.494553373,0.327343564,0.379521827,0.000000000,,,,,,,,,,,,,,,,,,,,,,,,,,,,,
1709656272.862991,,,,,,,,,,,,,,49.000000000,1709656272.862735033,0.000000000,0.033856090,0.000000000,0.000000000,0.033856090,0.000000000,-0.208655357,0.046963216,0.032425061,-5.562227249,-0.705679437,0.065676538,-1.452190995,0.060371870,0.046247126,22.490718842,-2.368410578,-0.003744923,0.811267078,0.018320224,0.008574812,2.494993687,1.596174052,0.018210110,-0.079466857,0.789576106,-0.000922443
1709656272.869043,0.563994300,0.688401095,0.531262174,0.320734885,0.477799319,0.274381019,0.285726861,0.488428127,0.346218374,0.494225682,0.326272765,0.379521827,0.000000000,,,,,,,,,,,,,,,,,,,,,,,,,,,,,
1709656272.896694,,,,,,,,,,,,,,50.000000000,1709656272.896178961,0.000000000,0.033856090,0.000000000,0.000000000,0.033856090,0.000000000,-0.129309654,0.048085360,0.033306903,-5.478914261,-0.703448727,0.063342860,-1.293499589,0.061769097,0.033625398,22.451045990,-2.368428240,-0.001696687,0.811267078,0.018699521,0.016010979,2.480345249,1.596998700,0.026436997,-0.128905341,0.789578337,0.001298507
1709656272.903100,0.563994300,0.688075321,0.530898166,0.319534813,0.476485878,0.270822575,0.282234614,0.486903996,0.346218374,0.493896951,0.325195577,0.379521827,0.000000000,,,,,,,,,,,,,,,,,,,,,,,,,,,,,
1709656272.929701,,,,,,,,,,,,,,51.000000000,1709656272.929490089,0.000000000,0.033856090,0.000000000,0.000000000,0.033856090,0.000000000,-0.168982506,0.049255315,0.035083738,-5.641572952,-0.701171552,0.070025847,-1.412518144,0.063174922,0.038071180,22.332027435,-2.368444861,0.000463373,0.805773914,0.019084993,0.016096529,2.436399937,1.597828510,0.022121114,-0.057494201,0.789573863,-0.001235589
1709656272.936796,0.563994300,0.687730234,0.530515478,0.318280254,0.475120524,0.267268775,0.278751270,0.485409344,0.346218374,0.493550348,0.324069591,0.379521827,0.000000000,,,,,,,,,,,,,,,,,,,,,,,,,,,,,
1709656272.963000,,,,,,,,,,,,,,52.000000000,1709656272.962773085,0.000000000,0.033855762,0.000000000,0.000000000,0.033855762,0.000000000,-0.208655357,0.050375391,0.026242845,-5.887544632,-0.698834287,0.068294469,-1.452190995,0.064655281,0.047667428,22.451045990,-2.368516079,-0.005581769,0.805773914,0.019480914,0.014654103,2.436399937,1.598648028,0.030361835,-0.072142638,0.789576692,-0.001099037
1709656272.970741,0.563994300,0.687375460,0.530125873,0.317016072,0.473750720,0.263728160,0.275288572,0.483913957,0.346218374,0.493196139,0.322933690,0.379521827,0.000000000,,,,,,,,,,,,,,,,,,,,,,,,,,,,,
1709656272.996563,,,,,,,,,,,,,,53.000000000,1709656272.996247053,0.000000000,0.033855762,0.000000000,0.000000000,0.033855762,0.000000000,-0.168982506,0.051429341,0.030500308,-6.010530472,-0.696524279,0.064985090,-1.567242265,0.066179333,0.046403091,22.490718842,-2.368630498,-0.005878138,0.811267078,0.019861132,0.008572624,2.465696812,1.599463794,0.024773191,-0.128905341,0.789578628,0.001278399
1709656273.004745,0.563994300,0.687023016,0.529738812,0.315757635,0.472390214,0.260189804,0.271831573,0.482412241,0.346218374,0.492844272,0.321802484,0.379521827,0.000000000,,,,,,,,,,,,,,,,,,,,,,,,,,,,,
1709656273.030587,,,,,,,,,,,,,,54.000000000,1709656273.029767036,0.000000000,0.033855762,0.000000000,0.000000000,0.033855762,0.000000000,-0.168982506,0.052493272,0.032394604,-6.050203323,-0.694233011,0.063864970,-1.412518144,0.067636115,0.043072893,22.649410248,-2.368747273,-0.001380269,0.805773914,0.020249898,0.009236078,2.458372593,1.600294423,0.019746716,-0.093199767,0.789574265,-0.000554714
1709656273.038855,0.563994300,0.686676460,0.529357185,0.314533889,0.471054945,0.256649052,0.268373968,0.480919530,0.346218374,0.492497745,0.320702780,0.379521827,0.000000000,,,,,,,,,,,,,,,,,,,,,,,,,,,,,
1709656273.063264,,,,,,,,,,,,,,55.000000000,1709656273.062872887,0.000000000,0.033855762,0.000000000,0.000000000,0.033855762,0.000000000,-0.129309654,0.053574834,0.030199625,-6.010530472,-0.691957701,0.068138520,-1.452190995,0.069105877,0.042965625,22.530391693,-2.368761935,0.000008352,0.793872058,0.020657738,0.014652842,2.458372593,1.601095107,0.019362873,-0.064818420,0.789571472,-0.002146948
1709656273.072728,0.563994300,0.686326770,0.528972722,0.313296748,0.469697434,0.253106717,0.264916949,0.479454060,0.346218374,0.492148443,0.319590724,0.379521827,0.000000000,,,,,,,,,,,,,,,,,,,,,,,,,,,,,
1709656273.096928,,,,,,,,,,,,,,56.000000000,1709656273.096276999,0.000000000,0.033855762,0.000000000,0.000000000,0.033855762,0.000000000,-0.248328209,0.054681475,0.032592697,-6.010530472,-0.689660602,0.066357633,-1.487896562,0.070630250,0.044595372,22.530391693,-2.368762769,-0.000616632,0.781970203,0.021042042,0.011129999,2.458372593,1.601903526,0.023550496,-0.079466857,0.789577016,-0.001117876
1709656273.107527,0.563994300,0.685970302,0.528581731,0.312069271,0.468352580,0.249570341,0.261470882,0.477988777,0.346218374,0.491792901,0.318487403,0.379521827,0.000000000,,,,,,,,,,,,,,,,,,,,,,,,,,,,,
1709656273.129939,,,,,,,,,,,,,,57.000000000,1709656273.129734993,0.000000000,0.033855762,0.000000000,0.000000000,0.033855762,0.000000000,-0.168982506,0.055740240,0.029716248,-6.089876175,-0.687326237,0.068200632,-1.646587968,0.072115149,0.043410397,22.490718842,-2.368757894,0.000362551,0.811267078,0.021423920,0.013173105,2.443724155,1.602739231,0.028363899,-0.107848205,0.789579101,0.000389895
1709656273.141751,0.563994300,0.685598258,0.528172197,0.310806179,0.466973377,0.245928449,0.257924423,0.476482840,0.346218374,0.491421053,0.317352450,0.379521827,0.000000000,,,,,,,,,,,,,,,,,,,,,,,,,,,,,
1709656273.163141,,,,,,,,,,,,,,58.000000000,1709656273.162832022,0.000000000,0.033855762,0.000000000,0.000000000,0.033855762,0.000000000,-0.089636803,0.056854788,0.035586113,-6.252534866,-0.684952373,0.065873497,-1.487896562,0.073529476,0.039322293,22.530391693,-2.368762166,-0.000116125,0.817675769,0.021796602,0.006608762,2.458372593,1.603602076,0.025339638,-0.064818420,0.789572528,-0.001618685
1709656273.175726,0.563994300,0.685240122,0.527776078,0.309574881,0.465629335,0.242385147,0.254474864,0.475027746,0.346218374,0.491062101,0.316247935,0.379521827,0.000000000,,,,,,,,,,,,,,,,,,,,,,,,,,,,,
1709656273.196495,,,,,,,,,,,,,,59.000000000,1709656273.196137905,0.000000000,0.033855762,0.000000000,0.000000000,0.033855762,0.000000000,-0.089636803,0.058003176,0.035330769,-6.335847855,-0.682585484,0.071494497,-1.567242265,0.074927236,0.044996655,22.609737396,-2.368768426,-0.003078720,0.799365222,0.022173013,0.014400438,2.451048374,1.604432133,0.020907066,-0.107848205,0.789579110,-0.000029372
1709656273.210830,0.563994300,0.684905932,0.527407159,0.308415399,0.464359408,0.239051562,0.251232771,0.473665623,0.346218374,0.490727561,0.315205694,0.379521827,0.000000000,,,,,,,,,,,,,,,,,,,,,,,,,,,,,
1709656273.229832,,,,,,,,,,,,,,60.000000000,1709656273.229501963,0.000000000,0.033855762,0.000000000,0.000000000,0.033855762,0.000000000,-0.248328209,0.059142400,0.033055673,-6.375520706,-0.680259408,0.067674598,-1.567242265,0.076353587,0.036070217,22.490718842,-2.368760074,0.001653000,0.781970203,0.022548325,0.008501811,2.443724155,1.605318115,0.022310537,-0.122496642,0.789581798,0.001035199
1709656273.244693,0.563994300,0.684518204,0.526981628,0.307106373,0.462925091,0.235409462,0.247695371,0.472214910,0.346218374,0.490340812,0.314027526,0.379521827,0.000000000,,,,,,,,,,,,,,,,,,,,,,,,,,,,,
1709656273.263647,,,,,,,,,,,,,,61.000000000,1709656273.263204098,0.000000000,0.033855762,0.000000000,0.000000000,0.033855762,0.000000000,-0.129309654,0.060196643,0.029642192,-6.133516312,-0.677956040,0.066214051,-1.646587968,0.077785568,0.039169287,22.609737396,-2.368765429,-0.002078760,0.787463367,0.022925411,0.016345979,2.421751499,1.606213278,0.022118808,-0.085875548,0.789574549,-0.000350840
1709656273.278812,0.563994300,0.684149797,0.526577568,0.305883387,0.461587115,0.231879737,0.244273594,0.470776942,0.346218374,0.489973506,0.312927361,0.379521827,0.000000000,,,,,,,,,,,,,,,,,,,,,,,,,,,,,
1709656273.296383,,,,,,,,,,,,,,62.000000000,1709656273.296120882,0.000000000,0.033855762,0.000000000,0.000000000,0.033855762,0.000000000,-0.129309654,0.061294675,0.036577096,-6.335847855,-0.675552537,0.070657730,-1.527569413,0.079212800,0.040939545,22.490718842,-2.368753637,-0.000037547,0.799365222,0.023289831,0.003385311,2.429075718,1.607123381,0.022762529,-0.100523986,0.789578685,0.000374457
1709656273.313027,0.563994300,0.683764410,0.526154439,0.304610982,0.460200108,0.228446069,0.240945089,0.469442820,0.346218374,0.489589056,0.311785531,0.379521827,0.000000000,,,,,,,,,,,,,,,,,,,,,,,,,,,,,
1709656273.329789,,,,,,,,,,,,,,63.000000000,1709656273.329515934,0.000000000,0.033855762,0.000000000,0.000000000,0.033855762,0.000000000,-0.129309654,0.062428907,0.030855872,-6.621492386,-0.673072083,0.070668913,-1.606915116,0.080654751,0.042439161,22.649410248,-2.368761415,-0.001110544,0.787463367,0.023679025,0.010074970,2.451048374,1.607979476,0.021009804,-0.115172423,0.789579965,0.000557836
1709656273.346685,0.563994300,0.683376891,0.525730262,0.303329221,0.458801595,0.224915882,0.237529281,0.468051255,0.346218374,0.489203209,0.310634388,0.379521827,0.000000000,,,,,,,,,,,,,,,,,,,,,,,,,,,,,
1709656273.363124,,,,,,,,,,,,,,64.000000000,1709656273.362874985,0.000000000,0.033856090,0.000000000,0.000000000,0.033856090,0.000000000,-0.208655357,0.063534358,0.029434791,-6.823823929,-0.670600952,0.067430230,-1.765606523,0.082151770,0.041493085,22.728755951,-2.368764133,-0.001218457,0.770068347,0.024059714,0.014892154,2.458372593,1.608844555,0.029608673,-0.057494201,0.789573621,-0.002065278
1709656273.381097,0.563994300,0.682989263,0.525308378,0.302087218,0.457443329,0.221398208,0.234133899,0.466646538,0.346218374,0.488818590,0.309516431,0.379521827,0.000000000,,,,,,,,,,,,,,,,,,,,,,,,,,,,,
1709656273.396360,,,,,,,,,,,,,,65.000000000,1709656273.396094084,0.000000000,0.033856090,0.000000000,0.000000000,0.033856090,0.000000000,-0.208655357,0.064582861,0.034080071,-6.740510941,-0.668192323,0.068865615,-1.646587968,0.083610450,0.038760953,22.689083099,-2.368748520,-0.000162458,0.799365222,0.024440081,0.012833339,2.429075718,1.609786882,0.028747114,-0.093199767,0.789575327,-0.000273693
1709656273.415153,0.563994300,0.682614613,0.524899210,0.300879118,0.456120846,0.217880044,0.230741415,0.465225456,0.346218374,0.488446108,0.308429225,0.379521827,0.000000000,,,,,,,,,,,,,,,,,,,,,,,,,,,,,
1709656273.429809,,,,,,,,,,,,,,66.000000000,1709656273.429492950,0.000000000,0.033856090,0.000000000,0.000000000,0.033856090,0.000000000,-0.129309654,0.065628425,0.033035900,-6.823823929,-0.665821706,0.067944710,-1.646587968,0.085019761,0.043338608,22.728755951,-2.368729894,0.000186462,0.793872058,0.024805424,0.007621711,2.421751499,1.610703843,0.023184863,-0.143553779,0.789581038,0.001710753
1709656273.448739,0.563994300,0.682236532,0.524486038,0.299664578,0.454787476,0.214360499,0.227350740,0.463823234,0.346218374,0.488070100,0.307336931,0.379521827,0.000000000,,,,,,,,,,,,,,,,,,,,,,,,,,,,,
1709656273.466265,,,,,,,,,,,,,,67.000000000,1709656273.466032028,0.000000000,0.033856090,0.000000000,0.000000000,0.033856090,0.000000000,-0.248328209,0.066713763,0.029160013,-6.823823929,-0.663406045,0.073473385,-1.725933671,0.086434827,0.037367446,22.808101654,-2.368675003,0.000412484,0.805773914,0.025176391,0.010512526,2.414427280,1.611611822,0.031894212,-0.064818420,0.789575507,-0.001373552
1709656273.482826,0.563994300,0.681839089,0.524053440,0.298460893,0.453459607,0.210848825,0.223974477,0.462447349,0.346218374,0.487675801,0.306255365,0.379521827,0.000000000,,,,,,,,,,,,,,,,,,,,,,,,,,,,,
1709656273.496721,,,,,,,,,,,,,,68.000000000,1709656273.496313095,0.000000000,0.033856090,0.000000000,0.000000000,0.033856090,0.000000000,-0.208655357,0.067747491,0.026283165,-6.823823929,-0.660927332,0.071604799,-1.805279374,0.087871873,0.040764512,22.808101654,-2.368542130,0.003715839,0.770068347,0.025535112,0.009734855,2.421751499,1.612535587,0.028770488,-0.143553779,0.789583183,0.001960628
1709656273.517182,0.563994300,0.681437222,0.523617102,0.297277307,0.452151954,0.207544096,0.220800873,0.461204334,0.346218374,0.487277720,0.305190694,0.379521827,0.000000000,,,,,,,,,,,,,,,,,,,,,,,,,,,,,
1709656273.529833,,,,,,,,,,,,,,69.000000000,1709656273.529601097,0.000000000,0.033856090,0.000000000,0.000000000,0.033856090,0.000000000,-0.208655357,0.068760546,0.029256177,-7.065828323,-0.658427851,0.072708503,-1.805279374,0.089263634,0.037315358,22.728755951,-2.368410655,0.001647166,0.799365222,0.025900795,0.014953844,2.392454624,1.613520939,0.029210205,-0.085875548,0.789576673,-0.000762934
1709656273.551573,0.563994300,0.681041148,0.523185242,0.296085099,0.450845373,0.204036910,0.217438312,0.459819127,0.346218374,0.486884424,0.304120041,0.379521827,0.000000000,,,,,,,,,,,,,,,,,,,,,,,,,,,,,
1709656273.563542,,,,,,,,,,,,,,70.000000000,1709656273.562830925,0.000000000,0.033856090,0.000000000,0.000000000,0.033856090,0.000000000,-0.129309654,0.069802329,0.032958366,-7.109468460,-0.655963058,0.072540114,-1.606915116,0.090622447,0.041239022,22.808101654,-2.368345092,0.001595077,0.787463367,0.026262886,0.017237175,2.407103062,1.614436288,0.028027637,-0.150877997,0.789581021,0.001804067
1709656273.585816,0.563994300,0.680637624,0.522744913,0.294824991,0.449453902,0.200418678,0.213970540,0.458427295,0.346218374,0.486483568,0.302987567,0.379521827,0.000000000,,,,,,,,,,,,,,,,,,,,,,,,,,,,,
1709656273.596616,,,,,,,,,,,,,,71.000000000,1709656273.596180916,0.000000000,0.033856090,0.000000000,0.000000000,0.033856090,0.000000000,-0.129309654,0.070932710,0.030321196,-7.228487015,-0.653515459,0.079210482,-1.686260819,0.092064570,0.039858018,22.887447357,-2.368221049,0.009829644,0.805773914,0.026624066,0.010371077,2.421751499,1.615348454,0.024617728,-0.072142638,0.789571910,-0.001247287
1709656273.619732,0.563994300,0.680248516,0.522319959,0.293602880,0.448084246,0.196997697,0.210692302,0.457174582,0.346218374,0.486096868,0.301886590,0.379521827,0.000000000,,,,,,,,,,,,,,,,,,,,,,,,,,,,,
1709656273.629826,,,,,,,,,,,,,,72.000000000,1709656273.629498005,0.000000000,0.033856090,0.000000000,0.000000000,0.033856090,0.000000000,-0.327673912,0.072085301,0.027043916,-7.065828323,-0.651067294,0.067256105,-1.844952226,0.093553098,0.042764246,22.728755951,-2.368006668,0.010622839,0.793872058,0.027004110,0.012376420,2.399778843,1.616342885,0.032766162,-0.072142638,0.789572998,-0.000785681
1709656273.653709,0.563994300,0.679838851,0.521876281,0.292402096,0.446736242,0.193494012,0.207347245,0.455867107,0.346218374,0.485691775,0.300804914,0.379521827,0.000000000,,,,,,,,,,,,,,,,,,,,,,,,,,,,,
1709656273.663134,,,,,,,,,,,,,,73.000000000,1709656273.662867069,0.000000000,0.033856090,0.000000000,0.000000000,0.033856090,0.000000000,-0.208655357,0.073147196,0.028831847,-7.188814163,-0.648550451,0.070633604,-1.805279374,0.095038020,0.038355707,22.768428802,-2.367770124,0.008980438,0.793872058,0.027383890,0.011594135,2.399778843,1.617344598,0.030954213,-0.057494201,0.789574614,-0.001803982
1709656273.687715,0.563994300,0.679423477,0.521425225,0.291188228,0.445389883,0.189992567,0.204009722,0.454552028,0.346218374,0.485280418,0.299713640,0.379521827,0.000000000,,,,,,,,,,,,,,,,,,,,,,,,,,,,,
1709656273.696567,,,,,,,,,,,,,,74.000000000,1709656273.696150064,0.000000000,0.033856090,0.000000000,0.000000000,0.033856090,0.000000000,-0.168982506,0.074218435,0.032107443,-7.351472855,-0.645992806,0.075669561,-1.805279374,0.096467924,0.042720581,22.808101654,-2.367623616,0.002085572,0.793872058,0.027748532,0.011861914,2.407103062,1.618325796,0.028633127,-0.100523986,0.789578322,0.000045458
1709656273.721946,0.563994300,0.679008684,0.520974306,0.289933851,0.444011477,0.186689379,0.200862461,0.453367447,0.346218374,0.484869395,0.298585977,0.379521827,0.000000000,,,,,,,,,,,,,,,,,,,,,,,,,,,,,
1709656273.729919,,,,,,,,,,,,,,75.000000000,1709656273.729558945,0.000000000,0.033856422,0.000000000,0.000000000,0.033856422,0.000000000,-0.129309654,0.075320274,0.027760953,-7.474458694,-0.643449091,0.074829192,-1.884625077,0.097880769,0.039649658,22.966793060,-2.367545498,0.001879317,0.787463367,0.028113347,0.010330021,2.407103062,1.619304527,0.029655058,-0.072142638,0.789575527,-0.001284402
1709656273.755706,0.563994300,0.678595998,0.520526223,0.288708447,0.442656363,0.183190541,0.197537656,0.452057457,0.346218374,0.484460780,0.297483470,0.379521827,0.000000000,,,,,,,,,,,,,,,,,,,,,,,,,,,,,
1709656273.763433,,,,,,,,,,,,,,76.000000000,1709656273.762875080,0.000000000,0.033856422,0.000000000,0.000000000,0.033856422,0.000000000,-0.248328209,0.076399155,0.031146655,-7.720430374,-0.640916354,0.075509287,-1.884625077,0.099302877,0.045271897,23.125484467,-2.367405054,0.007462165,0.770068347,0.028474001,0.020656490,2.436399937,1.620285757,0.025649781,-0.093199767,0.789577632,-0.000275214
1709656273.790210,0.563994300,0.678175595,0.520072493,0.287554995,0.441366629,0.179707879,0.194239460,0.450749786,0.346218374,0.484046020,0.296447008,0.379521827,0.000000000,,,,,,,,,,,,,,,,,,,,,,,,,,,,,
1709656273.796811,,,,,,,,,,,,,,77.000000000,1709656273.796242952,0.000000000,0.033856422,0.000000000,0.000000000,0.033856422,0.000000000,-0.168982506,0.077374026,0.028381288,-7.637117386,-0.638392465,0.072818715,-1.844952226,0.100691132,0.039440322,22.887447357,-2.367132495,0.005541075,0.805773914,0.028829086,0.012687427,2.399778843,1.621247069,0.027240423,-0.093199767,0.789577601,0.000048794
1709656273.823607,0.563994300,0.677792795,0.519658610,0.286517932,0.440201091,0.176532081,0.191236153,0.449566535,0.346218374,0.483667982,0.295515072,0.379521827,0.000000000,,,,,,,,,,,,,,,,,,,,,,,,,,,,,
1709656273.830150,,,,,,,,,,,,,,78.000000000,1709656273.829555988,0.000000000,0.033856422,0.000000000,0.000000000,0.033856422,0.000000000,-0.089636803,0.078381038,0.027529719,-7.597444534,-0.635862289,0.078247727,-1.844952226,0.102064512,0.043747583,22.887447357,-2.366848704,0.011699008,0.770068347,0.029194117,0.011651327,2.371397495,1.622247017,0.028804240,-0.143553779,0.789581276,0.002041244
1709656273.857900,0.563994300,0.677335948,0.519163670,0.285263865,0.438793745,0.172938812,0.187840330,0.448291674,0.346218374,0.483216310,0.294387445,0.379521827,0.000000000,,,,,,,,,,,,,,,,,,,,,,,,,,,,,
1709656273.863301,,,,,,,,,,,,,,79.000000000,1709656273.862895012,0.000000000,0.033856422,0.000000000,0.000000000,0.033856422,0.000000000,-0.089636803,0.078381038,0.027529719,-7.597444534,-0.635862289,0.078247727,-1.844952226,0.102064512,0.043747583,22.887447357,-2.366848704,0.011699008,0.770068347,0.029194117,0.011651327,2.371397495,1.622247017,0.028804240,-0.143553779,0.789581276,0.002041244
1709656273.892058,0.563994300,0.676908291,0.518700790,0.284078232,0.437469412,0.169455098,0.184556275,0.447020316,0.346218374,0.482793758,0.293321788,0.379521827,0.000000000,,,,,,,,,,,,,,,,,,,,,,,,,,,,,
1709656273.897381,,,,,,,,,,,,,,80.000000000,1709656273.896244049,0.000000000,0.033856422,0.000000000,0.000000000,0.033856422,0.000000000,-0.208655357,0.079437571,0.032270494,-7.720430374,-0.633310483,0.071349735,-1.805279374,0.103426226,0.039124957,22.847774506,-2.366583611,0.002535952,0.775561512,0.029557295,0.012695745,2.349424839,1.623283895,0.021597614,-0.064818420,0.789572227,-0.001275513
1709656273.926160,0.563994300,0.676475078,0.518234400,0.282885955,0.436144250,0.165982423,0.181292567,0.445746980,0.346218374,0.482367084,0.292249363,0.379521827,0.000000000,,,,,,,,,,,,,,,,,,,,,,,,,,,,,
1709656273.929960,,,,,,,,,,,,,,81.000000000,1709656273.929536104,0.000000000,0.033856090,0.000000000,0.000000000,0.033856090,0.000000000,-0.248328209,0.080489069,0.026858711,-7.922761917,-0.630729955,0.077501928,-1.924297929,0.104819153,0.044882834,22.847774506,-2.366349964,0.007973078,0.793872058,0.029915319,0.013184139,2.364073277,1.624294399,0.034385737,-0.115172423,0.789580268,0.000644750
1709656273.959943,0.563994300,0.676043567,0.517770248,0.281708740,0.434830752,0.162513076,0.178039103,0.444478329,0.346218374,0.481942327,0.291189546,0.379521827,0.000000000,,,,,,,,,,,,,,,,,,,,,,,,,,,,,
1709656273.963597,,,,,,,,,,,,,,82.000000000,1709656273.963088036,0.000000000,0.033856090,0.000000000,0.000000000,0.033856090,0.000000000,-0.089636803,0.081452724,0.026429151,-7.962434769,-0.628180283,0.072119005,-1.884625077,0.106242595,0.048009904,23.006465912,-2.366162706,0.004302246,0.770068347,0.030291511,0.011179521,2.371397495,1.625291139,0.021922860,-0.122496642,0.789578709,0.001263128
1709656273.993831,0.563994300,0.675606816,0.517298670,0.280523429,0.433495095,0.159036897,0.174782586,0.443247783,0.346218374,0.481511478,0.290123590,0.379521827,0.000000000,,,,,,,,,,,,,,,,,,,,,,,,,,,,,
1709656273.996644,,,,,,,,,,,,,,83.000000000,1709656273.996221066,0.000000000,0.033856090,0.000000000,0.000000000,0.033856090,0.000000000,-0.089636803,0.082455993,0.030374276,-7.839448929,-0.625630462,0.074896359,-1.884625077,0.107650995,0.045243041,23.006465912,-2.365930207,0.004232517,0.770068347,0.030655227,0.011724901,2.386045933,1.626324945,0.025161672,-0.100523986,0.789575426,0.000212057
1709656274.027797,0.563994300,0.675157628,0.516813480,0.279294982,0.432118978,0.155561278,0.171533073,0.442040224,0.346218374,0.481068286,0.289019816,0.379521827,0.000000000,,,,,,,,,,,,,,,,,,,,,,,,,,,,,
1709656274.030243,,,,,,,,,,,,,,84.000000000,1709656274.029769897,0.000000000,0.033856090,0.000000000,0.000000000,0.033856090,0.000000000,-0.129309654,0.083528302,0.031579399,-7.962434769,-0.623002411,0.075771842,-1.960003495,0.109073813,0.044164601,22.887447357,-2.365629598,0.008406379,0.781970203,0.031004499,0.005942315,2.349424839,1.627354832,0.041076823,-0.143553779,0.789581081,0.002392428
1709656274.061867,0.563994300,0.674703178,0.516323766,0.278070348,0.430755539,0.152095335,0.168302866,0.440825632,0.346218374,0.480620550,0.287918620,0.379521827,0.000000000,,,,,,,,,,,,,,,,,,,,,,,,,,,,,
1709656274.062917,,,,,,,,,,,,,,85.000000000,1709656274.062756062,0.000000000,0.033856090,0.000000000,0.000000000,0.033856090,0.000000000,-0.168982506,0.084627119,0.034345160,-8.208406448,-0.620326773,0.081618414,-2.039349079,0.110505389,0.039787953,23.046138763,-2.365376421,0.008221131,0.775561512,0.031355632,0.006781910,2.371397495,1.628378184,0.028187878,-0.064818420,0.789574686,-0.001808847
1709656274.095914,0.563994300,0.674212124,0.515801699,0.276986927,0.429570934,0.148684917,0.165152806,0.439555150,0.346218374,0.480140568,0.286948533,0.379521827,0.000000000,,,,,,,,,,,,,,,,,,,,,,,,,,,,,
1709656274.096412,,,,,,,,,,,,,,86.000000000,1709656274.096055031,0.000000000,0.033856090,0.000000000,0.000000000,0.033856090,0.000000000,-0.208655357,0.085665517,0.033677983,-8.450410843,-0.617649240,0.075559316,-2.158367634,0.111919198,0.044787550,23.085811615,-2.365162131,0.010818620,0.763659656,0.031705305,0.006842689,2.349424839,1.629462342,0.032190037,-0.143553779,0.789579885,0.001918569
1709656274.130306,0.563994300,0.673190063,0.514836197,0.276851534,0.429593738,0.145916369,0.162858753,0.437972394,0.346218374,0.479206263,0.286835476,0.379521827,0.000000000,,,,,,,,,,,,,,,,,,,,,,,,,,,,,
1709656274.131228,,,,,,,,,,,,,,87.000000000,1709656274.130259991,0.000000000,0.033856090,0.000000000,0.000000000,0.033856090,0.000000000,-4.421912193,0.085977616,-0.035774371,-6.621492386,-0.614811942,0.099884353,-5.736858845,0.113146972,0.036862447,21.780574799,-2.364918879,0.008487574,0.327868640,0.032025714,0.016192448,2.371397495,1.630537546,0.030352416,-0.085875548,0.789576712,-0.000383904
1709656274.163521,,,,,,,,,,,,,,88.000000000,1709656274.162956953,0.000000000,0.033856090,0.000000000,0.000000000,0.033856090,0.000000000,-1.863013268,0.080797235,-0.235065355,-6.173189163,-0.611166222,0.130979752,-3.848431110,0.115199355,0.094953762,25.585201263,-2.364401031,0.035596788,0.799365222,0.032672015,0.055756803,3.302488804,1.632002820,0.082249602,-0.107848205,0.789579150,0.000803623
1709656274.164278,0.563994300,0.671013496,0.512836029,0.277560457,0.430552598,0.144076152,0.161805168,0.436711172,0.346218374,0.477246314,0.287376787,0.379521827,0.000000000,,,,,,,,,,,,,,,,,,,,,,,,,,,,,
1709656274.197293,,,,,,,,,,,,,,89.000000000,1709656274.196192026,0.000000000,0.033856090,0.000000000,0.000000000,0.033856090,0.000000000,-1.390906334,0.068574962,-0.460806197,-2.836702347,-0.604479118,0.229421990,-1.960003495,0.119901955,0.182464800,20.352352142,-2.362899435,0.048541620,0.620837390,0.034477211,0.053799204,2.218504429,1.637319916,0.162445653,-0.093199767,0.789574290,-0.000159228
1709656274.198022,0.563994300,0.667621421,0.509722115,0.278682619,0.432260917,0.143148629,0.161988709,0.435648625,0.346218374,0.474193114,0.288206070,0.379521827,0.000000000,,,,,,,,,,,,,,,,,,,,,,,,,,,,,
1709656274.229858,,,,,,,,,,,,,,90.000000000,1709656274.229614019,0.000000000,0.033856090,0.000000000,0.000000000,0.033856090,0.000000000,-4.302893639,0.049494699,-0.637227512,-2.836702347,-0.594532216,0.336937415,-7.077801228,0.126711221,0.219085498,20.233333588,-2.361353718,0.045098381,0.524707019,0.036181199,0.049941656,2.196531773,1.642620974,0.148286841,-0.072142638,0.789573040,-0.000227931
1709656274.232145,0.563994300,0.663108290,0.505517763,0.280453090,0.435208143,0.143159652,0.163386970,0.434702462,0.346218374,0.470097290,0.289586295,0.379521827,0.000000000,,,,,,,,,,,,,,,,,,,,,,,,,,,,,
1709656274.263056,,,,,,,,,,,,,,91.000000000,1709656274.262805939,0.000000000,0.033856090,0.000000000,0.000000000,0.033856090,0.000000000,-5.485144615,0.024091532,-0.824835716,-4.379976273,-0.580795448,0.447141799,-7.430889606,0.133909266,0.213387610,20.630062103,-2.360006657,0.034752186,0.339770496,0.038070297,0.062584253,2.036314487,1.647932230,0.160523525,-0.107848205,0.789576236,0.000877695
1709656274.265968,0.563994300,0.657555059,0.500279823,0.283604014,0.440366897,0.143703262,0.165659353,0.433307878,0.346218374,0.465021745,0.292170895,0.379521827,0.000000000,,,,,,,,,,,,,,,,,,,,,,,,,,,,,
1709656274.296393,,,,,,,,,,,,,,92.000000000,1709656274.296161890,0.000000000,0.033856090,0.000000000,0.000000000,0.033856090,0.000000000,-4.501257896,-0.008533283,-1.042098941,-4.586275101,-0.563749479,0.535861248,-7.153179646,0.140845067,0.194790935,20.471370697,-2.358611131,0.040245245,0.322375476,0.039798001,0.053432196,2.087584019,1.653201891,0.162849730,-0.050169982,0.789569959,-0.000742855
1709656274.300021,0.563994300,0.651150614,0.494159898,0.288316517,0.448038066,0.144807971,0.168795334,0.431474321,0.346218374,0.459124292,0.296083204,0.379521827,0.000000000,,,,,,,,,,,,,,,,,,,,,,,,,,,,,
1709656274.330185,,,,,,,,,,,,,,93.000000000,1709656274.329500914,0.000000000,0.033856090,0.000000000,0.000000000,0.033856090,0.000000000,-4.775000572,-0.047872612,-1.224842421,-9.549348831,-0.543936103,0.589176219,-7.510235310,0.147807711,0.199972294,22.689083099,-2.357123287,0.045952939,0.531115711,0.041570113,0.041666000,2.159910679,1.658538292,0.159589277,-0.093199767,0.789574647,0.000379296
1709656274.334026,0.563994300,0.644335781,0.487594459,0.294904269,0.458627844,0.146482321,0.172751981,0.428925938,0.346218374,0.452818364,0.301651742,0.379521827,0.000000000,,,,,,,,,,,,,,,,,,,,,,,,,,,,,
1709656274.363370,,,,,,,,,,,,,,94.000000000,1709656274.362871885,0.000000000,0.033856090,0.000000000,0.000000000,0.033856090,0.000000000,-3.910132408,-0.093849954,-1.462939091,-11.624238968,-0.523301323,0.592363624,-7.311871052,0.154704234,0.198890458,22.689083099,-2.355633496,0.036941589,0.662036121,0.043356882,0.052449182,2.159910679,1.663793830,0.150785789,-0.115172423,0.789576691,0.001701558
1709656274.367974,0.563994300,0.637913395,0.481355590,0.303006667,0.471374640,0.147849909,0.176500743,0.425102979,0.346218374,0.446846076,0.309111069,0.379521827,0.000000000,,,,,,,,,,,,,,,,,,,,,,,,,,,,,
1709656274.397308,,,,,,,,,,,,,,95.000000000,1709656274.396259069,0.000000000,0.033856090,0.000000000,0.000000000,0.033856090,0.000000000,0.894249916,-0.140776252,-1.303680228,-18.582857132,-0.504686206,0.523039502,-1.960003495,0.159667522,0.075584209,25.466182709,-2.355067251,-0.000413366,0.900988758,0.044113335,0.004613056,2.036314487,1.666080201,0.014209338,-0.042845763,0.789567589,-0.000618355
1709656274.401931,0.563994300,0.632828281,0.476291944,0.311170544,0.483399361,0.148286027,0.178991562,0.420677349,0.346218374,0.442050758,0.317153862,0.379521827,0.000000000,,,,,,,,,,,,,,,,,,,,,,,,,,,,,
1709656274.430889,,,,,,,,,,,,,,96.000000000,1709656274.430136919,0.000000000,0.033856090,0.000000000,0.000000000,0.033856090,0.000000000,3.687218666,-0.181042633,-1.093453865,-18.543184280,-0.488978994,0.414992884,2.328631878,0.161098349,0.037737037,24.791744232,-2.355021300,0.006352570,0.817675769,0.044459434,0.019118658,2.137938023,1.666556292,0.021625355,-0.107848205,0.789571227,0.000788680
1709656274.435883,0.563994300,0.628936383,0.472391701,0.318305755,0.493344402,0.147926023,0.180360491,0.416402556,0.346218374,0.438366883,0.324482581,0.379521827,0.000000000,,,,,,,,,,,,,,,,,,,,,,,,,,,,,
1709656274.463309,,,,,,,,,,,,,,97.000000000,1709656274.462920904,0.000000000,0.033856090,0.000000000,0.000000000,0.033856090,0.000000000,4.675072670,-0.214697419,-0.904299255,-18.380525589,-0.477195612,0.301442007,2.995135784,0.162422810,0.038874660,25.069454193,-2.354995869,0.003398223,0.996203601,0.044825275,0.012428215,2.174559116,1.667068220,0.010774691,-0.042845763,0.789564947,-0.002160296
1709656274.470079,0.563994300,0.626023913,0.469469281,0.323981955,0.500805013,0.146849841,0.180682327,0.412686116,0.346218374,0.435607673,0.330374345,0.379521827,0.000000000,,,,,,,,,,,,,,,,,,,,,,,,,,,,,
1709656274.496500,,,,,,,,,,,,,,98.000000000,1709656274.496134043,0.000000000,0.033856090,0.000000000,0.000000000,0.033856090,0.000000000,2.310570717,-0.241298332,-0.732542631,-17.281587601,-0.468833990,0.199933156,0.987689376,0.164097532,0.029638628,24.831417084,-2.354947673,0.002222790,0.919299304,0.045221807,0.003802858,2.268858433,1.667504447,0.013528123,-0.122496642,0.789576980,0.002563731
1709656274.503472,0.563994300,0.623563881,0.467099125,0.329306312,0.507247786,0.145716974,0.180879180,0.409027048,0.346218374,0.433327791,0.335770938,0.379521827,0.000000000,,,,,,,,,,,,,,,,,,,,,,,,,,,,,
1709656274.530449,,,,,,,,,,,,,,99.000000000,1709656274.530220032,0.000000000,0.033856090,0.000000000,0.000000000,0.033856090,0.000000000,-1.311560631,-0.269467507,-0.919541044,-15.694673538,-0.463845844,0.109418090,-3.535015583,0.168401446,0.184067812,23.601558685,-2.354810012,0.004664690,0.668444812,0.046985697,0.058075670,2.072935581,1.669483818,0.064299574,-0.050169982,0.789569463,-0.000226927
1709656274.536980,0.563994300,0.620561096,0.464329390,0.335464145,0.514318117,0.145233969,0.182041315,0.404937322,0.346218374,0.430608250,0.341917994,0.379521827,0.000000000,,,,,,,,,,,,,,,,,,,,,,,,,,,,,
1709656274.563610,,,,,,,,,,,,,,100.000000000,1709656274.563287973,0.000000000,0.033856090,0.000000000,0.000000000,0.033856090,0.000000000,-4.894019127,-0.304559845,-1.121759032,-10.810945511,-0.460036888,0.103489365,-7.311871052,0.176257857,0.241054557,22.014644623,-2.354751280,0.001034991,0.524707019,0.048882633,0.049950270,2.123289585,1.671531334,0.057264707,-0.100523986,0.789575024,0.001691570
1709656274.571015,0.563994300,0.617124430,0.461167175,0.343299351,0.523218517,0.145001842,0.183757017,0.399921831,0.346218373,0.427498666,0.349660885,0.379521827,0.000000000,,,,,,,,,,,,,,,,,,,,,,,,,,,,,
1709656274.598339,,,,,,,,,,,,,,101.000000000,1709656274.596348047,0.000000000,0.033856090,0.000000000,0.000000000,0.033856090,0.000000000,-5.758887291,-0.346287502,-1.298985745,-11.830537796,-0.456289926,0.120693069,-8.216412544,0.184752950,0.245907526,22.133663177,-2.354775690,-0.001117627,0.315966785,0.050855846,0.062449509,2.080259800,1.673597796,0.052707967,-0.050169982,0.789569469,-0.000236585
1709656274.605006,0.563993931,0.613301100,0.457608494,0.353128693,0.534311197,0.145141552,0.186120940,0.393918059,0.346131797,0.424016671,0.359303811,0.379521827,0.000000000,,,,,,,,,,,,,,,,,,,,,,,,,,,,,
1709656274.630708,,,,,,,,,,,,,,102.000000000,1709656274.630249977,0.000000000,0.033856090,0.000000000,0.000000000,0.033856090,0.000000000,-5.917578697,-0.394813557,-1.503765220,-12.318513870,-0.452202951,0.118884431,-8.807538033,0.192980321,0.252488847,21.701229095,-2.354890409,-0.005009988,0.280261219,0.052756089,0.058935239,1.876097202,1.675732958,0.072342391,-0.042845763,0.789568655,-0.000690435
1709656274.639009,0.563801581,0.609131393,0.453685429,0.365108132,0.547730059,0.145809748,0.189292097,0.386866121,0.345823904,0.420195689,0.370969445,0.379521827,0.000000000,,,,,,,,,,,,,,,,,,,,,,,,,,,,,
1709656274.663486,,,,,,,,,,,,,,103.000000000,1709656274.662942886,0.000000000,0.033856090,0.000000000,0.000000000,0.033856090,0.000000000,-4.814673424,-0.450279927,-1.719461967,-13.131807327,-0.447990636,0.119106495,-7.470562458,0.200878957,0.229446285,21.740901947,-2.355068025,-0.010390853,0.166735843,0.054728918,0.064301210,1.992369175,1.677870839,0.061276063,-0.029112855,0.789567116,-0.001618917
1709656274.672972,0.563173476,0.604666162,0.449443862,0.379166111,0.563372678,0.146561500,0.192783207,0.378570684,0.345217352,0.416080857,0.384558485,0.379421478,0.000000000,,,,,,,,,,,,,,,,,,,,,,,,,,,,,
1709656274.696822,,,,,,,,,,,,,,104.000000000,1709656274.696182013,0.000000000,0.033856090,0.000000000,0.000000000,0.033856090,0.000000000,-4.421912193,-0.512463098,-1.903760140,-13.131807327,-0.443913255,0.115402632,-6.800091267,0.208706954,0.227798933,21.899593353,-2.355349977,-0.006293847,0.417590320,0.056657979,0.057410140,1.876097202,1.679913560,0.055584309,-0.143553779,0.789576661,0.004432456
1709656274.706938,0.561690647,0.599895569,0.444962235,0.394302274,0.580103817,0.148647269,0.197386092,0.369555115,0.343952848,0.411715899,0.399060551,0.378695829,0.000000000,,,,,,,,,,,,,,,,,,,,,,,,,,,,,
1709656274.730037,,,,,,,,,,,,,,105.000000000,1709656274.729609966,0.000000000,0.033855762,0.000000000,0.000000000,0.033855762,0.000000000,1.525048256,-0.576484937,-1.756942610,-20.415742874,-0.441147018,0.067528384,-1.567242265,0.215164748,0.136918767,24.910762787,-2.355779795,-0.017185690,1.104235888,0.057553899,-0.000775542,1.708555698,1.680481475,0.009924774,-0.042845763,0.789568478,-0.003171595
1709656274.740782,0.559017176,0.595136385,0.440687498,0.408066947,0.595261291,0.153653284,0.204139295,0.360812642,0.341697285,0.407483087,0.412077224,0.376966175,0.000000000,,,,,,,,,,,,,,,,,,,,,,,,,,,,,
1709656274.763557,,,,,,,,,,,,,,106.000000000,1709656274.762938023,0.000000000,0.033855762,0.000000000,0.000000000,0.033855762,0.000000000,4.476708412,-0.633632756,-1.604384061,-15.571687698,-0.440551975,0.001103904,2.050921917,0.217528222,0.054026264,22.411373138,-2.356516655,-0.024939477,0.870776355,0.057939241,0.005408992,1.854124546,1.680317506,-0.012831980,-0.093199767,0.789569481,-0.000047189
1709656274.774821,0.556143813,0.590864539,0.436907928,0.420104829,0.608458886,0.158190369,0.209866407,0.352514610,0.339325020,0.403720263,0.423368851,0.375057766,0.000000000,,,,,,,,,,,,,,,,,,,,,,,,,,,,,
1709656274.796672,,,,,,,,,,,,,,107.000000000,1709656274.796251059,0.000000000,0.033855762,0.000000000,0.000000000,0.033855762,0.000000000,3.925255775,-0.683863279,-1.407440494,-14.718721390,-0.440841102,-0.016587196,2.090594769,0.219054550,0.049867308,22.371700287,-2.357190969,-0.023998952,0.865283191,0.058346231,0.010718662,1.846800327,1.679923040,-0.014193475,-0.079466857,0.789567956,-0.000618948
1709656274.809156,0.553244264,0.586987377,0.433500733,0.430185037,0.619503743,0.162228096,0.214680827,0.345002016,0.336963382,0.400322276,0.432761707,0.373101959,0.000000000,,,,,,,,,,,,,,,,,,,,,,,,,,,,,
1709656274.829922,,,,,,,,,,,,,,108.000000000,1709656274.829554081,0.000000000,0.033855762,0.000000000,0.000000000,0.033855762,0.000000000,3.687218666,-0.727494210,-1.190577698,-14.433076859,-0.441338081,-0.013675260,2.209613323,0.220648771,0.049356323,22.252681732,-2.358053165,-0.018890882,0.936694324,0.058669823,0.019610783,1.846800327,1.679429674,-0.017354442,-0.128905341,0.789573449,0.001588739
1709656274.842761,0.550423331,0.583512622,0.430458544,0.438319313,0.628420270,0.165786142,0.218695582,0.338503599,0.334676671,0.397288468,0.440297963,0.371164093,0.000000000,,,,,,,,,,,,,,,,,,,,,,,,,,,,,
1709656274.863338,,,,,,,,,,,,,,109.000000000,1709656274.862915039,0.000000000,0.033855762,0.000000000,0.000000000,0.033855762,0.000000000,3.885582924,-0.764474701,-1.004702808,-15.083711624,-0.441675641,-0.008766106,1.971576095,0.222336801,0.050709561,22.411373138,-2.358927604,-0.035531716,0.990710437,0.059044389,0.003093050,1.774473667,1.678955689,-0.014113118,-0.057494201,0.789565514,-0.002298782
1709656274.876914,0.547764585,0.580291184,0.427779832,0.444456983,0.635179108,0.168916870,0.222067931,0.333093760,0.332518807,0.394610987,0.445937738,0.369301761,0.000000000,,,,,,,,,,,,,,,,,,,,,,,,,,,,,
1709656274.896633,,,,,,,,,,,,,,110.000000000,1709656274.896244049,0.000000000,0.033855762,0.000000000,0.000000000,0.033855762,0.000000000,4.044274330,-0.794685989,-0.805342354,-15.123384476,-0.442020615,-0.017726651,1.971576095,0.224103585,0.041775909,22.689083099,-2.360036430,-0.034191704,1.031909227,0.059405218,0.016698288,1.934690952,1.678254312,-0.034528982,-0.107848205,0.789571109,0.000776101
1709656274.910763,0.545328636,0.577237071,0.425485473,0.448731086,0.639915621,0.171682978,0.224940833,0.328766046,0.330531355,0.392282497,0.449810030,0.367562178,0.000000000,,,,,,,,,,,,,,,,,,,,,,,,,,,,,
1709656274.929901,,,,,,,,,,,,,,111.000000000,1709656274.929594040,0.000000000,0.033855762,0.000000000,0.000000000,0.033855762,0.000000000,3.885582924,-0.818196606,-0.612803849,-14.310091019,-0.442707410,-0.020660955,1.816851974,0.225805468,0.040047336,22.927120209,-2.361282452,-0.033207352,1.038317919,0.059761016,0.000955809,1.890745640,1.677433622,-0.026629502,-0.093199767,0.789569481,0.000265706
1709656274.944708,0.543155553,0.574531123,0.423562696,0.451293464,0.642788232,0.174117568,0.227401429,0.325590267,0.328738220,0.390258098,0.452073228,0.365973442,0.000000000,,,,,,,,,,,,,,,,,,,,,,,,,,,,,
1709656274.963265,,,,,,,,,,,,,,112.000000000,1709656274.962902069,0.000000000,0.033856090,0.000000000,0.000000000,0.033856090,0.000000000,3.453148842,-0.835150280,-0.419726776,-14.393404007,-0.443475312,-0.025047344,1.777179122,0.227363668,0.052005554,22.649410248,-2.362335339,-0.028899492,0.943103015,0.060109061,0.007801914,1.839476109,1.676711567,-0.018491822,-0.057494201,0.789565514,-0.001245055
1709656274.981240,0.541287926,0.572324263,0.422012963,0.452128675,0.643794273,0.176226868,0.229494394,0.323661751,0.327164680,0.388603992,0.452723201,0.364561448,0.000000000,,,,,,,,,,,,,,,,,,,,,,,,,,,,,
1709656274.996468,,,,,,,,,,,,,,113.000000000,1709656274.996155024,0.000000000,0.033856090,0.000000000,0.000000000,0.033856090,0.000000000,3.766564369,-0.845494956,-0.222110551,-14.718721390,-0.444135862,-0.016250848,1.777179122,0.228803010,0.044552661,22.530391693,-2.363321844,-0.032516900,0.900988758,0.060458341,0.011913545,1.832151890,1.675980774,-0.020196984,-0.085875548,0.789568669,-0.001147877
1709656275.012943,0.539752419,0.570695862,0.420830214,0.451130236,0.642834079,0.178022776,0.231274046,0.323061910,0.325826982,0.387354378,0.451662131,0.363343142,0.000000000,,,,,,,,,,,,,,,,,,,,,,,,,,,,,
1709656275.030361,,,,,,,,,,,,,,114.000000000,1709656275.029891014,0.000000000,0.033856090,0.000000000,0.000000000,0.033856090,0.000000000,3.845910072,-0.849073360,-0.023575101,-14.798067093,-0.444733121,-0.026162536,1.931903243,0.230320726,0.045977817,22.808101654,-2.364453472,-0.039046411,0.978808582,0.060806207,0.006644769,1.817503452,1.675133596,-0.025225595,-0.042845763,0.789563887,-0.001845901
1709656275.046938,0.538485862,0.569542508,0.419962798,0.448710196,0.640342374,0.179592105,0.232838332,0.323469501,0.324682251,0.386443862,0.449268434,0.362285863,0.000000000,,,,,,,,,,,,,,,,,,,,,,,,,,,,,
1709656275.063221,,,,,,,,,,,,,,115.000000000,1709656275.062906027,0.000000000,0.033855762,0.000000000,0.000000000,0.033855762,0.000000000,-0.486365318,-0.847989462,0.041943103,-13.092134476,-0.445576480,-0.029495272,-3.102581501,0.231780296,0.053524301,22.292354584,-2.365629209,-0.030749315,0.692248523,0.061107080,0.019248626,1.839476109,1.674257910,-0.022879487,-0.079466857,0.789572547,0.000255277
1709656275.080979,0.537260283,0.568429703,0.419115986,0.445942002,0.637465935,0.181131268,0.234410666,0.324186575,0.323568974,0.385551594,0.446552206,0.361255403,0.000000000,,,,,,,,,,,,,,,,,,,,,,,,,,,,,
1709656275.096827,,,,,,,,,,,,,,116.000000000,1709656275.096216917,0.000000000,0.033855762,0.000000000,0.000000000,0.033855762,0.000000000,-0.839453697,-0.846433625,0.052172345,-13.457124710,-0.446404604,-0.019939248,-3.376324177,0.233610586,0.045730866,22.093990326,-2.366686008,-0.035093097,0.638232410,0.061446329,0.009936690,1.810179234,1.673511726,-0.026132149,-0.093199767,0.789569128,0.000789781
1709656275.114863,0.536045561,0.567339730,0.418299977,0.443220502,0.634643708,0.182655710,0.235947844,0.324893458,0.322463689,0.384683002,0.443882164,0.360231135,0.000000000,,,,,,,,,,,,,,,,,,,,,,,,,,,,,
1709656275.130304,,,,,,,,,,,,,,117.000000000,1709656275.129983902,0.000000000,0.033855762,0.000000000,0.000000000,0.033855762,0.000000000,-0.486365318,-0.844844280,0.043963797,-13.457124710,-0.447120295,-0.021622192,-3.261272907,0.235198146,0.039040069,22.292354584,-2.367813414,-0.036225268,0.673937976,0.061802032,0.006464862,1.839476109,1.672743130,-0.027749606,-0.029112855,0.789562361,-0.001891241
1709656275.148947,0.534822629,0.566231591,0.417494036,0.440560229,0.631893936,0.184194648,0.237496635,0.325503390,0.321355825,0.383811802,0.441263327,0.359205785,0.000000000,,,,,,,,,,,,,,,,,,,,,,,,,,,,,
1709656275.163131,,,,,,,,,,,,,,118.000000000,1709656275.162841082,0.000000000,0.033855762,0.000000000,0.000000000,0.033855762,0.000000000,-0.168982506,-0.843404348,0.036094518,-13.008821487,-0.447964362,-0.022682360,-2.868511677,0.236630978,0.044579063,22.173336029,-2.369062256,-0.029953509,0.716052234,0.062135792,0.004500327,1.846800327,1.671921084,-0.027444164,-0.093199767,0.789569481,0.000617659
1709656275.182817,0.533600465,0.565122320,0.416695777,0.437961493,0.629204509,0.185729622,0.239034224,0.326131708,0.320249405,0.382942761,0.438706845,0.358181521,0.000000000,,,,,,,,,,,,,,,,,,,,,,,,,,,,,
1709656275.196281,,,,,,,,,,,,,,119.000000000,1709656275.196041107,0.000000000,0.033855762,0.000000000,0.000000000,0.033855762,0.000000000,-0.089636803,-0.841954664,0.040832686,-13.496797562,-0.448619854,-0.021233534,-2.590801716,0.238029306,0.045800222,22.054317474,-2.370195975,-0.035260747,0.709643543,0.062477046,0.011135866,1.802855015,1.671187269,-0.019577321,-0.115172423,0.789571962,0.001247469
1709656275.216882,0.532387568,0.564021435,0.415907770,0.435316813,0.626472763,0.187252053,0.240557094,0.326806854,0.319150099,0.382079299,0.436109631,0.357162875,0.000000000,,,,,,,,,,,,,,,,,,,,,,,,,,,,,
1709656275.229967,,,,,,,,,,,,,,120.000000000,1709656275.229532003,0.000000000,0.033855762,0.000000000,0.000000000,0.033855762,0.000000000,-0.010291100,-0.840414536,0.045163382,-13.699129105,-0.449183590,-0.020587487,-2.630474567,0.239475328,0.045380182,22.332027435,-2.371418252,-0.045296545,0.697741687,0.062820104,0.016516742,1.810179234,1.670406649,-0.028437084,-0.036437072,0.789563528,-0.001593535
1709656275.250918,0.531250550,0.562968781,0.415164295,0.432709441,0.623776796,0.188687726,0.242015214,0.327509777,0.318121527,0.381259458,0.433551695,0.356210040,0.000000000,,,,,,,,,,,,,,,,,,,,,,,,,,,,,
1709656275.263030,,,,,,,,,,,,,,121.000000000,1709656275.262741089,0.000000000,0.033855762,0.000000000,0.000000000,0.033855762,0.000000000,-0.089636803,-0.838879813,0.039709803,-13.536470413,-0.449841171,-0.015962706,-2.904217243,0.241070272,0.048360354,22.371700287,-2.372630972,-0.036396210,0.697741687,0.063189412,0.012372832,1.832151890,1.669604062,-0.021064926,-0.042845763,0.789564946,-0.001760568
1709656275.284729,0.530039054,0.561834978,0.414378861,0.429993653,0.620956872,0.190220999,0.243576451,0.328273842,0.317028959,0.380391755,0.430886910,0.355198659,0.000000000,,,,,,,,,,,,,,,,,,,,,,,,,,,,,
1709656275.296695,,,,,,,,,,,,,,122.000000000,1709656275.296189070,0.000000000,0.033855762,0.000000000,0.000000000,0.033855762,0.000000000,-0.288001060,-0.837289746,0.043634646,-13.254793167,-0.450589017,-0.023186864,-3.062908649,0.242714454,0.044407218,22.292354584,-2.373737952,-0.030002753,0.709643543,0.063547229,0.009275586,1.854124546,1.668830930,-0.028376466,-0.100523986,0.789570413,0.001097819
1709656275.318911,0.528830323,0.560695960,0.413604675,0.427283462,0.618136413,0.191755461,0.245141905,0.329063655,0.315940748,0.379534533,0.428228029,0.354191441,0.000000000,,,,,,,,,,,,,,,,,,,,,,,,,,,,,
1709656275.329813,,,,,,,,,,,,,,123.000000000,1709656275.329508066,0.000000000,0.033855762,0.000000000,0.000000000,0.033855762,0.000000000,-0.407019615,-0.835687821,0.048692679,-13.334138870,-0.451338022,-0.015908202,-3.102581501,0.244334677,0.052273290,22.014644623,-2.374752647,-0.029323753,0.673937976,0.063907920,0.009150803,1.796446323,1.668068951,-0.020257826,-0.036437072,0.789563292,-0.001468067
1709656275.352793,0.527620291,0.559551567,0.412835017,0.424620225,0.615366350,0.193288665,0.246700407,0.329849995,0.314852867,0.378684637,0.425615645,0.353184569,0.000000000,,,,,,,,,,,,,,,,,,,,,,,,,,,,,
1709656275.362988,,,,,,,,,,,,,,124.000000000,1709656275.362713099,0.000000000,0.033855762,0.000000000,0.000000000,0.033855762,0.000000000,-0.288001060,-0.834184539,0.051894463,-13.211153030,-0.452015913,-0.022769589,-3.142254353,0.245913114,0.043098811,22.054317474,-2.375785914,-0.036989720,0.685839832,0.064259394,0.006707783,1.817503452,1.667328509,-0.021816204,-0.122496642,0.789572742,0.001653761
1709656275.386898,0.526412657,0.558412421,0.412081756,0.421995287,0.612639684,0.194819730,0.248247709,0.330613526,0.313768381,0.377852362,0.423039071,0.352180761,0.000000000,,,,,,,,,,,,,,,,,,,,,,,,,,,,,
1709656275.396401,,,,,,,,,,,,,,125.000000000,1709656275.396050930,0.000000000,0.033855762,0.000000000,0.000000000,0.033855762,0.000000000,-0.049963951,-0.832655268,0.043493753,-13.457124710,-0.452625078,-0.015002837,-2.749493122,0.247346445,0.046616986,22.173336029,-2.376834053,-0.031340327,0.697741687,0.064603221,0.009080642,1.817503452,1.666599951,-0.026803254,-0.064818420,0.789566330,-0.000836191
1709656275.420833,0.525206786,0.557266022,0.411334002,0.419363616,0.609903690,0.196350759,0.249798493,0.331403310,0.312687200,0.377026022,0.420457126,0.351180098,0.000000000,,,,,,,,,,,,,,,,,,,,,,,,,,,,,
1709656275.430370,,,,,,,,,,,,,,126.000000000,1709656275.430026054,0.000000000,0.033855762,0.000000000,0.000000000,0.033855762,0.000000000,-0.049963951,-0.831113736,0.045849782,-13.373811722,-0.453250152,-0.021653987,-2.904217243,0.248870089,0.049235066,22.173336029,-2.377872649,-0.034614650,0.697741687,0.064945151,0.007508303,1.810179234,1.665866665,-0.026508420,-0.128905341,0.789573449,0.002551709
1709656275.454763,0.524003056,0.556099039,0.410584053,0.416657933,0.607086217,0.197884769,0.251370109,0.332256105,0.311610294,0.376196084,0.417805342,0.350183650,0.000000000,,,,,,,,,,,,,,,,,,,,,,,,,,,,,
1709656275.463275,,,,,,,,,,,,,,127.000000000,1709656275.462857962,0.000000000,0.033855762,0.000000000,0.000000000,0.033855762,0.000000000,-0.089636803,-0.829532381,0.044915130,-13.211153030,-0.453936505,-0.019231892,-2.983562946,0.250532032,0.052794197,22.213008881,-2.378916532,-0.030460693,0.716052234,0.065291993,0.012124376,1.839476109,1.665116771,-0.019824144,-0.093199767,0.789569483,0.000234332
1709656275.488807,0.522804286,0.554930363,0.409848075,0.413939527,0.604251259,0.199417297,0.252942335,0.333137672,0.310539180,0.375379565,0.415141887,0.349192417,0.000000000,,,,,,,,,,,,,,,,,,,,,,,,,,,,,
1709656275.496742,,,,,,,,,,,,,,128.000000000,1709656275.496252060,0.000000000,0.033855762,0.000000000,0.000000000,0.033855762,0.000000000,-0.168982506,-0.827863299,0.053342591,-13.092134476,-0.454641254,-0.015895619,-2.983562946,0.252177272,0.046134576,22.014644623,-2.379941787,-0.024749147,0.697741687,0.065661361,0.016510375,1.759825230,1.664408567,-0.017038876,-0.050169982,0.789564706,-0.001019298
1709656275.523733,0.521606377,0.553757334,0.409119822,0.411230448,0.601426918,0.200950047,0.254514391,0.334022645,0.309470701,0.374571539,0.412487406,0.348203723,0.000000000,,,,,,,,,,,,,,,,,,,,,,,,,,,,,
1709656275.529819,,,,,,,,,,,,,,129.000000000,1709656275.529505014,0.000000000,0.033855762,0.000000000,0.000000000,0.033855762,0.000000000,-0.327673912,-0.826242671,0.046445349,-13.008821487,-0.455315439,-0.021032860,-3.221600056,0.253823663,0.052613864,22.014644623,-2.380986947,-0.030060035,0.709643543,0.066016490,0.007485752,1.789122105,1.663706159,-0.025002976,-0.042845763,0.789563900,-0.001350666
1709656275.557801,0.520370951,0.552551587,0.408372543,0.408475058,0.598557357,0.202528995,0.256131056,0.334923942,0.308371037,0.373744215,0.409787269,0.347186486,0.000000000,,,,,,,,,,,,,,,,,,,,,,,,,,,,,
1709656275.563240,,,,,,,,,,,,,,130.000000000,1709656275.562916040,0.000000000,0.033855762,0.000000000,0.000000000,0.033855762,0.000000000,-0.327673912,-0.826242671,0.046445349,-13.008821487,-0.455315439,-0.021032860,-3.221600056,0.253823663,0.052613864,22.014644623,-2.380986947,-0.030060035,0.709643543,0.066016490,0.007485752,1.789122105,1.663706159,-0.025002976,-0.042845763,0.789563900,-0.001350666
1709656275.592690,0.519172237,0.551391951,0.407659204,0.405817735,0.595794270,0.204062637,0.257696595,0.335780182,0.307305911,0.372953825,0.407181456,0.346201287,0.000000000,,,,,,,,,,,,,,,,,,,,,,,,,,,,,
1709656275.596568,,,,,,,,,,,,,,131.000000000,1709656275.596112967,0.000000000,0.033855762,0.000000000,0.000000000,0.033855762,0.000000000,-0.208655357,-0.824696139,0.046489647,-13.131807327,-0.455921467,-0.017741351,-3.062908649,0.255411791,0.040367108,22.014644623,-2.382062330,-0.029658392,0.716052234,0.066389209,0.011720460,1.781797886,1.663011776,-0.022381852,-0.100523986,0.789571355,0.000957589
1709656275.625956,0.517973176,0.550228811,0.406945696,0.403149616,0.593017563,0.205598198,0.259270794,0.336665603,0.306242834,0.372163800,0.404566603,0.345218276,0.000000000,,,,,,,,,,,,,,,,,,,,,,,,,,,,,
1709656275.629957,,,,,,,,,,,,,,132.000000000,1709656275.629561901,0.000000000,0.033855762,0.000000000,0.000000000,0.033855762,0.000000000,-0.129309654,-0.823155955,0.041614730,-13.008821487,-0.456520619,-0.014900929,-3.062908649,0.256948524,0.050804214,22.014644623,-2.383187662,-0.034348315,0.709643543,0.066749848,0.006830486,1.781797886,1.662303566,-0.017702281,-0.100523986,0.789570295,0.000265638
1709656275.659716,0.516778406,0.549076821,0.406244632,0.400480978,0.590237208,0.207130777,0.260840722,0.337576191,0.305184783,0.371386783,0.401952537,0.344239706,0.000000000,,,,,,,,,,,,,,,,,,,,,,,,,,,,,
1709656275.663089,,,,,,,,,,,,,,133.000000000,1709656275.662828922,0.000000000,0.033855762,0.000000000,0.000000000,0.033855762,0.000000000,-0.089636803,-0.821660857,0.037411442,-13.048494339,-0.457100505,-0.014015935,-3.102581501,0.258551285,0.048574233,22.014644623,-2.384294168,-0.030088239,0.697741687,0.067120401,0.012676463,1.767149448,1.661613208,-0.019121776,-0.057494201,0.789565516,-0.001053580
1709656275.693931,0.515590200,0.547938921,0.405557571,0.397800086,0.587439100,0.208657185,0.262402497,0.338531329,0.304133054,0.370624711,0.399329388,0.343266477,0.000000000,,,,,,,,,,,,,,,,,,,,,,,,,,,,,
1709656275.696843,,,,,,,,,,,,,,134.000000000,1709656275.696214914,0.000000000,0.033855762,0.000000000,0.000000000,0.033855762,0.000000000,-0.089636803,-0.820064748,0.045598676,-13.048494339,-0.457666315,-0.019757542,-3.181927204,0.260123879,0.044386553,22.292354584,-2.385384813,-0.034161594,0.692248523,0.067480028,0.012295719,1.810179234,1.660937255,-0.020509517,-0.085875548,0.789568672,0.000619072
1709656275.727857,0.514398892,0.546796853,0.404868978,0.395140846,0.584661121,0.210187747,0.263972256,0.339495506,0.303081565,0.369861966,0.396727886,0.342294037,0.000000000,,,,,,,,,,,,,,,,,,,,,,,,,,,,,
1709656275.730402,,,,,,,,,,,,,,135.000000000,1709656275.729868889,0.000000000,0.033855762,0.000000000,0.000000000,0.033855762,0.000000000,-0.208655357,-0.818368988,0.047529015,-13.131807327,-0.458187077,-0.014474843,-3.062908649,0.261675484,0.049048434,22.093990326,-2.386374882,-0.029283894,0.685839832,0.067832279,0.015677010,1.745176792,1.660292883,-0.008983334,-0.085875548,0.789571848,0.000301886
1709656275.761776,0.513210736,0.545659623,0.404189927,0.392469316,0.581864330,0.211718353,0.265546433,0.340494307,0.302034802,0.369108333,0.394115710,0.341325952,0.000000000,,,,,,,,,,,,,,,,,,,,,,,,,,,,,
1709656275.763107,,,,,,,,,,,,,,136.000000000,1709656275.762866020,0.000000000,0.033855762,0.000000000,0.000000000,0.033855762,0.000000000,-0.129309654,-0.816801663,0.047514058,-13.008821487,-0.458703832,-0.015768635,-3.023235798,0.263280884,0.047375080,22.213008881,-2.387354621,-0.033622940,0.709643543,0.068201924,0.013415921,1.781797886,1.659649786,-0.016347637,-0.107848205,0.789571109,0.001084487
1709656275.795899,0.512025013,0.544525926,0.403517827,0.389781387,0.579047486,0.213248591,0.267124236,0.341522958,0.300992096,0.368361817,0.391488885,0.340361617,0.000000000,,,,,,,,,,,,,,,,,,,,,,,,,,,,,
1709656275.796819,,,,,,,,,,,,,,137.000000000,1709656275.796272039,0.000000000,0.033855762,0.000000000,0.000000000,0.033855762,0.000000000,-0.129309654,-0.815101282,0.045711336,-13.131807327,-0.459242666,-0.013103616,-3.142254353,0.264964514,0.051656322,22.133663177,-2.388298689,-0.029388471,0.697741687,0.068587090,0.010188870,1.759825230,1.658982292,-0.020099903,-0.128905341,0.789573454,0.001960719
1709656275.829887,,,,,,,,,,,,,,138.000000000,1709656275.829582930,0.000000000,0.033855762,0.000000000,0.000000000,0.033855762,0.000000000,-0.168982506,-0.813459374,0.047769675,-12.762849808,-0.459808001,-0.019098599,-3.376324177,0.266635123,0.054435214,22.093990326,-2.389216177,-0.020113712,0.692248523,0.068961214,0.011362843,1.774473667,1.658304541,-0.021657675,-0.057494201,0.789566587,-0.000937653
1709656275.830280,0.510872287,0.543422128,0.402866969,0.387183251,0.576321081,0.214738479,0.268665970,0.342532340,0.299981427,0.367638653,0.388949839,0.339427419,0.000000000,,,,,,,,,,,,,,,,,,,,,,,,,,,,,
1709656275.863141,,,,,,,,,,,,,,139.000000000,1709656275.862880945,0.000000000,0.033855762,0.000000000,0.000000000,0.033855762,0.000000000,-0.248328209,-0.811864618,0.046025020,-12.885835648,-0.460343142,-0.015401492,-3.340618610,0.268311236,0.043875533,22.133663177,-2.390114729,-0.027650992,0.680346668,0.069345001,0.009342795,1.752501011,1.657664036,-0.007669950,-0.042845763,0.789564946,-0.001213586
1709656275.863676,0.509651434,0.542266724,0.402190946,0.384466424,0.573471544,0.216317002,0.270290731,0.343585072,0.298912844,0.366887230,0.386293720,0.338439700,0.000000000,,,,,,,,,,,,,,,,,,,,,,,,,,,,,
1709656275.896561,,,,,,,,,,,,,,140.000000000,1709656275.896241903,0.000000000,0.033855762,0.000000000,0.000000000,0.033855762,0.000000000,-0.129309654,-0.810274556,0.043542618,-12.846162796,-0.460860714,-0.015783978,-3.261272907,0.269873616,0.042980528,22.054317474,-2.391013407,-0.031054879,0.685839832,0.069728917,0.012018357,1.759825230,1.657040445,-0.012393643,-0.085875548,0.789569732,0.000250266
1709656275.897817,0.508464691,0.541147391,0.401539498,0.381845711,0.570723117,0.217852573,0.271871258,0.344603750,0.297876790,0.366163244,0.383731037,0.337482406,0.000000000,,,,,,,,,,,,,,,,,,,,,,,,,,,,,
1709656275.930173,,,,,,,,,,,,,,141.000000000,1709656275.929749966,0.000000000,0.033855762,0.000000000,0.000000000,0.033855762,0.000000000,-0.208655357,-0.808723533,0.041560089,-12.846162796,-0.461363246,-0.012315305,-3.261272907,0.271447981,0.045726666,22.014644623,-2.391916128,-0.024494841,0.662036121,0.070124641,0.014330761,1.730528355,1.656406840,-0.018878414,-0.100523986,0.789571355,0.001344458
1709656275.931892,0.507279482,0.540031799,0.400893433,0.379220284,0.567968193,0.219387431,0.273452659,0.345644045,0.296844092,0.365445499,0.381165106,0.336528287,0.000000000,,,,,,,,,,,,,,,,,,,,,,,,,,,,,
1709656275.963136,,,,,,,,,,,,,,142.000000000,1709656275.962863922,0.000000000,0.033855762,0.000000000,0.000000000,0.033855762,0.000000000,-0.049963951,-0.807162768,0.044247347,-12.723176956,-0.461854340,-0.013579038,-3.102581501,0.273023317,0.038752918,22.014644623,-2.392824921,-0.028175574,0.680346668,0.070497087,0.006618123,1.752501011,1.655776980,-0.020527861,-0.064818420,0.789569507,-0.001042043
1709656275.965681,0.506098679,0.538924442,0.400258906,0.376563255,0.565180538,0.220920120,0.275034155,0.346708578,0.295816869,0.364739281,0.378569082,0.335578988,0.000000000,,,,,,,,,,,,,,,,,,,,,,,,,,,,,
1709656275.996761,,,,,,,,,,,,,,143.000000000,1709656275.996205091,0.000000000,0.033855762,0.000000000,0.000000000,0.033855762,0.000000000,-0.168982506,-0.805512342,0.048357300,-12.723176956,-0.462333120,-0.014581720,-3.261272907,0.274646882,0.047925998,22.014644623,-2.393792947,-0.031745543,0.673937976,0.070857170,0.009834788,1.737852573,1.655111784,-0.012014348,-0.085875548,0.789568673,0.000167934
1709656275.999831,0.504920399,0.537817367,0.399626927,0.373873815,0.562355608,0.222450953,0.276619626,0.347821137,0.294793644,0.364036442,0.375944551,0.334633315,0.000000000,,,,,,,,,,,,,,,,,,,,,,,,,,,,,
1709656276.029962,,,,,,,,,,,,,,144.000000000,1709656276.029429913,0.000000000,0.033855762,0.000000000,0.000000000,0.033855762,0.000000000,-0.129309654,-0.803865620,0.047256485,-12.762849808,-0.462785154,-0.010289163,-3.261272907,0.276336428,0.047932621,22.093990326,-2.394722548,-0.030869273,0.685839832,0.071243605,0.010084212,1.745176792,1.654504613,-0.015308036,-0.100523986,0.789570300,0.000577372
1709656276.033712,0.503742485,0.536716722,0.399003696,0.371204083,0.559550660,0.223983123,0.278204968,0.348929659,0.293773281,0.363342822,0.373338641,0.333690516,0.000000000,,,,,,,,,,,,,,,,,,,,,,,,,,,,,
1709656276.063205,,,,,,,,,,,,,,145.000000000,1709656276.062870979,0.000000000,0.033855762,0.000000000,0.000000000,0.033855762,0.000000000,-0.168982506,-0.802211948,0.047401513,-12.762849808,-0.463244580,-0.013490949,-3.300945759,0.277992051,0.049055229,22.093990326,-2.395672352,-0.027224757,0.673937976,0.071619351,0.010846614,1.723204136,1.653904680,-0.011628491,-0.057494201,0.789565985,-0.000772594
1709656276.067801,0.502567005,0.535621797,0.398388576,0.368525129,0.556733503,0.225514242,0.279790684,0.350062382,0.292757049,0.362657802,0.370725030,0.332751491,0.000000000,,,,,,,,,,,,,,,,,,,,,,,,,,,,,
1709656276.096862,,,,,,,,,,,,,,146.000000000,1709656276.096359968,0.000000000,0.033855762,0.000000000,0.000000000,0.033855762,0.000000000,-0.248328209,-0.800554975,0.045749374,-12.643831253,-0.463689227,-0.010359285,-3.300945759,0.279658952,0.053094968,22.054317474,-2.396599700,-0.021985672,0.685839832,0.072004381,0.011989400,1.730528355,1.653327513,-0.022210164,-0.064818420,0.789567392,-0.001141408
1709656276.101820,0.501388541,0.534521523,0.397772092,0.365861618,0.553931482,0.227050342,0.281386288,0.351196333,0.291741698,0.361971971,0.368126347,0.331813956,0.000000000,,,,,,,,,,,,,,,,,,,,,,,,,,,,,
1709656276.129788,,,,,,,,,,,,,,147.000000000,1709656276.129499912,0.000000000,0.033855762,0.000000000,0.000000000,0.033855762,0.000000000,-0.208655357,-0.798987301,0.048598350,-12.560518265,-0.464144617,-0.017364559,-3.455669880,0.281366938,0.044011021,22.014644623,-2.397523511,-0.024254772,0.685839832,0.072392653,0.011020564,1.708555698,1.652726650,-0.018001786,-0.100523986,0.789570308,0.000638749
1709656276.135933,0.500213817,0.533435220,0.397169949,0.363211128,0.551139670,0.228583417,0.282973764,0.352343678,0.290731234,0.361301242,0.365541242,0.330880713,0.000000000,,,,,,,,,,,,,,,,,,,,,,,,,,,,,
1709656276.165856,,,,,,,,,,,,,,148.000000000,1709656276.165055990,0.000000000,0.033855762,0.000000000,0.000000000,0.033855762,0.000000000,-0.248328209,-0.797347447,0.053632075,-12.643831253,-0.464559846,-0.013424143,-3.415997028,0.282995574,0.051617520,21.974971771,-2.398406616,-0.026145866,0.680346668,0.072801078,0.007227097,1.730528355,1.652129896,-0.019340591,-0.085875548,0.789568668,0.000097636
1709656276.170822,0.499038530,0.532352975,0.396574622,0.360588533,0.548374624,0.230118992,0.284563088,0.353487114,0.289723226,0.360637798,0.362982869,0.329950108,0.000000000,,,,,,,,,,,,,,,,,,,,,,,,,,,,,
1709656276.196347,,,,,,,,,,,,,,149.000000000,1709656276.196036100,0.000000000,0.033855762,0.000000000,0.000000000,0.033855762,0.000000000,-0.129309654,-0.795788581,0.040944351,-12.600191116,-0.464983343,-0.013092533,-3.376324177,0.284600258,0.051240193,21.939266205,-2.399263987,-0.022833823,0.685839832,0.073213931,0.015675462,1.708555698,1.651533489,-0.015465548,-0.057494201,0.789565867,-0.000689792
1709656276.203825,0.497864042,0.531275583,0.395985786,0.357981353,0.545621902,0.231654780,0.286152053,0.354643864,0.288718386,0.359981668,0.360440537,0.329022610,0.000000000,,,,,,,,,,,,,,,,,,,,,,,,,,,,,
1709656276.230026,,,,,,,,,,,,,,150.000000000,1709656276.229598045,0.000000000,0.033855762,0.000000000,0.000000000,0.033855762,0.000000000,-0.089636803,-0.794198262,0.042612457,-12.600191116,-0.465382883,-0.013783211,-3.376324177,0.286201512,0.048831779,21.899593353,-2.400104640,-0.022059163,0.685839832,0.073621756,0.012403500,1.730528355,1.650984061,-0.018187653,-0.050169982,0.789564700,-0.000980272
1709656276.237673,0.496694297,0.530207322,0.395408922,0.355343309,0.542834238,0.233187507,0.287739483,0.355835479,0.287719312,0.359337668,0.357869824,0.328100069,0.000000000,,,,,,,,,,,,,,,,,,,,,,,,,,,,,
1709656276.264273,,,,,,,,,,,,,,151.000000000,1709656276.262839079,0.000000000,0.033855762,0.000000000,0.000000000,0.033855762,0.000000000,-0.089636803,-0.792514987,0.049703938,-12.560518265,-0.465782302,-0.007304575,-3.340618610,0.287814959,0.045477006,21.974971771,-2.400938974,-0.019488328,0.662036121,0.074021912,0.012162519,1.715879917,1.650423285,-0.019321719,-0.064818420,0.789567388,-0.000625436
1709656276.271779,0.495525106,0.529138015,0.394833770,0.352696472,0.540032871,0.234720732,0.289331821,0.357059309,0.286723317,0.358696162,0.355292798,0.327180575,0.000000000,,,,,,,,,,,,,,,,,,,,,,,,,,,,,
1709656276.296572,,,,,,,,,,,,,,152.000000000,1709656276.296186924,0.000000000,0.033855762,0.000000000,0.000000000,0.033855762,0.000000000,-0.248328209,-0.790870884,0.042377999,-12.481172562,-0.466176620,-0.016938453,-3.495342731,0.289522168,0.051215404,22.014644623,-2.401753215,-0.026494873,0.656542957,0.074428743,0.009787163,1.723204136,1.649875778,-0.013928660,-0.042845763,0.789564004,-0.002697429
1709656276.305738,0.494357751,0.528074823,0.394267417,0.350048190,0.537227788,0.236253788,0.290924293,0.358297044,0.285731336,0.358063857,0.352714984,0.326264814,0.000000000,,,,,,,,,,,,,,,,,,,,,,,,,,,,,
1709656276.329890,,,,,,,,,,,,,,153.000000000,1709656276.329463005,0.000000000,0.033855762,0.000000000,0.000000000,0.033855762,0.000000000,-0.208655357,-0.789180685,0.053447514,-12.643831253,-0.466546744,-0.006552794,-3.455669880,0.291200399,0.047656182,21.939266205,-2.402544264,-0.019745890,0.668444812,0.074836065,0.007247170,1.708555698,1.649345839,-0.021371428,-0.085875548,0.789571851,0.000634700
1709656276.339876,0.493193893,0.527020354,0.393712972,0.347393774,0.534409173,0.237785324,0.292515877,0.359567016,0.284744468,0.357443546,0.350132933,0.325353546,0.000000000,,,,,,,,,,,,,,,,,,,,,,,,,,,,,
1709656276.363475,,,,,,,,,,,,,,154.000000000,1709656276.362922907,0.000000000,0.033855762,0.000000000,0.000000000,0.033855762,0.000000000,-0.288001060,-0.787459736,0.053327395,-12.481172562,-0.466941589,-0.013229251,-3.574688435,0.292882514,0.048852860,21.939266205,-2.403301620,-0.024376475,0.697741687,0.075239092,0.011012393,1.693907261,1.648787791,-0.018761435,-0.085875548,0.789568825,-0.000116487
1709656276.373779,0.492025684,0.525959544,0.393156119,0.344780790,0.531631530,0.239323514,0.294117583,0.360823834,0.283757997,0.356821554,0.347590566,0.324443591,0.000000000,,,,,,,,,,,,,,,,,,,,,,,,,,,,,
1709656276.397022,,,,,,,,,,,,,,155.000000000,1709656276.396226883,0.000000000,0.033855762,0.000000000,0.000000000,0.033855762,0.000000000,-0.248328209,-0.785880960,0.048886143,-12.358186722,-0.467335943,-0.010471373,-3.574688435,0.294562502,0.049371896,21.899593353,-2.404036931,-0.022830438,0.656542957,0.075641669,0.006654546,1.664610386,1.648262051,-0.007610947,-0.107848205,0.789571110,0.001602399
1709656276.407674,0.490860134,0.524909384,0.392610548,0.342170307,0.528856653,0.240859667,0.295713365,0.362085909,0.282775955,0.356211699,0.345051009,0.323537624,0.000000000,,,,,,,,,,,,,,,,,,,,,,,,,,,,,
1709656276.430199,,,,,,,,,,,,,,156.000000000,1709656276.429826021,0.000000000,0.033855762,0.000000000,0.000000000,0.033855762,0.000000000,-0.248328209,-0.784257469,0.047092214,-12.397859573,-0.467705090,-0.012927101,-3.535015583,0.296211745,0.050273333,21.974971771,-2.404799624,-0.019105892,0.668444812,0.076067969,0.011720737,1.708555698,1.647749573,-0.015108379,-0.085875548,0.789568721,-0.000131117
1709656276.441738,0.489694631,0.523862215,0.392071304,0.339565608,0.526089131,0.242397949,0.297312228,0.363342708,0.281797057,0.355608566,0.342516332,0.322634861,0.000000000,,,,,,,,,,,,,,,,,,,,,,,,,,,,,
1709656276.463216,,,,,,,,,,,,,,157.000000000,1709656276.462822914,0.000000000,0.033855762,0.000000000,0.000000000,0.033855762,0.000000000,-0.248328209,-0.782675068,0.048117626,-12.274873734,-0.468076736,-0.006251578,-3.654034138,0.297865067,0.048497966,21.899593353,-2.405586580,-0.022894080,0.673937976,0.076470045,0.010256712,1.701231480,1.647257689,-0.016775225,-0.042845763,0.789563887,-0.001452274
1709656276.475870,0.488566902,0.522850421,0.391554526,0.337002337,0.523363098,0.243888051,0.298863721,0.364604798,0.280851815,0.355030451,0.340024713,0.321762883,0.000000000,,,,,,,,,,,,,,,,,,,,,,,,,,,,,
1709656276.496454,,,,,,,,,,,,,,158.000000000,1709656276.496136904,0.000000000,0.033855762,0.000000000,0.000000000,0.033855762,0.000000000,-0.208655357,-0.780950529,0.053976293,-12.437532425,-0.468427886,-0.006793329,-3.455669880,0.299597274,0.042086775,21.899593353,-2.406422179,-0.022851727,0.680346668,0.076901281,0.011185061,1.671934605,1.646751034,-0.018395592,-0.122496642,0.789572789,0.001957158
1709656276.509760,0.487406612,0.521819242,0.391033113,0.334379438,0.520575557,0.245422038,0.300454560,0.365893400,0.279881726,0.354446912,0.337474599,0.320868032,0.000000000,,,,,,,,,,,,,,,,,,,,,,,,,,,,,
1709656276.530138,,,,,,,,,,,,,,159.000000000,1709656276.529772997,0.000000000,0.033856090,0.000000000,0.000000000,0.033856090,0.000000000,-0.129309654,-0.779268804,0.048319448,-12.274873734,-0.468759900,-0.013935463,-3.455669880,0.301248970,0.049270777,21.939266205,-2.407244703,-0.023443340,0.716052234,0.077299586,0.011458495,1.686583042,1.646246376,-0.010066759,-0.128905341,0.789573466,0.001499755
1709656276.543856,0.486246704,0.520783306,0.390511529,0.331736808,0.517760565,0.246957508,0.302054706,0.367224626,0.278915030,0.353863665,0.334908143,0.319976560,0.000000000,,,,,,,,,,,,,,,,,,,,,,,,,,,,,
1709656276.563066,,,,,,,,,,,,,,160.000000000,1709656276.562746048,0.000000000,0.033856090,0.000000000,0.000000000,0.033856090,0.000000000,-0.208655357,-0.777624807,0.052217477,-12.318513870,-0.469072532,-0.008891786,-3.574688435,0.302995947,0.050279847,21.939266205,-2.408034069,-0.025171863,0.697741687,0.077708005,0.011147287,1.679258823,1.645762555,-0.010401874,-0.122496642,0.789572854,0.001298082
1709656276.577844,0.485088353,0.519753544,0.389998736,0.329096508,0.514945835,0.248493087,0.303654488,0.368565214,0.277952435,0.353289678,0.332344419,0.319088926,0.000000000,,,,,,,,,,,,,,,,,,,,,,,,,,,,,
1709656276.596460,,,,,,,,,,,,,,161.000000000,1709656276.596148014,0.000000000,0.033856090,0.000000000,0.000000000,0.033856090,0.000000000,-0.208655357,-0.775938727,0.048031139,-12.195528030,-0.469387948,-0.013420776,-3.654034138,0.304711555,0.044756733,21.899593353,-2.408826913,-0.024698351,0.680346668,0.078118363,0.014257390,1.708555698,1.645261146,-0.013005156,-0.100523986,0.789571355,0.001690987
1709656276.611712,0.483933451,0.518733858,0.389497240,0.326448428,0.512118255,0.250025829,0.305249086,0.369932682,0.276994923,0.352727673,0.329775042,0.318205712,0.000000000,,,,,,,,,,,,,,,,,,,,,,,,,,,,,
1709656276.629893,,,,,,,,,,,,,,162.000000000,1709656276.629513979,0.000000000,0.033856090,0.000000000,0.000000000,0.033856090,0.000000000,-0.248328209,-0.774223638,0.045049824,-12.195528030,-0.469677273,-0.009853425,-3.733379841,0.306443494,0.056848316,21.859920502,-2.409588380,-0.019442941,0.662036121,0.078531569,0.009510104,1.679258823,1.644794399,-0.020407770,-0.057494201,0.789565632,-0.001157219
1709656276.645885,0.482776147,0.517710853,0.388993820,0.323828418,0.509319132,0.251561720,0.306847414,0.371295510,0.276039071,0.352165173,0.327233593,0.317324785,0.000000000,,,,,,,,,,,,,,,,,,,,,,,,,,,,,
1709656276.663101,,,,,,,,,,,,,,163.000000000,1709656276.662801981,0.000000000,0.033856090,0.000000000,0.000000000,0.033856090,0.000000000,-0.367346764,-0.772584481,0.050301221,-12.155855179,-0.469939426,-0.007820769,-3.848431110,0.308154503,0.050081507,21.899593353,-2.410342546,-0.023402574,0.650134265,0.078945148,0.012200507,1.671934605,1.644339369,-0.010872970,-0.050169982,0.789564862,-0.001091771
1709656276.679990,0.481691647,0.516756955,0.388530177,0.321318467,0.506636359,0.253002566,0.308346772,0.372620589,0.275145004,0.351646519,0.324801502,0.316500281,0.000000000,,,,,,,,,,,,,,,,,,,,,,,,,,,,,
1709656276.696443,,,,,,,,,,,,,,164.000000000,1709656276.696192026,0.000000000,0.033856090,0.000000000,0.000000000,0.033856090,0.000000000,-0.168982506,-0.770962016,0.040983122,-12.274873734,-0.470162573,-0.005967023,-3.654034138,0.309812837,0.041042697,21.974971771,-2.411085779,-0.025140152,0.644641101,0.079367631,0.010454124,1.679258823,1.643879079,-0.011445155,-0.093199767,0.789569534,0.001226286
1709656276.713756,0.480535079,0.515744987,0.388038491,0.318742101,0.503880253,0.254538665,0.309938138,0.373979533,0.274195641,0.351098089,0.322303590,0.315625912,0.000000000,,,,,,,,,,,,,,,,,,,,,,,,,,,,,
1709656276.729857,,,,,,,,,,,,,,165.000000000,1709656276.729511976,0.000000000,0.033856090,0.000000000,0.000000000,0.033856090,0.000000000,-0.208655357,-0.769396139,0.046265120,-12.112215042,-0.470358474,-0.004948832,-3.733379841,0.311488774,0.048186478,21.939266205,-2.411793934,-0.017561505,0.662036121,0.079792271,0.010823408,1.671934605,1.643432187,-0.016486034,-0.064818420,0.789566385,-0.000783743
1709656276.747913,0.479380465,0.514738853,0.387553201,0.316168967,0.501121795,0.256072965,0.311525700,0.375363801,0.273250568,0.350557168,0.319811305,0.314755532,0.000000000,,,,,,,,,,,,,,,,,,,,,,,,,,,,,
1709656276.763098,,,,,,,,,,,,,,166.000000000,1709656276.762814999,0.000000000,0.033856090,0.000000000,0.000000000,0.033856090,0.000000000,-0.129309654,-0.767756894,0.048465128,-12.155855179,-0.470529847,-0.006528535,-3.693706989,0.313151368,0.042594887,21.820247650,-2.412463300,-0.016472860,0.662036121,0.080212558,0.015619561,1.650877476,1.643009027,-0.007301239,-0.042845763,0.789563900,-0.001430135
1709656276.781808,0.478231016,0.513747258,0.387083053,0.313571802,0.498334392,0.257602287,0.313103874,0.376779915,0.272311701,0.350031946,0.317297749,0.313890283,0.000000000,,,,,,,,,,,,,,,,,,,,,,,,,,,,,
1709656276.796764,,,,,,,,,,,,,,167.000000000,1709656276.796197891,0.000000000,0.033856090,0.000000000,0.000000000,0.033856090,0.000000000,-0.168982506,-0.766013367,0.052285110,-12.318513870,-0.470700328,-0.005531960,-3.654034138,0.314802823,0.051676864,21.939266205,-2.413161905,-0.018376743,0.685839832,0.080633315,0.013818035,1.671934605,1.642580653,-0.019369760,-0.079466857,0.789568086,0.000069353
1709656276.815797,0.477080685,0.512748884,0.386613913,0.310968118,0.495533277,0.259136792,0.314697222,0.378218781,0.271376184,0.349507405,0.314778785,0.313028590,0.000000000,,,,,,,,,,,,,,,,,,,,,,,,,,,,,
1709656276.829767,,,,,,,,,,,,,,168.000000000,1709656276.829514980,0.000000000,0.033856090,0.000000000,0.000000000,0.033856090,0.000000000,-0.168982506,-0.764353637,0.047529280,-12.112215042,-0.470898664,-0.004982239,-3.812725544,0.316565928,0.052581096,21.899593353,-2.413815539,-0.019556801,0.644641101,0.081065585,0.006082622,1.657286167,1.642153683,-0.002963371,-0.115172423,0.789572982,0.001687322
1709656276.849783,0.475933111,0.511757977,0.386153501,0.308359352,0.492719457,0.260668985,0.316286482,0.379689749,0.270445567,0.348992403,0.312257601,0.312171254,0.000000000,,,,,,,,,,,,,,,,,,,,,,,,,,,,,
1709656276.863058,,,,,,,,,,,,,,169.000000000,1709656276.862806082,0.000000000,0.033855762,0.000000000,0.000000000,0.033855762,0.000000000,-0.208655357,-0.762611559,0.050102284,-12.155855179,-0.471056241,-0.006480107,-3.773052692,0.318305866,0.050805465,21.899593353,-2.414436367,-0.017563923,0.662036121,0.081469709,0.012387676,1.664610386,1.641728049,-0.019377804,-0.136229560,0.789574315,0.004174367
1709656276.883880,0.474787091,0.510771878,0.385701974,0.305744262,0.489896298,0.262202087,0.317877972,0.381171689,0.269519497,0.348486413,0.309730606,0.311318127,0.000000000,,,,,,,,,,,,,,,,,,,,,,,,,,,,,
