hwyao/LCQP_planner_core/matlab/data/static_example_v2.csv
__time,/LCQP_controller_multipleObstacle/distance/data.0,/LCQP_controller_multipleObstacle/distance/data.1,/LCQP_controller_multipleObstacle/distance/data.10,/LCQP_controller_multipleObstacle/distance/data.11,/LCQP_controller_multipleObstacle/distance/data.12,/LCQP_controller_multipleObstacle/distance/data.13,/LCQP_controller_multipleObstacle/distance/data.14,/LCQP_controller_multipleObstacle/distance/data.2,/LCQP_controller_multipleObstacle/distance/data.3,/LCQP_controller_multipleObstacle/distance/data.4,/LCQP_controller_multipleObstacle/distance/data.5,/LCQP_controller_multipleObstacle/distance/data.6,/LCQP_controller_multipleObstacle/distance/data.7,/LCQP_controller_multipleObstacle/distance/data.8,/LCQP_controller_multipleObstacle/distance/data.9,/LCQP_controller_multipleObstacle/distance/layout/data_offset,/joint_states/header/seq,/joint_states/header/stamp,/joint_states/panda_finger_joint1/effort,/joint_states/panda_finger_joint1/position,/joint_states/panda_finger_joint1/velocity,/joint_states/panda_finger_joint2/effort,/joint_states/panda_finger_joint2/position,/joint_states/panda_finger_joint2/velocity,/joint_states/panda_joint1/effort,/joint_states/panda_joint1/position,/joint_states/panda_joint1/velocity,/joint_states/panda_joint2/effort,/joint_states/panda_joint2/position,/joint_states/panda_joint2/velocity,/joint_states/panda_joint3/effort,/joint_states/panda_joint3/position,/joint_states/panda_joint3/velocity,/joint_states/panda_joint4/effort,/joint_states/panda_joint4/position,/joint_states/panda_joint4/velocity,/joint_states/panda_joint5/effort,/joint_states/panda_joint5/position,/joint_states/panda_joint5/velocity,/joint_states/panda_joint6/effort,/joint_states/panda_joint6/position,/joint_states/panda_joint6/velocity,/joint_states/panda_joint7/effort,/joint_states/panda_joint7/position,/joint_states/panda_joint7/velocity
1709656043.200371,,,,,,,,,,,,,,,,,2.000000000,1709656043.200124025,0.000000000,0.033855762,0.000000000,0.000000000,0.033855762,0.000000000,-0.248328209,0.000797437,-0.000039551,-3.610322952,-0.785838383,0.005136326,-0.742046952,0.000329396,-0.000061058,22.173336029,-2.356463851,0.000142240,0.656542957,0.002491675,-0.000222792,2.342100620,1.572075379,-0.000447516,-0.072142638,0.789576860,-0.001069297
1709656043.233797,,,,,,,,,,,,,,,,,3.000000000,1709656043.233511925,0.000000000,0.033855762,0.000000000,0.000000000,0.033855762,0.000000000,-0.288001060,0.000799984,0.001045233,-3.649995804,-0.785836307,0.004973012,-0.742046952,0.000327977,-0.000484155,22.093990326,-2.356460276,0.002289988,0.644641101,0.002492997,0.000159452,2.327452183,1.572080052,0.000184926,-0.143553779,0.789584692,0.001790533
1709656043.267119,,,,,,,,,,,,,,,,,4.000000000,1709656043.266877890,0.000000000,0.033855762,0.000000000,0.000000000,0.033855762,0.000000000,-0.208655357,0.000794416,-0.001021400,-3.527009964,-0.785844261,-0.001576402,-0.781719804,0.000330760,0.001761682,22.213008881,-2.356468704,-0.000827263,0.644641101,0.002492998,0.000263015,2.320127964,1.572077807,0.000592117,-0.107848205,0.789585455,0.000864511
1709656043.300593,,,,,,,,,,,,,,,,,5.000000000,1709656043.300276041,0.000000000,0.033855762,0.000000000,0.000000000,0.033855762,0.000000000,-0.327673912,0.000802847,0.001737680,-3.610322952,-0.785838386,0.000327102,-0.742046952,0.000330099,-0.000472281,22.252681732,-2.356471486,-0.002219137,0.656542957,0.002491675,-0.000084698,2.334776402,1.572075717,-0.000165995,-0.079466857,0.789578729,-0.000496035
1709656043.333665,,,,,,,,,,,,,,,,,6.000000000,1709656043.333496094,0.000000000,0.033855762,0.000000000,0.000000000,0.033855762,0.000000000,-0.288001060,0.000797854,0.002152843,-3.649995804,-0.785837631,0.001260023,-0.742046952,0.000327977,-0.000714751,22.173336029,-2.356465919,0.000211840,0.644641101,0.002492997,0.000380925,2.334776402,1.572078901,-0.000057443,-0.136229560,0.789585095,0.001687496
1709656043.367196,,,,,,,,,,,,,,,,,7.000000000,1709656043.366825104,0.000000000,0.033855762,0.000000000,0.000000000,0.033855762,0.000000000,-0.407019615,0.001184815,0.023113777,0.662443161,-0.785220535,0.043454635,0.674273849,0.000777777,0.011920377,20.153987885,-2.356567108,-0.012112276,0.483508289,0.002658323,0.014429415,2.261534214,1.572315742,0.015477931,-0.136229560,0.789587057,0.001152803
1709656043.400369,,,,,,,,,,,,,,,,,8.000000000,1709656043.400171041,0.000000000,0.033856090,0.000000000,0.000000000,0.033856090,0.000000000,-0.049963951,0.002032731,0.019737977,-2.999361038,-0.783225891,0.077744172,-0.781719804,0.001787352,0.035961968,21.974971771,-2.356669438,-0.001193911,0.758166492,0.002854198,0.006670918,2.443724155,1.573103871,0.028789851,-0.115172423,0.789582043,0.000652715
1709656043.433750,,,,,,,,,,,,,,,,,9.000000000,1709656043.433491945,0.000000000,0.033856090,0.000000000,0.000000000,0.033856090,0.000000000,-0.288001060,0.002933322,0.025491032,-3.118379593,-0.780562922,0.079938091,-0.468304276,0.003007616,0.032348621,21.899593353,-2.356711372,0.001864921,0.770068347,0.003164559,0.013476439,2.502317905,1.574009982,0.028686369,-0.093199767,0.789583846,0.000166742
1709656043.467114,,,,,,,,,,,,,,,,,10.000000000,1709656043.466799021,0.000000000,0.033856090,0.000000000,0.000000000,0.033856090,0.000000000,-0.168982506,0.003810223,0.027791081,-3.649995804,-0.777741339,0.078671478,-0.428631425,0.004170639,0.032735185,22.133663177,-2.356762124,0.000171304,0.781970203,0.003441514,0.009753159,2.581968784,1.574939493,0.030231053,-0.093199767,0.789579567,-0.000312337
1709656043.500496,,,,,,,,,,,,,,,,,11.000000000,1709656043.500240088,0.000000000,0.033856090,0.000000000,0.000000000,0.033856090,0.000000000,-0.129309654,0.004709604,0.026321943,-3.527009964,-0.775051709,0.077718296,-0.742046952,0.005370957,0.038010850,22.332027435,-2.356950410,-0.006551101,0.835070789,0.003723130,0.006822335,2.611265659,1.575827461,0.031862569,-0.136229560,0.789588627,0.002009983
1709656043.533832,,,,,,,,,,,,,,,,,12.000000000,1709656043.533508062,0.000000000,0.033856090,0.000000000,0.000000000,0.033856090,0.000000000,-0.288001060,0.005742037,0.026465292,-3.566682816,-0.772487077,0.074838313,-0.543682694,0.006538619,0.025764870,22.173336029,-2.357008562,0.000465065,0.805773914,0.004029849,0.012251464,2.589293003,1.576806890,0.034964304,-0.122496642,0.789587084,0.001593302
1709656043.567234,,,,,,,,,,,,,,,,,13.000000000,1709656043.567044020,0.000000000,0.033856090,0.000000000,0.000000000,0.033856090,0.000000000,-0.168982506,0.006648814,0.023299568,-3.610322952,-0.769871224,0.084175437,-0.662701249,0.007718100,0.036765394,22.292354584,-2.357020497,-0.001800096,0.811267078,0.004339762,0.012298276,2.603941441,1.577822858,0.021004072,-0.115172423,0.789582638,0.001132825
1709656043.601145,,,,,,,,,,,,,,,,,14.000000000,1709656043.600802898,0.000000000,0.033856090,0.000000000,0.000000000,0.033856090,0.000000000,-0.168982506,0.006648814,0.023299568,-3.610322952,-0.769871224,0.084175437,-0.662701249,0.007718100,0.036765394,22.292354584,-2.357020497,-0.001800096,0.811267078,0.004339762,0.012298276,2.603941441,1.577822858,0.021004072,-0.115172423,0.789582638,0.001132825
1709656043.612577,0.481779089,0.662627569,0.624987005,0.298757515,0.494232487,0.631364606,0.378464662,0.441845340,0.487908609,0.464831766,0.199063298,0.608702513,0.630225136,0.166187696,0.471129582,0.000000000,,,,,,,,,,,,,,,,,,,,,,,,,,,,,
1709656043.633795,,,,,,,,,,,,,,,,,15.000000000,1709656043.633405924,0.000000000,0.033855762,0.000000000,0.000000000,0.033855762,0.000000000,-0.168982506,0.007521973,0.030022033,-3.772981644,-0.767159985,0.085878327,-0.468304276,0.008830041,0.026539978,22.133663177,-2.357006825,-0.000591286,0.835070789,0.004629059,0.003811115,2.552671909,1.578855390,0.031288877,-0.072142638,0.789581502,-0.000695931
1709656043.646546,0.481779089,0.662206485,0.624375531,0.298375914,0.494232487,0.630861323,0.377159661,0.440548351,0.487724786,0.464129264,0.198424150,0.608702513,0.629404743,0.165221865,0.471129582,0.000000000,,,,,,,,,,,,,,,,,,,,,,,,,,,,,
1709656043.667326,,,,,,,,,,,,,,,,,16.000000000,1709656043.666896105,0.000000000,0.033855762,0.000000000,0.000000000,0.033855762,0.000000000,-0.049963951,0.008370058,0.027966345,-3.689668655,-0.764421021,0.081972351,-0.702374101,0.009964576,0.037063936,22.332027435,-2.357058181,-0.002015196,0.846972644,0.004918672,0.009827630,2.611265659,1.579768195,0.026700623,-0.079466857,0.789579024,-0.000587567
1709656043.680643,0.481779089,0.661786139,0.623751700,0.298017423,0.494232487,0.630358302,0.375855946,0.439256390,0.487538527,0.463425768,0.197774805,0.608702513,0.628576426,0.164248576,0.471129582,0.000000000,,,,,,,,,,,,,,,,,,,,,,,,,,,,,
1709656043.700602,,,,,,,,,,,,,,,,,17.000000000,1709656043.700185061,0.000000000,0.033856090,0.000000000,0.000000000,0.033856090,0.000000000,-0.129309654,0.009342152,0.025934502,-3.852327347,-0.761734105,0.080224385,-0.468304276,0.011095293,0.026411292,22.173336029,-2.357056165,0.000829296,0.835070789,0.005214367,0.004214194,2.567320347,1.580821785,0.024009490,-0.072142638,0.789581388,-0.000948945
1709656043.718568,0.481779089,0.661355032,0.623126785,0.297667725,0.494232487,0.629843737,0.374504787,0.437916822,0.487347121,0.462709705,0.197099965,0.608702513,0.627739186,0.163270028,0.471129582,0.000000000,,,,,,,,,,,,,,,,,,,,,,,,,,,,,
1709656043.733723,,,,,,,,,,,,,,,,,18.000000000,1709656043.733370066,0.000000000,0.033856090,0.000000000,0.000000000,0.033856090,0.000000000,-0.248328209,0.010272201,0.025196813,-4.054658890,-0.758971937,0.079191670,-0.662701249,0.012302875,0.039681044,22.332027435,-2.357066029,-0.001044110,0.829577625,0.005518045,0.010598169,2.581968784,1.581779647,0.030495063,-0.029112855,0.789576371,-0.002227557
1709656043.748602,0.481779089,0.660929670,0.622521814,0.297347217,0.494232487,0.629337120,0.373204763,0.436630436,0.487156901,0.462007658,0.196444775,0.608702513,0.626922835,0.162323737,0.471129582,0.000000000,,,,,,,,,,,,,,,,,,,,,,,,,,,,,
1709656043.767595,,,,,,,,,,,,,,,,,19.000000000,1709656043.767246962,0.000000000,0.033856090,0.000000000,0.000000000,0.033856090,0.000000000,-0.208655357,0.011182901,0.026442681,-4.014986038,-0.756273767,0.080684844,-0.702374101,0.013517931,0.039763553,22.292354584,-2.357071988,0.000889413,0.846972644,0.005811720,0.007135207,2.589293003,1.582737413,0.032946215,-0.100523986,0.789584150,0.000185769
1709656043.783298,0.481779089,0.660492341,0.621903687,0.296995529,0.494232487,0.628816811,0.371913576,0.435348162,0.486958251,0.461288277,0.195823349,0.608702513,0.626087350,0.161383955,0.471129582,0.000000000,,,,,,,,,,,,,,,,,,,,,,,,,,,,,
1709656043.800782,,,,,,,,,,,,,,,,,20.000000000,1709656043.800544024,0.000000000,0.033856090,0.000000000,0.000000000,0.033856090,0.000000000,-0.168982506,0.012005687,0.023348663,-3.892000198,-0.753604523,0.078602304,-0.662701249,0.014703304,0.033937227,22.133663177,-2.357055432,0.001076295,0.835070789,0.006110309,0.011075849,2.524290562,1.583816517,0.030285183,-0.122496642,0.789585675,0.000734681
1709656043.816860,0.481779089,0.660036328,0.621259687,0.296608492,0.494232487,0.628274633,0.370572542,0.434010873,0.486748381,0.460539798,0.195204466,0.608702513,0.625217533,0.160429930,0.471129582,0.000000000,,,,,,,,,,,,,,,,,,,,,,,,,,,,,
1709656043.834047,,,,,,,,,,,,,,,,,21.000000000,1709656043.833761930,0.000000000,0.033856090,0.000000000,0.000000000,0.033856090,0.000000000,-0.129309654,0.012867976,0.026426259,-4.217317581,-0.750780547,0.080838694,-0.662701249,0.015860863,0.033947097,22.411373138,-2.357076870,-0.000989738,0.853381336,0.006410224,0.010586815,2.567320347,1.584805858,0.033804027,-0.072142638,0.789580393,-0.001430027
1709656043.850628,0.481779089,0.659589250,0.620623418,0.296275306,0.494232487,0.627743074,0.369222617,0.432671037,0.486541416,0.459806199,0.194551893,0.608702513,0.624362005,0.159479408,0.471129582,0.000000000,,,,,,,,,,,,,,,,,,,,,,,,,,,,,
1709656043.866949,,,,,,,,,,,,,,,,,22.000000000,1709656043.866746902,0.000000000,0.033856090,0.000000000,0.000000000,0.033856090,0.000000000,-0.168982506,0.013762160,0.027416339,-4.463289261,-0.747969456,0.081238185,-0.781719804,0.017080074,0.038802515,22.451045990,-2.357079031,-0.000511288,0.870776355,0.006700699,0.011102255,2.581968784,1.585834877,0.023914441,-0.115172423,0.789586248,0.000496561
1709656043.885306,0.481779089,0.659148049,0.620001995,0.295955899,0.494232487,0.627219241,0.367902506,0.431360470,0.486335445,0.459085351,0.193917925,0.608702513,0.623523545,0.158559351,0.471129582,0.000000000,,,,,,,,,,,,,,,,,,,,,,,,,,,,,
1709656043.900847,,,,,,,,,,,,,,,,,23.000000000,1709656043.900156021,0.000000000,0.033855762,0.000000000,0.000000000,0.033855762,0.000000000,-0.129309654,0.014658591,0.025130836,-4.586275101,-0.745213630,0.081541480,-0.781719804,0.018291978,0.039787758,22.371700287,-2.357070804,0.000733118,0.841479480,0.007011994,0.015100194,2.574644566,1.586904596,0.030586104,-0.085875548,0.789583032,-0.000825019
1709656043.918633,0.481779089,0.658697988,0.619372893,0.295603051,0.494232487,0.626685516,0.366608182,0.430069830,0.486121999,0.458352700,0.193330186,0.608702513,0.622672796,0.157658626,0.471129582,0.000000000,,,,,,,,,,,,,,,,,,,,,,,,,,,,,
1709656043.933992,,,,,,,,,,,,,,,,,24.000000000,1709656043.933549881,0.000000000,0.033855762,0.000000000,0.000000000,0.033855762,0.000000000,-0.208655357,0.015502642,0.025755038,-4.463289261,-0.742463680,0.078905938,-0.821392655,0.019468478,0.035760835,22.451045990,-2.357069260,-0.001308258,0.835070789,0.007319389,0.001771030,2.552671909,1.587937295,0.034690936,-0.100523986,0.789581429,0.000132338
1709656043.953115,0.481779089,0.658246780,0.618740948,0.295246924,0.494232487,0.626150661,0.365326062,0.428789757,0.485905292,0.457619317,0.192760053,0.608702513,0.621819869,0.156771236,0.471129582,0.000000000,,,,,,,,,,,,,,,,,,,,,,,,,,,,,
1709656043.967155,,,,,,,,,,,,,,,,,25.000000000,1709656043.966883898,0.000000000,0.033855762,0.000000000,0.000000000,0.033855762,0.000000000,-0.089636803,0.016317744,0.020933770,-4.463289261,-0.739700579,0.080410195,-0.702374101,0.020582148,0.035711799,22.451045990,-2.357053625,0.001342283,0.846972644,0.007630250,0.015703834,2.545347691,1.588978348,0.032437530,-0.115172423,0.789586283,0.001112776
1709656043.986536,0.481779089,0.657793000,0.618096366,0.294909132,0.494232487,0.625612490,0.364015777,0.427483871,0.485685081,0.456880955,0.192168328,0.608702513,0.620956220,0.155874169,0.471129582,0.000000000,,,,,,,,,,,,,,,,,,,,,,,,,,,,,
1709656044.000585,,,,,,,,,,,,,,,,,26.000000000,1709656044.000251055,0.000000000,0.033855762,0.000000000,0.000000000,0.033855762,0.000000000,-0.168982506,0.017192119,0.021760743,-4.709260941,-0.736891070,0.085910857,-0.742046952,0.021689722,0.031538337,22.530391693,-2.357031582,-0.000645746,0.829577625,0.007937788,0.006793172,2.545347691,1.590071096,0.031117239,-0.115172423,0.789585105,0.000306318
1709656044.020734,0.481779089,0.657341355,0.617449027,0.294600884,0.494232487,0.625076799,0.362693727,0.426169593,0.485464017,0.456146115,0.191557411,0.608702513,0.620093232,0.154977705,0.471129582,0.000000000,,,,,,,,,,,,,,,,,,,,,,,,,,,,,
1709656044.033973,,,,,,,,,,,,,,,,,27.000000000,1709656044.033623934,0.000000000,0.033855762,0.000000000,0.000000000,0.033855762,0.000000000,-0.248328209,0.018136070,0.029991882,-4.911592484,-0.734056827,0.078699903,-0.742046952,0.022828332,0.030707712,22.570064545,-2.356978021,0.002137489,0.835070789,0.008239177,0.013648314,2.545347691,1.591153044,0.028339855,-0.079466857,0.789581949,-0.001120870
1709656044.054583,0.481779089,0.656896260,0.616811999,0.294316660,0.494232487,0.624549251,0.361394036,0.424879387,0.485244345,0.455423632,0.190951417,0.608702513,0.619244387,0.154101748,0.471129582,0.000000000,,,,,,,,,,,,,,,,,,,,,,,,,,,,,
1709656044.067535,,,,,,,,,,,,,,,,,28.000000000,1709656044.066884041,0.000000000,0.033855762,0.000000000,0.000000000,0.033855762,0.000000000,-0.208655357,0.019102467,0.026184237,-4.828279495,-0.731301580,0.080079371,-0.781719804,0.023949671,0.031424325,22.649410248,-2.356928152,0.004652863,0.841479480,0.008535559,0.014641549,2.545347691,1.592213858,0.026040800,-0.115172423,0.789582755,0.001285766
1709656044.088608,0.481779089,0.656428888,0.616163656,0.294042824,0.494232487,0.623996936,0.360132203,0.423631028,0.485011492,0.454671581,0.190358143,0.608702513,0.618369447,0.153212420,0.471129582,0.000000000,,,,,,,,,,,,,,,,,,,,,,,,,,,,,
1709656044.100457,,,,,,,,,,,,,,,,,29.000000000,1709656044.100213051,0.000000000,0.033855762,0.000000000,0.000000000,0.033855762,0.000000000,-0.208655357,0.020055943,0.025067290,-4.788606644,-0.728238650,0.087203635,-0.781719804,0.025179668,0.030804601,22.609737396,-2.356742661,0.007145497,0.835070789,0.008857100,0.009347690,2.531614780,1.593407309,0.032227266,-0.122496642,0.789583748,0.001102748
1709656044.122563,0.481779089,0.655953098,0.615506566,0.293753550,0.494232487,0.623435191,0.358838725,0.422347004,0.484772271,0.453908251,0.189768360,0.608702513,0.617481928,0.152329194,0.471129582,0.000000000,,,,,,,,,,,,,,,,,,,,,,,,,,,,,
1709656044.134800,,,,,,,,,,,,,,,,,30.000000000,1709656044.133928061,0.000000000,0.033856090,0.000000000,0.000000000,0.033856090,0.000000000,-0.168982506,0.020896374,0.027899180,-4.951265335,-0.725363062,0.086166379,-0.861065507,0.026332320,0.027470164,22.570064545,-2.356541602,0.003399015,0.817675769,0.009156354,0.002537522,2.524290562,1.594491576,0.036489610,-0.100523986,0.789580064,0.000628046
1709656044.156905,0.481779089,0.655478360,0.614846627,0.293444515,0.494232487,0.622874751,0.357497018,0.421008165,0.484531469,0.453147123,0.189181743,0.608702513,0.616594148,0.151465389,0.471129582,0.000000000,,,,,,,,,,,,,,,,,,,,,,,,,,,,,
1709656044.167139,,,,,,,,,,,,,,,,,31.000000000,1709656044.166877985,0.000000000,0.033856090,0.000000000,0.000000000,0.033856090,0.000000000,-0.168982506,0.021789846,0.021061323,-5.197237015,-0.722489603,0.081034315,-0.900738358,0.027489102,0.041700091,22.689083099,-2.356464788,0.000728164,0.829577625,0.009447862,0.002021106,2.531614780,1.595575684,0.027512736,-0.085875548,0.789583026,0.000074071
1709656044.190567,0.481779089,0.655009088,0.614190634,0.293166783,0.494232487,0.622320863,0.356157846,0.419675101,0.484291550,0.452395420,0.188583702,0.608702513,0.615714841,0.150611183,0.471129582,0.000000000,,,,,,,,,,,,,,,,,,,,,,,,,,,,,
1709656044.200749,,,,,,,,,,,,,,,,,32.000000000,1709656044.200278044,0.000000000,0.033855762,0.000000000,0.000000000,0.033855762,0.000000000,-0.168982506,0.022714101,0.024579611,-5.399568558,-0.719615391,0.081334947,-0.900738358,0.028651896,0.030844712,22.689083099,-2.356414151,0.001882189,0.811267078,0.009741724,0.010975934,2.552671909,1.596698299,0.039445972,-0.064818420,0.789577394,-0.001347761
1709656044.224429,0.481779089,0.654721708,0.613788006,0.292925658,0.494232487,0.621981772,0.355011033,0.418508157,0.484148920,0.451935625,0.188133064,0.608702513,0.615176168,0.150116013,0.471129582,0.000000000,,,,,,,,,,,,,,,,,,,,,,,,,,,,,
1709656044.233806,,,,,,,,,,,,,,,,,33.000000000,1709656044.233563900,0.000000000,0.033855762,0.000000000,0.000000000,0.033855762,0.000000000,-0.367346764,0.023533540,0.015510616,-7.311800003,-0.717443601,0.043172578,-1.293499589,0.029699623,0.026432125,22.292354584,-2.356724718,-0.023230724,0.787463367,0.010027151,0.006681968,2.386045933,1.597659376,0.029903322,-0.079466857,0.789581923,-0.000652898
1709656044.258572,0.481779089,0.654622226,0.613630230,0.292613230,0.494232487,0.621863283,0.353978495,0.417407497,0.484106746,0.451772234,0.187878332,0.608702513,0.614976091,0.150019425,0.471129582,0.000000000,,,,,,,,,,,,,,,,,,,,,,,,,,,,,
1709656044.267641,,,,,,,,,,,,,,,,,34.000000000,1709656044.266771078,0.000000000,0.033855762,0.000000000,0.000000000,0.033855762,0.000000000,-0.288001060,0.024120768,0.016881183,-5.764558792,-0.716602996,0.018927778,-0.980084062,0.030454798,0.016865358,22.252681732,-2.358141903,-0.047669070,0.811267078,0.010312174,0.006854574,2.480345249,1.598315165,0.016008699,-0.057494201,0.789579525,-0.000824594
1709656044.292410,0.481779089,0.654567590,0.613533543,0.292303988,0.494232487,0.621797598,0.352983926,0.416336163,0.484088995,0.451680161,0.187664239,0.608702513,0.614858765,0.150019648,0.471129582,0.000000000,,,,,,,,,,,,,,,,,,,,,,,,,,,,,
1709656044.300729,,,,,,,,,,,,,,,,,35.000000000,1709656044.300513983,0.000000000,0.033855762,0.000000000,0.000000000,0.033855762,0.000000000,-0.168982506,0.024694175,0.018437665,-5.074251175,-0.716167406,0.014429564,-0.900738358,0.031157172,0.019559153,22.332027435,-2.360055513,-0.052423084,0.829577625,0.010630232,0.012290442,2.516966343,1.598878402,0.021598853,-0.057494201,0.789578818,-0.001281683
1709656044.326523,0.481779089,0.654499550,0.613418739,0.292001132,0.494232487,0.621716152,0.351942807,0.415219329,0.484064722,0.451566868,0.187425864,0.608702513,0.614716850,0.150001501,0.471129582,0.000000000,,,,,,,,,,,,,,,,,,,,,,,,,,,,,
1709656044.334028,,,,,,,,,,,,,,,,,36.000000000,1709656044.333589077,0.000000000,0.033855762,0.000000000,0.000000000,0.033855762,0.000000000,-0.129309654,0.025279439,0.019370469,-4.990938187,-0.715735862,0.013467651,-1.055462480,0.031870713,0.019722522,22.213008881,-2.361940178,-0.056397158,0.823168933,0.010938862,0.008825461,2.509642124,1.599455860,0.011735598,-0.072142638,0.789580429,-0.000662512
1709656044.360657,0.481779089,0.654409638,0.613266791,0.291627942,0.494232487,0.621608527,0.350856931,0.414046399,0.484026989,0.451417171,0.187221889,0.608702513,0.614529183,0.149980942,0.471129582,0.000000000,,,,,,,,,,,,,,,,,,,,,,,,,,,,,
1709656044.367090,,,,,,,,,,,,,,,,,37.000000000,1709656044.366837978,0.000000000,0.033855762,0.000000000,0.000000000,0.033855762,0.000000000,-0.168982506,0.025910662,0.020933693,-5.522554398,-0.715152265,0.012145466,-0.900738358,0.032583207,0.016508474,22.530391693,-2.363847114,-0.061046661,0.829577625,0.011240115,0.013312232,2.494993687,1.600072695,0.019191289,-0.057494201,0.789579860,-0.001012688
1709656044.394487,0.481779089,0.654320869,0.613122148,0.291241389,0.494232487,0.621502614,0.349764825,0.412861945,0.483990182,0.451270717,0.187035691,0.608702513,0.614347941,0.149988003,0.471129582,0.000000000,,,,,,,,,,,,,,,,,,,,,,,,,,,,,
1709656044.401019,,,,,,,,,,,,,,,,,38.000000000,1709656044.400410891,0.000000000,0.033855762,0.000000000,0.000000000,0.033855762,0.000000000,-0.129309654,0.026509793,0.015833526,-5.562227249,-0.714527524,0.014443181,-0.861065507,0.033279104,0.018774978,22.609737396,-2.365869194,-0.061111619,0.835070789,0.011527140,0.009704694,2.531614780,1.600629237,0.019327454,-0.057494201,0.789578348,-0.001765051
1709656044.428437,0.481779089,0.654241971,0.612986781,0.290900942,0.494232487,0.621408075,0.348677582,0.411688046,0.483959240,0.451139010,0.186826083,0.608702513,0.614181834,0.150001396,0.471129582,0.000000000,,,,,,,,,,,,,,,,,,,,,,,,,,,,,
1709656044.434413,,,,,,,,,,,,,,,,,39.000000000,1709656044.433676004,0.000000000,0.033855762,0.000000000,0.000000000,0.033855762,0.000000000,-0.129309654,0.027147520,0.021176848,-5.359895706,-0.713960037,0.017971328,-0.980084062,0.033994129,0.023381323,22.490718842,-2.367850053,-0.054074373,0.823168933,0.011817727,0.010476040,2.494993687,1.601200990,0.014968242,-0.115172423,0.789585184,0.001046873
1709656044.462409,0.481779089,0.654158061,0.612848006,0.290573340,0.494232487,0.621307862,0.347578792,0.410503746,0.483926149,0.451000222,0.186607878,0.608702513,0.614009073,0.150014814,0.471129582,0.000000000,,,,,,,,,,,,,,,,,,,,,,,,,,,,,
1709656044.467725,,,,,,,,,,,,,,,,,40.000000000,1709656044.467016935,0.000000000,0.033855762,0.000000000,0.000000000,0.033855762,0.000000000,-0.129309654,0.027787622,0.019754217,-5.113924026,-0.713405366,0.017320965,-1.095135331,0.034749620,0.020845236,22.292354584,-2.369827460,-0.058273747,0.829577625,0.012107812,0.008922923,2.494993687,1.601793339,0.014223529,-0.100523986,0.789583439,0.000322684
1709656044.496512,0.481779089,0.654042677,0.612670014,0.290196991,0.494232487,0.621170866,0.346454227,0.409287546,0.483875048,0.450812483,0.186413949,0.608702513,0.613781103,0.150010151,0.471129582,0.000000000,,,,,,,,,,,,,,,,,,,,,,,,,,,,,
1709656044.500796,,,,,,,,,,,,,,,,,41.000000000,1709656044.500308990,0.000000000,0.033855762,0.000000000,0.000000000,0.033855762,0.000000000,-0.208655357,0.028413915,0.017184584,-5.522554398,-0.712700183,0.019290171,-1.055462480,0.035507540,0.019698461,22.371700287,-2.371760111,-0.052469023,0.805773914,0.012413702,0.007162526,2.465696812,1.602432997,0.017192875,-0.042845763,0.789573895,-0.001991822
1709656044.530918,0.481779089,0.653924438,0.612489726,0.289815666,0.494232487,0.621030633,0.345348780,0.408088892,0.483821829,0.450620704,0.186239363,0.608702513,0.613549129,0.150016884,0.471129582,0.000000000,,,,,,,,,,,,,,,,,,,,,,,,,,,,,
1709656044.533781,,,,,,,,,,,,,,,,,42.000000000,1709656044.533508062,0.000000000,0.033855762,0.000000000,0.000000000,0.033855762,0.000000000,-0.168982506,0.029013739,0.014686090,-5.522554398,-0.711930705,0.023133135,-1.095135331,0.036239209,0.021866181,22.530391693,-2.373701276,-0.060961249,0.817675769,0.012704060,0.004715073,2.509642124,1.603065042,0.020996350,-0.093199767,0.789582787,0.000354139
1709656044.565837,0.481779089,0.653802702,0.612298913,0.289462389,0.494232487,0.620885962,0.344272090,0.406925213,0.483765876,0.450422164,0.186058672,0.608702513,0.613306518,0.150009471,0.471129582,0.000000000,,,,,,,,,,,,,,,,,,,,,,,,,,,,,
1709656044.566921,,,,,,,,,,,,,,,,,43.000000000,1709656044.566704988,0.000000000,0.033855762,0.000000000,0.000000000,0.033855762,0.000000000,-0.168982506,0.029639000,0.018339217,-5.522554398,-0.711151086,0.021821177,-1.015789628,0.036942915,0.017131739,22.530391693,-2.375528081,-0.049541615,0.841479480,0.012993754,0.006109460,2.502317905,1.603733625,0.018469982,-0.057494201,0.789576698,-0.001468036
1709656044.599461,0.481779089,0.653671355,0.612097551,0.289130421,0.494232487,0.620730173,0.343142266,0.405710335,0.483705980,0.450209136,0.185844657,0.608702513,0.613048187,0.149992590,0.471129582,0.000000000,,,,,,,,,,,,,,,,,,,,,,,,,,,,,
1709656044.600435,,,,,,,,,,,,,,,,,44.000000000,1709656044.600189924,0.000000000,0.033855762,0.000000000,0.000000000,0.033855762,0.000000000,-0.089636803,0.030269513,0.015356459,-5.724885941,-0.710322849,0.021765612,-0.980084062,0.037668924,0.021496236,22.530391693,-2.377289567,-0.051823971,0.835070789,0.013297594,0.007389562,2.494993687,1.604424337,0.014671985,-0.107848205,0.789585472,0.000473511
1709656044.633495,0.481779089,0.653559448,0.611918753,0.288863426,0.494232487,0.620597027,0.342015343,0.404505887,0.483657807,0.450026074,0.185595025,0.608702513,0.612822798,0.149990563,0.471129582,0.000000000,,,,,,,,,,,,,,,,,,,,,,,,,,,,,
1709656044.633725,,,,,,,,,,,,,,,,,45.000000000,1709656044.633506060,0.000000000,0.033855762,0.000000000,0.000000000,0.033855762,0.000000000,-0.168982506,0.030959436,0.023756288,-5.601900101,-0.709544443,0.024617468,-1.015789628,0.038469943,0.024037571,22.530391693,-2.379080476,-0.057541400,0.829577625,0.013608171,0.005243263,2.509642124,1.605107544,0.027282152,-0.115172423,0.789586130,0.000991826
1709656044.667361,,,,,,,,,,,,,,,,,46.000000000,1709656044.666894913,0.000000000,0.033855762,0.000000000,0.000000000,0.033855762,0.000000000,-0.168982506,0.031674227,0.022985411,-5.478914261,-0.708813881,0.019669770,-1.055462480,0.039270877,0.023350406,22.332027435,-2.380811857,-0.050961599,0.823168933,0.013907713,0.012517386,2.451048374,1.605812866,0.026386702,-0.079466857,0.789578077,-0.000248158
1709656044.667397,0.481779089,0.653443408,0.611733036,0.288601337,0.494232487,0.620458968,0.340881081,0.403294072,0.483607244,0.449836293,0.185345314,0.608702513,0.612588924,0.149990781,0.471129582,0.000000000,,,,,,,,,,,,,,,,,,,,,,,,,,,,,
1709656044.700984,,,,,,,,,,,,,,,,,47.000000000,1709656044.700483084,0.000000000,0.033855762,0.000000000,0.000000000,0.033855762,0.000000000,-0.288001060,0.032421376,0.015936018,-5.522554398,-0.707931671,0.027126849,-1.095135331,0.040153327,0.024737062,22.371700287,-2.382766575,-0.052361938,0.817675769,0.014251691,0.011529153,2.473021030,1.606602991,0.018408179,-0.085875548,0.789582679,0.000103929
1709656044.701517,0.481779089,0.653309388,0.611529009,0.288284714,0.494232487,0.620300180,0.339717662,0.402042076,0.483546342,0.449619662,0.185132206,0.608702513,0.612326648,0.150008348,0.471129582,0.000000000,,,,,,,,,,,,,,,,,,,,,,,,,,,,,
1709656044.733768,,,,,,,,,,,,,,,,,48.000000000,1709656044.733557940,0.000000000,0.033855762,0.000000000,0.000000000,0.033855762,0.000000000,-0.129309654,0.033066365,0.019885462,-5.439241409,-0.706997092,0.021009137,-1.095135331,0.040967678,0.022258438,22.530391693,-2.384613699,-0.053603147,0.829577625,0.014557223,0.006768384,2.451048374,1.607326281,0.016061209,-0.115172423,0.789586156,0.000355217
1709656044.735546,0.481779089,0.653153958,0.611304484,0.287944395,0.494232487,0.620116791,0.338549832,0.400782269,0.483473348,0.449371380,0.184937949,0.608702513,0.612031531,0.150021484,0.471129582,0.000000000,,,,,,,,,,,,,,,,,,,,,,,,,,,,,
1709656044.767262,,,,,,,,,,,,,,,,,49.000000000,1709656044.766931057,0.000000000,0.033855762,0.000000000,0.000000000,0.033855762,0.000000000,-0.089636803,0.033731379,0.011949141,-5.764558792,-0.705954169,0.030005593,-1.015789628,0.041795530,0.022700248,22.530391693,-2.386343400,-0.052377950,0.846972644,0.014851575,0.011641903,2.458372593,1.608055501,0.024134247,-0.115172423,0.789582585,0.000669126
1709656044.769517,0.481779089,0.652985322,0.611059348,0.287627266,0.494232487,0.619917771,0.337382825,0.399529110,0.483392657,0.449101851,0.184727354,0.608702513,0.611710331,0.150009613,0.471129582,0.000000000,,,,,,,,,,,,,,,,,,,,,,,,,,,,,
1709656044.800970,,,,,,,,,,,,,,,,,50.000000000,1709656044.800491095,0.000000000,0.033856090,0.000000000,0.000000000,0.033856090,0.000000000,-0.168982506,0.034423053,0.018696895,-5.804231644,-0.704885378,0.031169044,-1.095135331,0.042626765,0.030331489,22.530391693,-2.388002120,-0.047651516,0.811267078,0.015164981,0.006813329,2.465696812,1.608807241,0.024256197,-0.100523986,0.789584302,-0.000054090
1709656044.803658,0.481779089,0.652814189,0.610806901,0.287328206,0.494232487,0.619715628,0.336225700,0.398288964,0.483310008,0.448827705,0.184512401,0.608702513,0.611381791,0.149993773,0.471129582,0.000000000,,,,,,,,,,,,,,,,,,,,,,,,,,,,,
1709656044.833913,,,,,,,,,,,,,,,,,51.000000000,1709656044.833692074,0.000000000,0.033856090,0.000000000,0.000000000,0.033856090,0.000000000,-0.208655357,0.035144802,0.026578790,-5.764558792,-0.703838468,0.029106049,-1.095135331,0.043457433,0.024566182,22.530391693,-2.389617523,-0.048671241,0.841479480,0.015466946,0.007821501,2.458372593,1.609617662,0.020570275,-0.128905341,0.789587342,0.001755380
1709656044.837521,0.481779089,0.652651037,0.610564247,0.287064309,0.494232487,0.619522839,0.335082126,0.397066899,0.483231976,0.448566101,0.184285238,0.608702513,0.611067241,0.149985283,0.471129582,0.000000000,,,,,,,,,,,,,,,,,,,,,,,,,,,,,
1709656044.867043,,,,,,,,,,,,,,,,,52.000000000,1709656044.866712093,0.000000000,0.033856090,0.000000000,0.000000000,0.033856090,0.000000000,-0.089636803,0.035855472,0.016902048,-5.804231644,-0.702795096,0.030325267,-1.095135331,0.044291011,0.022041394,22.332027435,-2.391218317,-0.046534074,0.823168933,0.015775652,0.005578624,2.421751499,1.610408448,0.020438827,-0.050169982,0.789578594,-0.001262774
1709656044.871445,0.481779089,0.652485017,0.610318421,0.286807058,0.494232487,0.619326770,0.333939891,0.395846248,0.483152160,0.448300355,0.184060550,0.608702513,0.610748099,0.149983079,0.471129582,0.000000000,,,,,,,,,,,,,,,,,,,,,,,,,,,,,
1709656044.900570,,,,,,,,,,,,,,,,,53.000000000,1709656044.900077105,0.000000000,0.033856090,0.000000000,0.000000000,0.033856090,0.000000000,-0.168982506,0.036573352,0.015927839,-5.724885941,-0.701731962,0.026281248,-1.134808183,0.045119143,0.025225115,22.371700287,-2.392806330,-0.045321131,0.805773914,0.016094442,0.003982501,2.436399937,1.611208076,0.019180864,-0.093199767,0.789580614,0.000428555
1709656044.905513,0.481779089,0.652312030,0.610064897,0.286546641,0.494232487,0.619122674,0.332791339,0.394617686,0.483068229,0.448024269,0.183842583,0.608702513,0.610417634,0.149986722,0.471129582,0.000000000,,,,,,,,,,,,,,,,,,,,,,,,,,,,,
1709656044.933768,,,,,,,,,,,,,,,,,54.000000000,1709656044.933492899,0.000000000,0.033856090,0.000000000,0.000000000,0.033856090,0.000000000,-0.208655357,0.037255571,0.016078881,-5.724885941,-0.700594649,0.030898462,-1.174481034,0.045964784,0.022290353,22.411373138,-2.394421692,-0.046609183,0.811267078,0.016401751,0.012250681,2.429075718,1.612020075,0.026044447,-0.072142638,0.789577817,-0.001179030
1709656044.939534,0.481779089,0.652123137,0.609796551,0.286256311,0.494232487,0.618900369,0.331635500,0.393375898,0.482974897,0.447724962,0.183650444,0.608702513,0.610063197,0.149999326,0.471129582,0.000000000,,,,,,,,,,,,,,,,,,,,,,,,,,,,,
1709656044.967103,,,,,,,,,,,,,,,,,55.000000000,1709656044.966862917,0.000000000,0.033856090,0.000000000,0.000000000,0.033856090,0.000000000,-0.208655357,0.037910281,0.020198517,-5.804231644,-0.699369124,0.040236442,-1.134808183,0.046799773,0.024158565,22.490718842,-2.396004087,-0.048116532,0.811267078,0.016716537,0.015393330,2.465696812,1.612876405,0.018797720,-0.143553779,0.789586142,0.002392631
1709656044.973450,0.481779089,0.651915200,0.609507114,0.285939544,0.494232487,0.618656064,0.330471577,0.392121636,0.482870144,0.447397105,0.183479732,0.608702513,0.609677601,0.150010893,0.471129582,0.000000000,,,,,,,,,,,,,,,,,,,,,,,,,,,,,
1709656045.000402,,,,,,,,,,,,,,,,,56.000000000,1709656045.000112057,0.000000000,0.033855762,0.000000000,0.000000000,0.033855762,0.000000000,-0.089636803,0.038604637,0.021303910,-5.927217484,-0.697980239,0.040909109,-1.095135331,0.047673158,0.024320747,22.490718842,-2.397649986,-0.043061515,0.835070789,0.017041418,0.003958717,2.429075718,1.613800018,0.025166110,-0.128905341,0.789586697,0.001534499
1709656045.007535,0.481779089,0.651693314,0.609197476,0.285616203,0.494232487,0.618395392,0.329298185,0.390856815,0.482756692,0.447047403,0.183314373,0.608702513,0.609265763,0.150017426,0.471129582,0.000000000,,,,,,,,,,,,,,,,,,,,,,,,,,,,,
1709656045.033847,,,,,,,,,,,,,,,,,57.000000000,1709656045.033516884,0.000000000,0.033855762,0.000000000,0.000000000,0.033855762,0.000000000,-0.089636803,0.038604637,0.021303910,-5.927217484,-0.697980239,0.040909109,-1.095135331,0.047673158,0.024320747,22.490718842,-2.397649986,-0.043061515,0.835070789,0.017041418,0.003958717,2.429075718,1.613800018,0.025166110,-0.128905341,0.789586697,0.001534499
1709656045.042111,0.481779089,0.651470406,0.608883527,0.285336074,0.494232487,0.618133422,0.328119613,0.389594040,0.482642787,0.446695787,0.183119186,0.608702513,0.608850122,0.150012177,0.471129582,0.000000000,,,,,,,,,,,,,,,,,,,,,,,,,,,,,
1709656045.066957,,,,,,,,,,,,,,,,,58.000000000,1709656045.066709042,0.000000000,0.033855762,0.000000000,0.000000000,0.033855762,0.000000000,-0.208655357,0.039319584,0.026127241,-6.173189163,-0.696622136,0.038612203,-1.134808183,0.048521718,0.022009312,22.570064545,-2.399127054,-0.038436983,0.817675769,0.017353391,0.003064644,2.465696812,1.614645964,0.022801280,-0.115172423,0.789583103,0.001139777
1709656045.075531,0.481779089,0.651248740,0.608569378,0.285088382,0.494232487,0.617872871,0.326942158,0.388337309,0.482529545,0.446346041,0.182906649,0.608702513,0.608435579,0.150003875,0.471129582,0.000000000,,,,,,,,,,,,,,,,,,,,,,,,,,,,,
1709656045.100316,,,,,,,,,,,,,,,,,59.000000000,1709656045.100085020,0.000000000,0.033855762,0.000000000,0.000000000,0.033855762,0.000000000,-0.129309654,0.040041181,0.014526029,-6.050203323,-0.695271082,0.042870978,-1.174481034,0.049387859,0.024902062,22.570064545,-2.400558989,-0.039671853,0.835070789,0.017667896,0.012428518,2.436399937,1.615553021,0.027208922,-0.136229560,0.789587210,0.001398021
1709656045.109504,0.481779089,0.651027450,0.608258019,0.284854981,0.494232487,0.617612964,0.325781757,0.387099512,0.482416175,0.445997727,0.182696546,0.608702513,0.608023610,0.150001007,0.471129582,0.000000000,,,,,,,,,,,,,,,,,,,,,,,,,,,,,
1709656045.133670,,,,,,,,,,,,,,,,,60.000000000,1709656045.133496046,0.000000000,0.033855762,0.000000000,0.000000000,0.033855762,0.000000000,-0.089636803,0.040770601,0.018725306,-6.133516312,-0.693929244,0.042029292,-1.214153886,0.050255969,0.023705999,22.609737396,-2.401954325,-0.042984662,0.817675769,0.017986154,0.014532948,2.436399937,1.616498795,0.028088483,-0.115172423,0.789582034,0.000562356
1709656045.143526,0.481779089,0.650796565,0.607940108,0.284627253,0.494232487,0.617342267,0.324634700,0.385876615,0.482297017,0.445636194,0.182490320,0.608702513,0.607599102,0.149994013,0.471129582,0.000000000,,,,,,,,,,,,,,,,,,,,,,,,,,,,,
1709656045.167061,,,,,,,,,,,,,,,,,61.000000000,1709656045.166836023,0.000000000,0.033855762,0.000000000,0.000000000,0.033855762,0.000000000,-0.168982506,0.041472886,0.021444330,-6.173189163,-0.692557352,0.038399187,-1.134808183,0.051122022,0.023806189,22.530391693,-2.403280737,-0.037812284,0.805773914,0.018294332,0.002114009,2.443724155,1.617426516,0.026372382,-0.085875548,0.789578750,-0.000557043
1709656045.177700,0.481779089,0.650559283,0.607614349,0.284391427,0.494232487,0.617064202,0.323498995,0.384663420,0.482173199,0.445265222,0.182300157,0.608702394,0.607163769,0.149992212,0.471129582,0.000000000,,,,,,,,,,,,,,,,,,,,,,,,,,,,,
1709656045.201390,,,,,,,,,,,,,,,,,62.000000000,1709656045.200175047,0.000000000,0.033855762,0.000000000,0.000000000,0.033855762,0.000000000,-0.208655357,0.042154256,0.017798543,-6.173189163,-0.691157312,0.042797041,-1.214153886,0.051988417,0.028400194,22.451045990,-2.404570196,-0.038376781,0.805773914,0.018605823,0.013720298,2.414427280,1.618379162,0.027844359,-0.143553779,0.789588013,0.001554849
1709656045.211540,0.481779089,0.650310386,0.607273464,0.284154236,0.494232487,0.616772658,0.322329581,0.383414264,0.482042552,0.444876669,0.182106773,0.608701176,0.606707978,0.149994905,0.471129582,0.000000000,,,,,,,,,,,,,,,,,,,,,,,,,,,,,
1709656045.234877,,,,,,,,,,,,,,,,,63.000000000,1709656045.234009981,0.000000000,0.033856090,0.000000000,0.000000000,0.033856090,0.000000000,-0.129309654,0.042853629,0.021518581,-6.133516312,-0.689703289,0.045952427,-1.174481034,0.052854525,0.025393282,22.371700287,-2.405884742,-0.034885725,0.811267078,0.018897849,0.007461872,2.414427280,1.619346468,0.039533480,-0.143553779,0.789586245,0.002370024
1709656045.245896,0.481779089,0.650048439,0.606913433,0.283913810,0.494232487,0.616465848,0.321110032,0.382111317,0.481904227,0.444467907,0.181907527,0.608698467,0.606227634,0.150006272,0.471129582,0.000000000,,,,,,,,,,,,,,,,,,,,,,,,,,,,,
1709656045.267370,,,,,,,,,,,,,,,,,64.000000000,1709656045.266889095,0.000000000,0.033856090,0.000000000,0.000000000,0.033856090,0.000000000,-0.089636803,0.043586793,0.025743866,-6.212862015,-0.688158726,0.043973974,-1.174481034,0.053757768,0.021055896,22.530391693,-2.407233599,-0.037621351,0.817675769,0.019194223,0.001538292,2.429075718,1.620313957,0.033246819,-0.085875548,0.789578754,-0.000150662
1709656045.279526,0.481779089,0.649772009,0.606530608,0.283686261,0.494232487,0.616142012,0.319846726,0.380765294,0.481757275,0.444036413,0.181689881,0.608694001,0.605718929,0.150011695,0.471129582,0.000000000,,,,,,,,,,,,,,,,,,,,,,,,,,,,,
1709656045.300504,,,,,,,,,,,,,,,,,65.000000000,1709656045.300198078,0.000000000,0.033856090,0.000000000,0.000000000,0.033856090,0.000000000,-0.168982506,0.044376240,0.025476927,-6.296175003,-0.686530380,0.043411424,-1.214153886,0.054699837,0.026439924,22.530391693,-2.408544037,-0.033396943,0.811267078,0.019501669,0.010932716,2.414427280,1.621255511,0.022660374,-0.064818420,0.789577509,-0.001100548
1709656045.313398,0.481779089,0.649487554,0.606141887,0.283477965,0.494232487,0.615809182,0.318588691,0.379428194,0.481605409,0.443594041,0.181464597,0.608687746,0.605199601,0.150009989,0.471129582,0.000000000,,,,,,,,,,,,,,,,,,,,,,,,,,,,,
1709656045.333786,,,,,,,,,,,,,,,,,66.000000000,1709656045.333501101,0.000000000,0.033856090,0.000000000,0.000000000,0.033856090,0.000000000,-0.208655357,0.045171976,0.026393389,-6.335847855,-0.684858494,0.047926626,-1.253826737,0.055658177,0.028855803,22.530391693,-2.409812952,-0.036647354,0.811267078,0.019810073,0.010760524,2.399778843,1.622253588,0.033732523,-0.093199767,0.789580544,0.000158580
1709656045.347753,0.481779089,0.649195544,0.605750141,0.283269004,0.494232487,0.615468042,0.317355183,0.378115974,0.481448299,0.443142022,0.181253346,0.608679635,0.604672151,0.150009804,0.471129582,0.000000000,,,,,,,,,,,,,,,,,,,,,,,,,,,,,
1709656045.367110,,,,,,,,,,,,,,,,,67.000000000,1709656045.366858006,0.000000000,0.033856090,0.000000000,0.000000000,0.033856090,0.000000000,-0.288001060,0.045935924,0.022492631,-6.458833694,-0.683155581,0.049070193,-1.333172441,0.056629927,0.032460973,22.570064545,-2.411031745,-0.032507736,0.799365222,0.020110155,0.010972285,2.386045933,1.623295213,0.034479201,-0.085875548,0.789581619,-0.000575234
1709656045.381418,0.481779089,0.648900370,0.605357973,0.283065770,0.494232487,0.615123535,0.316169497,0.376854653,0.481287922,0.442686461,0.181055575,0.608669696,0.604142118,0.150003822,0.471129582,0.000000000,,,,,,,,,,,,,,,,,,,,,,,,,,,,,
1709656045.400859,,,,,,,,,,,,,,,,,68.000000000,1709656045.400183916,0.000000000,0.033856090,0.000000000,0.000000000,0.033856090,0.000000000,-0.168982506,0.046643417,0.019346601,-6.538179398,-0.681439660,0.048423161,-1.372845292,0.057574685,0.029941539,22.570064545,-2.412167782,-0.027231453,0.829577625,0.020424818,0.006792387,2.386045933,1.624320016,0.032099921,-0.143553779,0.789588263,0.002027066
1709656045.415494,0.481779089,0.648608511,0.604961888,0.282873329,0.494232487,0.614782541,0.314988157,0.375598371,0.481128102,0.442234795,0.180859633,0.608657974,0.603612311,0.150005226,0.471129582,0.000000000,,,,,,,,,,,,,,,,,,,,,,,,,,,,,
1709656045.433789,,,,,,,,,,,,,,,,,69.000000000,1709656045.433521986,0.000000000,0.033856090,0.000000000,0.000000000,0.033856090,0.000000000,-0.168982506,0.047382245,0.025895683,-6.498506546,-0.679732613,0.047421095,-1.293499589,0.058470781,0.029722884,22.609737396,-2.413250711,-0.028626383,0.799365222,0.020736614,0.010888036,2.378721714,1.625376459,0.031438218,-0.064818420,0.789580222,-0.001064385
1709656045.449454,0.481779089,0.648307656,0.604551332,0.282704834,0.494232487,0.614431031,0.313800806,0.374341152,0.480962241,0.441769305,0.180646112,0.608643986,0.603064886,0.149990727,0.471129582,0.000000000,,,,,,,,,,,,,,,,,,,,,,,,,,,,,
1709656045.467415,,,,,,,,,,,,,,,,,70.000000000,1709656045.466829062,0.000000000,0.033856090,0.000000000,0.000000000,0.033856090,0.000000000,-0.168982506,0.048164096,0.024356300,-6.458833694,-0.677974319,0.053087669,-1.372845292,0.059367654,0.027172836,22.530391693,-2.414281024,-0.025268207,0.823168933,0.021035922,0.012728199,2.371397495,1.626444397,0.032468686,-0.085875548,0.789581580,-0.000705864
1709656045.483413,0.481779089,0.647993918,0.604122454,0.282530408,0.494232487,0.614064558,0.312579819,0.373046643,0.480787961,0.441284350,0.180435053,0.608627358,0.602493873,0.149986316,0.471129582,0.000000000,,,,,,,,,,,,,,,,,,,,,,,,,,,,,
1709656045.500592,,,,,,,,,,,,,,,,,71.000000000,1709656045.500252962,0.000000000,0.033856090,0.000000000,0.000000000,0.033856090,0.000000000,-0.208655357,0.048981038,0.019769616,-6.538179398,-0.676154266,0.056480177,-1.333172441,0.060278817,0.030332537,22.530391693,-2.415298573,-0.031736549,0.823168933,0.021347163,0.003889485,2.378721714,1.627498651,0.036612257,-0.085875548,0.789582523,-0.000837058
1709656045.517505,0.481779089,0.647667029,0.603685264,0.282345050,0.494232487,0.613683400,0.311363427,0.371754220,0.480605081,0.440781745,0.180239935,0.608608073,0.601906368,0.149987789,0.471129582,0.000000000,,,,,,,,,,,,,,,,,,,,,,,,,,,,,
1709656045.533805,,,,,,,,,,,,,,,,,72.000000000,1709656045.533560038,0.000000000,0.033856090,0.000000000,0.000000000,0.033856090,0.000000000,-0.168982506,0.049753612,0.019855102,-6.700838089,-0.674265747,0.057576229,-1.412518144,0.061211047,0.025508143,22.649410248,-2.416293957,-0.034241405,0.811267078,0.021645004,0.006401581,2.399778843,1.628564595,0.032514588,-0.128905341,0.789587812,0.001138484
1709656045.551659,0.481779089,0.647325898,0.603241147,0.282144710,0.494232487,0.613286449,0.310164824,0.370477288,0.480412720,0.440260444,0.180066522,0.608585945,0.601302506,0.149992026,0.471129582,0.000000000,,,,,,,,,,,,,,,,,,,,,,,,,,,,,
1709656045.567130,,,,,,,,,,,,,,,,,73.000000000,1709656045.566833019,0.000000000,0.033856090,0.000000000,0.000000000,0.033856090,0.000000000,-0.208655357,0.050466163,0.021735887,-6.740510941,-0.672334210,0.050075285,-1.372845292,0.062138316,0.022841603,22.570064545,-2.417277354,-0.030754547,0.805773914,0.021939074,0.003599772,2.342100620,1.629707108,0.035298357,-0.100523986,0.789583598,-0.000068063
1709656045.585742,0.481779089,0.646988326,0.602797848,0.281961818,0.494232487,0.612893575,0.308979218,0.369215794,0.480221219,0.439744486,0.179890614,0.608561663,0.600702609,0.150000432,0.471129582,0.000000000,,,,,,,,,,,,,,,,,,,,,,,,,,,,,
1709656045.601359,,,,,,,,,,,,,,,,,74.000000000,1709656045.600322962,0.000000000,0.033856090,0.000000000,0.000000000,0.033856090,0.000000000,-0.168982506,0.051172826,0.022954397,-6.903169632,-0.670392519,0.060101717,-1.333172441,0.063056959,0.030758354,22.570064545,-2.418209536,-0.032571899,0.787463367,0.022232400,0.005642500,2.364073277,1.630845997,0.029795955,-0.079466857,0.789581847,-0.000314632
1709656045.619564,0.481779089,0.646643907,0.602347868,0.281803613,0.494232487,0.612493005,0.307795837,0.367961622,0.480024959,0.439219238,0.179699693,0.608534624,0.600092663,0.149996993,0.471129582,0.000000000,,,,,,,,,,,,,,,,,,,,,,,,,,,,,
1709656045.633681,,,,,,,,,,,,,,,,,75.000000000,1709656045.633444071,0.000000000,0.033856090,0.000000000,0.000000000,0.033856090,0.000000000,-0.089636803,0.051889480,0.016806316,-6.903169632,-0.668442696,0.054815536,-1.293499589,0.063979838,0.019832535,22.490718842,-2.419080466,-0.023093667,0.781970203,0.022520690,0.011220153,2.342100620,1.632007607,0.024718272,-0.057494201,0.789576642,-0.001582467
1709656045.653730,0.481779089,0.646293314,0.601889168,0.281657570,0.494232487,0.612085371,0.306579847,0.366673708,0.479824514,0.438685172,0.179500478,0.608504670,0.599471769,0.150006235,0.471129582,0.000000000,,,,,,,,,,,,,,,,,,,,,,,,,,,,,
1709656045.667624,,,,,,,,,,,,,,,,,76.000000000,1709656045.666996002,0.000000000,0.033856090,0.000000000,0.000000000,0.033856090,0.000000000,-0.089636803,0.052634086,0.021325518,-7.026155472,-0.666457327,0.057627759,-1.372845292,0.064946994,0.031855594,22.530391693,-2.419959284,-0.025034978,0.817675769,0.022818368,0.004954144,2.334776402,1.633202604,0.031376464,-0.107848205,0.789581222,0.000270167
1709656045.687461,0.481779089,0.645929072,0.601414758,0.281532317,0.494232487,0.611662145,0.305339937,0.365364898,0.479615290,0.438131522,0.179282745,0.608471063,0.598828743,0.150007665,0.471129582,0.000000000,,,,,,,,,,,,,,,,,,,,,,,,,,,,,
1709656045.700887,,,,,,,,,,,,,,,,,77.000000000,1709656045.700339079,0.000000000,0.033856090,0.000000000,0.000000000,0.033856090,0.000000000,-0.168982506,0.053421542,0.020757248,-6.946809769,-0.664414224,0.061824801,-1.412518144,0.065940430,0.032359631,22.570064545,-2.420791072,-0.023435711,0.781970203,0.023129013,0.010248151,2.342100620,1.634339261,0.035411267,-0.050169982,0.789578712,-0.002203167
1709656045.721467,0.481779089,0.645540567,0.600912062,0.281370789,0.494232487,0.611211085,0.304098012,0.364047610,0.479388884,0.437542519,0.179097375,0.608432457,0.598145823,0.150011462,0.471129582,0.000000000,,,,,,,,,,,,,,,,,,,,,,,,,,,,,
1709656045.733719,,,,,,,,,,,,,,,,,78.000000000,1709656045.733500004,0.000000000,0.033856090,0.000000000,0.000000000,0.033856090,0.000000000,-0.129309654,0.054177367,0.021833223,-6.986482620,-0.662245156,0.065557207,-1.412518144,0.066928670,0.030383571,22.451045990,-2.421582226,-0.020836701,0.805773914,0.023428432,0.015714535,2.320127964,1.635570358,0.037278674,-0.100523986,0.789583129,0.000982341
1709656045.755985,0.481779089,0.645139162,0.600400681,0.281216306,0.494232487,0.610745668,0.302852331,0.362727322,0.479153728,0.436936471,0.178910744,0.608389846,0.597446582,0.150014408,0.471129582,0.000000000,,,,,,,,,,,,,,,,,,,,,,,,,,,,,
1709656045.766989,,,,,,,,,,,,,,,,,79.000000000,1709656045.766704082,0.000000000,0.033856090,0.000000000,0.000000000,0.033856090,0.000000000,-0.168982506,0.054905846,0.019444272,-7.149141312,-0.660017963,0.066424291,-1.487896562,0.067924735,0.027582402,22.570064545,-2.422348990,-0.023950316,0.793872058,0.023731639,0.015439781,2.334776402,1.636829607,0.033079316,-0.100523986,0.789584619,0.000603339
1709656045.790692,0.481779089,0.644727106,0.599874430,0.281059815,0.494232487,0.610268031,0.301604487,0.361403827,0.478910062,0.436315041,0.178730774,0.608342833,0.596728453,0.150019804,0.471129582,0.000000000,,,,,,,,,,,,,,,,,,,,,,,,,,,,,
1709656045.800645,,,,,,,,,,,,,,,,,80.000000000,1709656045.800225973,0.000000000,0.033855762,0.000000000,0.000000000,0.033855762,0.000000000,-0.129309654,0.055630629,0.020051175,-7.272127151,-0.657738576,0.063771805,-1.487896562,0.068927420,0.032441299,22.689083099,-2.423079852,-0.020700693,0.775561512,0.024021356,0.011457022,2.342100620,1.638047914,0.029462146,-0.093199767,0.789583375,0.000390709
1709656045.823576,0.481779089,0.644320352,0.599351663,0.280950546,0.494232487,0.609796563,0.300367847,0.360101054,0.478668691,0.435701918,0.178522240,0.608293092,0.596017799,0.150010846,0.471129582,0.000000000,,,,,,,,,,,,,,,,,,,,,,,,,,,,,
1709656045.833833,,,,,,,,,,,,,,,,,81.000000000,1709656045.833518028,0.000000000,0.033855762,0.000000000,0.000000000,0.033855762,0.000000000,-0.208655357,0.056406715,0.025335558,-7.351472855,-0.655437963,0.064648442,-1.452190995,0.069922011,0.026282514,22.570064545,-2.423721081,-0.020675685,0.811267078,0.024319862,0.004464308,2.334776402,1.639317057,0.039427584,-0.122496642,0.789587047,0.001163609
1709656045.857584,0.481779089,0.643919910,0.598833314,0.280884060,0.494232487,0.609332411,0.299133905,0.358808340,0.478430398,0.435098529,0.178287328,0.608240842,0.595316103,0.149997428,0.471129582,0.000000000,,,,,,,,,,,,,,,,,,,,,,,,,,,,,
1709656045.867444,,,,,,,,,,,,,,,,,82.000000000,1709656045.866929054,0.000000000,0.033855762,0.000000000,0.000000000,0.033855762,0.000000000,-0.168982506,0.057200746,0.021134004,-7.228487015,-0.653197047,0.065511593,-1.412518144,0.070919470,0.030427916,22.609737396,-2.424309475,-0.020889667,0.787463367,0.024609777,0.007565944,2.320127964,1.640552476,0.035841067,-0.107848205,0.789581233,0.001083327
1709656045.891426,0.481779089,0.643513023,0.598302458,0.280817287,0.494232487,0.608860769,0.297899711,0.357514621,0.478185993,0.434485584,0.178059607,0.608184343,0.594600725,0.149987893,0.471129582,0.000000000,,,,,,,,,,,,,,,,,,,,,,,,,,,,,
1709656045.900309,,,,,,,,,,,,,,,,,83.000000000,1709656045.900070906,0.000000000,0.033855762,0.000000000,0.000000000,0.033855762,0.000000000,-0.168982506,0.058042266,0.026968209,-7.228487015,-0.650915693,0.068396056,-1.487896562,0.071910145,0.027933099,22.451045990,-2.424839991,-0.011986698,0.805773914,0.024900002,0.011476226,2.312803745,1.641778631,0.036904787,-0.122496642,0.789586042,0.000938916
1709656045.925453,0.481779089,0.643085343,0.597755454,0.280717242,0.494232487,0.608365810,0.296670835,0.356219404,0.477926524,0.433844455,0.177865230,0.608122155,0.593857317,0.149989097,0.471129582,0.000000000,,,,,,,,,,,,,,,,,,,,,,,,,,,,,
1709656045.933639,,,,,,,,,,,,,,,,,84.000000000,1709656045.933464050,0.000000000,0.033855762,0.000000000,0.000000000,0.033855762,0.000000000,-0.327673912,0.058849480,0.024271719,-7.311800003,-0.648558128,0.070314150,-1.527569413,0.072893234,0.029624662,22.490718842,-2.425384594,-0.007846067,0.787463367,0.025189692,0.012994596,2.320127964,1.643081929,0.035120537,-0.085875548,0.789579457,-0.000279624
1709656045.959520,0.481779089,0.642636576,0.597189322,0.280581667,0.494232487,0.607847084,0.295438269,0.354912036,0.477651439,0.433174318,0.177704206,0.608053675,0.593083572,0.150007683,0.471129582,0.000000000,,,,,,,,,,,,,,,,,,,,,,,,,,,,,
1709656045.967232,,,,,,,,,,,,,,,,,85.000000000,1709656045.966893911,0.000000000,0.033855762,0.000000000,0.000000000,0.033855762,0.000000000,-0.248328209,0.059576112,0.026863211,-7.514131546,-0.646117824,0.072293934,-1.527569413,0.073864591,0.029909339,22.530391693,-2.425907208,-0.013599072,0.793872058,0.025481369,0.008781587,2.334776402,1.644353523,0.049460986,-0.093199767,0.789583833,0.000057648
1709656045.993504,0.481779089,0.642183985,0.596613980,0.280465709,0.494232487,0.607323945,0.294219093,0.353623254,0.477371667,0.432498783,0.177534738,0.607980524,0.592300810,0.150011899,0.471129582,0.000000000,,,,,,,,,,,,,,,,,,,,,,,,,,,,,
1709656046.001891,,,,,,,,,,,,,,,,,86.000000000,1709656046.000389099,0.000000000,0.033855762,0.000000000,0.000000000,0.033855762,0.000000000,-0.089636803,0.060309309,0.017150595,-7.676790237,-0.643616709,0.075544597,-1.372845292,0.074821737,0.025903306,22.609737396,-2.426391840,-0.007718805,0.793872058,0.025759612,0.004591573,2.327452183,1.645695904,0.042016728,-0.093199767,0.789582773,0.000314614
1709656046.027544,0.481779089,0.641727580,0.596032278,0.280371312,0.494232487,0.606796561,0.292998108,0.352336253,0.477087810,0.431818440,0.177353156,0.607902788,0.591511103,0.150012816,0.471129582,0.000000000,,,,,,,,,,,,,,,,,,,,,,,,,,,,,
1709656046.034158,,,,,,,,,,,,,,,,,87.000000000,1709656046.033727884,0.000000000,0.033855762,0.000000000,0.000000000,0.033855762,0.000000000,-0.129309654,0.061090770,0.022603966,-7.799776077,-0.641102663,0.070953911,-1.452190995,0.075773629,0.028122758,22.649410248,-2.426791242,-0.013900626,0.805773914,0.026055439,0.005768177,2.290831089,1.647035222,0.039151073,-0.107848205,0.789582125,0.000898255
1709656046.060967,0.481779089,0.641287294,0.595471018,0.280319827,0.494232487,0.606288027,0.291810535,0.351091696,0.476813229,0.431163220,0.177151129,0.607824130,0.590749910,0.150007533,0.471129582,0.000000000,,,,,,,,,,,,,,,,,,,,,,,,,,,,,
1709656046.068033,,,,,,,,,,,,,,,,,88.000000000,1709656046.066994905,0.000000000,0.033855762,0.000000000,0.000000000,0.033855762,0.000000000,-0.089636803,0.061893243,0.024770888,-7.676790237,-0.638599621,0.072803856,-1.452190995,0.076737543,0.032337399,22.570064545,-2.427153457,-0.015144591,0.817675769,0.026341444,0.007913041,2.312803745,1.648354777,0.038940091,-0.064818420,0.789580635,-0.001180169
1709656046.094431,0.481779089,0.640816657,0.594875201,0.280269838,0.494232487,0.605744892,0.290558635,0.349779207,0.476517966,0.430464793,0.176942727,0.607736396,0.589939943,0.150009803,0.471129582,0.000000000,,,,,,,,,,,,,,,,,,,,,,,,,,,,,
1709656046.101381,,,,,,,,,,,,,,,,,89.000000000,1709656046.100855112,0.000000000,0.033855762,0.000000000,0.000000000,0.033855762,0.000000000,-0.168982506,0.062707811,0.025649592,-7.720430374,-0.636031542,0.078930369,-1.567242265,0.077750054,0.033704870,22.530391693,-2.427490361,-0.009556668,0.799365222,0.026628024,0.010864578,2.283506870,1.649762520,0.044280016,-0.079466857,0.789581139,-0.000596447
1709656046.128838,0.481779089,0.640324939,0.594265751,0.280207606,0.494232487,0.605178349,0.289302887,0.348459640,0.476207358,0.429738758,0.176747215,0.607641452,0.589103807,0.150017772,0.471129582,0.000000000,,,,,,,,,,,,,,,,,,,,,,,,,,,,,
1709656046.133744,,,,,,,,,,,,,,,,,90.000000000,1709656046.133503914,0.000000000,0.033855762,0.000000000,0.000000000,0.033855762,0.000000000,-0.168982506,0.063473432,0.017938681,-7.883089066,-0.633384896,0.080417624,-1.646587968,0.078790661,0.032266274,22.570064545,-2.427797930,-0.015430975,0.775561512,0.026935875,0.010944144,2.305479527,1.651121617,0.039451177,-0.072142638,0.789580446,-0.000879285
1709656046.162976,0.481779089,0.639817529,0.593640665,0.280139778,0.494232487,0.604594194,0.288061548,0.347155062,0.475883756,0.428991598,0.176561476,0.607539255,0.588244550,0.150015618,0.471129582,0.000000000,,,,,,,,,,,,,,,,,,,,,,,,,,,,,
1709656046.167211,,,,,,,,,,,,,,,,,91.000000000,1709656046.166871071,0.000000000,0.033855762,0.000000000,0.000000000,0.033855762,0.000000000,-0.248328209,0.064203738,0.025874205,-8.085420609,-0.630668244,0.080371811,-1.567242265,0.079823218,0.028966819,22.609737396,-2.428045316,-0.005531143,0.811267078,0.027224842,0.009887451,2.261534214,1.652557692,0.044611440,-0.107848205,0.789584963,0.001057212
1709656046.196542,0.481779089,0.639317260,0.593020855,0.280101619,0.494232487,0.604018360,0.286846980,0.345884594,0.475562558,0.428255666,0.176360877,0.607433718,0.587395727,0.150001692,0.471129582,0.000000000,,,,,,,,,,,,,,,,,,,,,,,,,,,,,
1709656046.200780,,,,,,,,,,,,,,,,,92.000000000,1709656046.200483084,0.000000000,0.033855762,0.000000000,0.000000000,0.033855762,0.000000000,-0.168982506,0.064932814,0.023377261,-8.125093460,-0.627960905,0.078539568,-1.527569413,0.080824948,0.029545871,22.609737396,-2.428201271,-0.005236373,0.787463367,0.027514751,0.008320461,2.298155308,1.653947417,0.041179773,-0.079466857,0.789581810,-0.000971528
1709656046.230446,0.481779089,0.638825841,0.592409592,0.280095281,0.494232487,0.603452861,0.285652830,0.344641620,0.475245381,0.427533633,0.176145934,0.607325505,0.586561024,0.149979620,0.471129582,0.000000000,,,,,,,,,,,,,,,,,,,,,,,,,,,,,
1709656046.233661,,,,,,,,,,,,,,,,,93.000000000,1709656046.233493090,0.000000000,0.033855762,0.000000000,0.000000000,0.033855762,0.000000000,-0.208655357,0.065699345,0.024788671,-8.085420609,-0.625287929,0.085090063,-1.487896562,0.081823400,0.029873789,22.530391693,-2.428311461,-0.002423289,0.793872058,0.027798306,0.006091877,2.283506870,1.655378861,0.045095396,-0.107848205,0.789584244,0.001088306
1709656046.264468,0.481779089,0.638318963,0.591780272,0.280082245,0.494232487,0.602869905,0.284426341,0.343360719,0.474915919,0.426790448,0.175940621,0.607209504,0.585701741,0.149980140,0.471129582,0.000000000,,,,,,,,,,,,,,,,,,,,,,,,,,,,,
1709656046.267058,,,,,,,,,,,,,,,,,94.000000000,1709656046.266834021,0.000000000,0.033855762,0.000000000,0.000000000,0.033855762,0.000000000,-0.208655357,0.066475925,0.021373708,-8.164766312,-0.622578593,0.082065400,-1.567242265,0.082833616,0.026287791,22.530391693,-2.428414152,-0.005245748,0.787463367,0.028085080,0.004396726,2.283506870,1.656847396,0.044140391,-0.085875548,0.789581971,-0.000286410
1709656046.298472,0.481779089,0.637787689,0.591128248,0.280041448,0.494232487,0.602259558,0.283181616,0.342053112,0.474567533,0.426014279,0.175761431,0.607083803,0.584807385,0.150001265,0.471129582,0.000000000,,,,,,,,,,,,,,,,,,,,,,,,,,,,,
1709656046.300673,,,,,,,,,,,,,,,,,95.000000000,1709656046.300303936,0.000000000,0.033855762,0.000000000,0.000000000,0.033855762,0.000000000,-0.168982506,0.067221388,0.020832625,-8.287752151,-0.619785177,0.079184949,-1.567242265,0.083851623,0.022470367,22.649410248,-2.428539581,-0.003889545,0.770068347,0.028374773,0.006306036,2.276182652,1.658264741,0.041696917,-0.122496642,0.789582806,0.001591094
1709656046.332564,0.481779089,0.637241613,0.590463371,0.279988670,0.494232487,0.601632773,0.281964124,0.340772876,0.474205885,0.425218937,0.175596726,0.606950031,0.583892827,0.150011081,0.471129582,0.000000000,,,,,,,,,,,,,,,,,,,,,,,,,,,,,
1709656046.333812,,,,,,,,,,,,,,,,,96.000000000,1709656046.333517075,0.000000000,0.033855762,0.000000000,0.000000000,0.033855762,0.000000000,-0.208655357,0.067934803,0.021078359,-8.533723831,-0.616883312,0.084419757,-1.567242265,0.084856553,0.030784024,22.649410248,-2.428587094,0.000762175,0.763659656,0.028644282,0.009432689,2.276182652,1.659722896,0.035692765,-0.115172423,0.789586283,0.001389258
1709656046.366597,0.481779089,0.636700943,0.589803627,0.279959218,0.494232487,0.601012434,0.280756423,0.339506296,0.473845711,0.424432746,0.175422643,0.606812389,0.582987254,0.150023073,0.471129582,0.000000000,,,,,,,,,,,,,,,,,,,,,,,,,,,,,
1709656046.367220,,,,,,,,,,,,,,,,,97.000000000,1709656046.366916895,0.000000000,0.033855762,0.000000000,0.000000000,0.033855762,0.000000000,-0.089636803,0.068631796,0.019731762,-8.652742386,-0.614010338,0.084224719,-1.567242265,0.085857635,0.025809163,22.689083099,-2.428586552,0.000502184,0.787463367,0.028930487,0.002208068,2.276182652,1.661150944,0.049435768,-0.057494201,0.789575464,-0.001160401
1709656046.400397,,,,,,,,,,,,,,,,,98.000000000,1709656046.400120020,0.000000000,0.033855762,0.000000000,0.000000000,0.033855762,0.000000000,-0.168982506,0.069390818,0.024560865,-8.490083694,-0.611095856,0.090858165,-1.527569413,0.086831978,0.031037604,22.609737396,-2.428559637,0.002510709,0.781970203,0.029207532,0.002688089,2.290831089,1.662649131,0.039741449,-0.107848205,0.789584004,0.000080306
1709656046.400542,0.481779089,0.636148839,0.589124351,0.279942807,0.494232487,0.600379030,0.279532701,0.338225253,0.473474908,0.423630559,0.175242661,0.606666035,0.582059579,0.150032657,0.471129582,0.000000000,,,,,,,,,,,,,,,,,,,,,,,,,,,,,
1709656046.433859,,,,,,,,,,,,,,,,,99.000000000,1709656046.433573961,0.000000000,0.033856090,0.000000000,0.000000000,0.033856090,0.000000000,-0.089636803,0.070179919,0.019581789,-8.613069534,-0.608055072,0.090550026,-1.527569413,0.087826897,0.026867459,22.768428802,-2.428448092,0.004984319,0.775561512,0.029495695,0.006039286,2.290831089,1.664144041,0.044397179,-0.136229560,0.789587567,0.002304407
1709656046.434382,0.481779089,0.635573247,0.588416082,0.279940611,0.494232487,0.599719019,0.278287513,0.336925776,0.473085234,0.422795931,0.175048840,0.606507857,0.581093433,0.150028004,0.471129582,0.000000000,,,,,,,,,,,,,,,,,,,,,,,,,,,,,
1709656046.467030,,,,,,,,,,,,,,,,,100.000000000,1709656046.466674089,0.000000000,0.033856090,0.000000000,0.000000000,0.033856090,0.000000000,-0.168982506,0.071012927,0.025215170,-8.898714066,-0.604972153,0.090530742,-1.606915116,0.088817523,0.027294324,22.768428802,-2.428256460,0.005423359,0.781970203,0.029764017,0.007588166,2.246885777,1.665710058,0.044988283,-0.079466857,0.789581809,-0.000267541
1709656046.468547,0.481779089,0.634992029,0.587700000,0.279961874,0.494232487,0.599052872,0.277039569,0.335628167,0.472689163,0.421954761,0.174842323,0.606342267,0.580118315,0.150016231,0.471129582,0.000000000,,,,,,,,,,,,,,,,,,,,,,,,,,,,,
1709656046.500276,,,,,,,,,,,,,,,,,101.000000000,1709656046.500056982,0.000000000,0.033856090,0.000000000,0.000000000,0.033856090,0.000000000,-0.208655357,0.071810768,0.020928384,-8.938386917,-0.601917054,0.088417314,-1.606915116,0.089807386,0.032687572,22.927120209,-2.428049358,0.002650886,0.781970203,0.030051223,0.014436717,2.246885777,1.667231389,0.049364204,-0.072142638,0.789581493,-0.000301659
1709656046.502461,0.481779089,0.634415856,0.586995315,0.279989565,0.494232487,0.598393097,0.275818641,0.334358734,0.472294077,0.421123477,0.174640710,0.606173066,0.579156379,0.150011382,0.471129582,0.000000000,,,,,,,,,,,,,,,,,,,,,,,,,,,,,
1709656046.533729,,,,,,,,,,,,,,,,,102.000000000,1709656046.533452988,0.000000000,0.033856090,0.000000000,0.000000000,0.033856090,0.000000000,-0.168982506,0.072538851,0.021741641,-8.775728226,-0.598926369,0.087933781,-1.606915116,0.090838529,0.030684349,22.689083099,-2.427771664,0.008911639,0.781970203,0.030335521,0.002185546,2.254209995,1.668792653,0.045487264,-0.064818420,0.789580648,-0.001361832
1709656046.536514,0.481779089,0.633844540,0.586309070,0.280050633,0.494232487,0.597739792,0.274628187,0.333129165,0.471901167,0.420302894,0.174420424,0.606001378,0.578212353,0.149988357,0.471129582,0.000000000,,,,,,,,,,,,,,,,,,,,,,,,,,,,,
1709656046.567205,,,,,,,,,,,,,,,,,103.000000000,1709656046.566920996,0.000000000,0.033856090,0.000000000,0.000000000,0.033856090,0.000000000,-0.288001060,0.073291886,0.023356980,-8.859041214,-0.595886839,0.090627337,-1.646587968,0.091880161,0.030905361,22.768428802,-2.427494130,0.009024473,0.763659656,0.030622470,0.017252273,2.268858433,1.670355484,0.043609173,-0.072142638,0.789580983,-0.001345622
1709656046.569899,0.481779089,0.633293268,0.585645493,0.280102544,0.494232487,0.597109658,0.273477874,0.331936157,0.471519264,0.419512435,0.174223642,0.605830415,0.577301435,0.149992682,0.471129582,0.000000000,,,,,,,,,,,,,,,,,,,,,,,,,,,,,
1709656046.600684,,,,,,,,,,,,,,,,,104.000000000,1709656046.600485086,0.000000000,0.033856090,0.000000000,0.000000000,0.033856090,0.000000000,-0.129309654,0.074041348,0.018897736,-9.144685745,-0.592723255,0.088733388,-1.567242265,0.092898013,0.030089156,23.006465912,-2.427223667,0.004904981,0.775561512,0.030887521,0.008793145,2.254209995,1.671916414,0.051330131,-0.093199767,0.789582667,0.000031020
1709656046.603458,0.481779089,0.632665675,0.584889349,0.280131230,0.494232487,0.596392627,0.272207770,0.330611391,0.471079862,0.418614294,0.174036251,0.605629587,0.576265077,0.150013060,0.471129582,0.000000000,,,,,,,,,,,,,,,,,,,,,,,,,,,,,
1709656046.633701,,,,,,,,,,,,,,,,,105.000000000,1709656046.633474112,0.000000000,0.033856090,0.000000000,0.000000000,0.033856090,0.000000000,-0.208655357,0.074816973,0.021516509,-9.386690140,-0.589505149,0.091094307,-1.646587968,0.093922759,0.027355911,22.966793060,-2.426897890,0.011429459,0.763659656,0.031152575,0.007353076,2.225828648,1.673467630,0.049099511,-0.093199767,0.789582668,-0.000385657
1709656046.637527,0.481779089,0.632046662,0.584144014,0.280178134,0.494232487,0.595685809,0.270958571,0.329310926,0.470643726,0.417730449,0.173843508,0.605425239,0.575244424,0.150037295,0.471129582,0.000000000,,,,,,,,,,,,,,,,,,,,,,,,,,,,,
1709656046.667020,,,,,,,,,,,,,,,,,106.000000000,1709656046.666749954,0.000000000,0.033856090,0.000000000,0.000000000,0.033856090,0.000000000,-0.168982506,0.075594791,0.021736699,-9.347017288,-0.586277442,0.084647307,-1.606915116,0.094957687,0.030770500,22.927120209,-2.426513404,0.014447734,0.770068347,0.031411131,0.003977743,2.246885777,1.675101338,0.048072372,-0.042845763,0.789574600,-0.002060419
1709656046.672661,0.481779089,0.631438002,0.583413910,0.280252747,0.494232487,0.594991310,0.269747553,0.328057609,0.470212419,0.416863686,0.173637935,0.605218610,0.574243933,0.150042227,0.471129582,0.000000000,,,,,,,,,,,,,,,,,,,,,,,,,,,,,
1709656046.700371,,,,,,,,,,,,,,,,,107.000000000,1709656046.700186968,0.000000000,0.033855762,0.000000000,0.000000000,0.033855762,0.000000000,-0.208655357,0.076335384,0.025312755,-9.426362991,-0.582989483,0.093568209,-1.646587968,0.095996264,0.030511162,22.966793060,-2.426030791,0.013830021,0.770068347,0.031669087,0.010769703,2.233152866,1.676795231,0.048763922,-0.042845763,0.789574556,-0.001895314
1709656046.706990,0.481779089,0.630761764,0.582609669,0.280325100,0.494232487,0.594220435,0.268467658,0.326734206,0.469728735,0.415903897,0.173424241,0.604983048,0.573138516,0.150026140,0.471129582,0.000000000,,,,,,,,,,,,,,,,,,,,,,,,,,,,,
1709656046.733735,,,,,,,,,,,,,,,,,108.000000000,1709656046.733448982,0.000000000,0.033855762,0.000000000,0.000000000,0.033855762,0.000000000,-0.208655357,0.076335384,0.025312755,-9.426362991,-0.582989483,0.093568209,-1.646587968,0.095996264,0.030511162,22.966793060,-2.426030791,0.013830021,0.770068347,0.031669087,0.010769703,2.233152866,1.676795231,0.048763922,-0.042845763,0.789574556,-0.001895314
1709656046.743012,0.481779089,0.630110759,0.581841808,0.280384732,0.494232487,0.593479023,0.267267931,0.325490984,0.469259360,0.414982994,0.173234901,0.604750364,0.572080085,0.150017620,0.471129582,0.000000000,,,,,,,,,,,,,,,,,,,,,,,,,,,,,
1709656046.767198,,,,,,,,,,,,,,,,,109.000000000,1709656046.766741037,0.000000000,0.033855762,0.000000000,0.000000000,0.033855762,0.000000000,-0.168982506,0.077011303,0.014250161,-9.589021683,-0.579663088,0.096963979,-1.606915116,0.097025014,0.029419483,23.046138763,-2.425481392,0.015506307,0.781970203,0.031936640,0.009277952,2.246885777,1.678455877,0.057440902,-0.064818420,0.789577461,-0.001489152
1709656046.774276,0.481779089,0.629485834,0.581100549,0.280443754,0.494232487,0.592767521,0.266127053,0.324308020,0.468805008,0.414100311,0.173058802,0.604520058,0.571062380,0.150015861,0.471129582,0.000000000,,,,,,,,,,,,,,,,,,,,,,,,,,,,,
1709656046.800873,,,,,,,,,,,,,,,,,110.000000000,1709656046.800374031,0.000000000,0.033855762,0.000000000,0.000000000,0.033855762,0.000000000,-0.168982506,0.077711036,0.019518613,-9.795320511,-0.576349652,0.097140870,-1.646587968,0.098010813,0.030517280,22.966793060,-2.424917554,0.018526432,0.781970203,0.032176867,0.001334856,2.261534214,1.680058824,0.050673529,-0.057494201,0.789579707,-0.001750025
1709656046.807617,0.481779089,0.628848739,0.580344742,0.280533829,0.494232487,0.592042546,0.264961862,0.323105908,0.468339403,0.413202387,0.172861767,0.604278901,0.570025996,0.150007918,0.471129582,0.000000000,,,,,,,,,,,,,,,,,,,,,,,,,,,,,
1709656046.833814,,,,,,,,,,,,,,,,,111.000000000,1709656046.833564043,0.000000000,0.033855762,0.000000000,0.000000000,0.033855762,0.000000000,-0.129309654,0.078419877,0.021591754,-9.470003128,-0.573098992,0.092051486,-1.527569413,0.098977771,0.029368818,23.006465912,-2.424323289,0.015998360,0.770068347,0.032440356,0.008551781,2.276182652,1.681645255,0.054222792,-0.072142638,0.789580087,-0.000530679
1709656046.841437,0.481779089,0.628192160,0.579567395,0.280622034,0.494232487,0.591295877,0.263785352,0.321890823,0.467855750,0.412279301,0.172669478,0.604023965,0.568960289,0.150003340,0.471129582,0.000000000,,,,,,,,,,,,,,,,,,,,,,,,,,,,,
1709656046.867064,,,,,,,,,,,,,,,,,112.000000000,1709656046.866725922,0.000000000,0.033855762,0.000000000,0.000000000,0.033855762,0.000000000,-0.168982506,0.079144543,0.020477570,-9.632661819,-0.569770568,0.093831669,-1.567242265,0.099953499,0.031940856,22.966793060,-2.423682390,0.020245159,0.758166492,0.032715453,0.006410116,2.254209995,1.683298303,0.046725460,-0.064818420,0.789576448,-0.001170651
1709656046.876785,0.481779089,0.627531840,0.578788012,0.280715671,0.494232487,0.590545471,0.262603279,0.320668336,0.467366324,0.411353407,0.172483200,0.603761202,0.567891469,0.150016191,0.471129582,0.000000000,,,,,,,,,,,,,,,,,,,,,,,,,,,,,
1709656046.900485,,,,,,,,,,,,,,,,,113.000000000,1709656046.900162935,0.000000000,0.033856422,0.000000000,0.000000000,0.033856422,0.000000000,-0.208655357,0.079885911,0.020326330,-10.076997757,-0.566322291,0.099782841,-1.686260819,0.100971667,0.030174918,23.046138763,-2.423020187,0.020210569,0.751757801,0.032984634,0.004468481,2.246885777,1.684998985,0.047822786,-0.122496642,0.789582372,0.001375054
1709656046.910565,0.481779089,0.626803027,0.577933118,0.280812052,0.494232487,0.589717931,0.261339719,0.319361093,0.466821665,0.410334663,0.172287770,0.603464299,0.566716970,0.150024875,0.471129582,0.000000000,,,,,,,,,,,,,,,,,,,,,,,,,,,,,
1709656046.933806,,,,,,,,,,,,,,,,,114.000000000,1709656046.933509111,0.000000000,0.033856422,0.000000000,0.000000000,0.033856422,0.000000000,-0.248328209,0.080592961,0.022688414,-10.243623734,-0.562848644,0.106534177,-1.725933671,0.101969433,0.033288498,23.125484467,-2.422307021,0.024539829,0.751757801,0.033239037,0.005443320,2.305479527,1.686653058,0.035138680,-0.100523986,0.789581440,0.000915323
1709656046.944449,0.481779089,0.626120049,0.577134586,0.280908458,0.494232487,0.588942994,0.260200529,0.318187560,0.466306954,0.409382649,0.172103194,0.603179172,0.565619547,0.150004905,0.471129582,0.000000000,,,,,,,,,,,,,,,,,,,,,,,,,,,,,
1709656046.967085,,,,,,,,,,,,,,,,,115.000000000,1709656046.966856956,0.000000000,0.033856422,0.000000000,0.000000000,0.033856422,0.000000000,-0.168982506,0.081255324,0.023025950,-10.243623734,-0.559410164,0.094242209,-1.686260819,0.102941641,0.034834295,23.125484467,-2.421506310,0.025304892,0.770068347,0.033499177,0.002815462,2.276182652,1.688323715,0.053434663,-0.128905341,0.789584502,0.002006131
1709656046.978514,0.481779089,0.625440079,0.576339218,0.281027653,0.494232487,0.588171889,0.259075509,0.317034481,0.465791299,0.408436987,0.171905596,0.602888199,0.564528080,0.149973176,0.471129582,0.000000000,,,,,,,,,,,,,,,,,,,,,,,,,,,,,
1709656047.000618,,,,,,,,,,,,,,,,,116.000000000,1709656047.000061035,0.000000000,0.033856422,0.000000000,0.000000000,0.033856422,0.000000000,-0.168982506,0.081925328,0.022022353,-10.160310745,-0.555986089,0.102487589,-1.606915116,0.103894891,0.027783340,22.887447357,-2.420632963,0.022525406,0.763659656,0.033768729,0.004657182,2.218504429,1.690051607,0.055025644,-0.100523986,0.789584614,0.000474447
1709656047.012472,0.481779089,0.624765115,0.575548607,0.281158643,0.494232487,0.587406845,0.257936141,0.315864213,0.465276747,0.407500319,0.171712032,0.602592234,0.563445240,0.149973011,0.471129582,0.000000000,,,,,,,,,,,,,,,,,,,,,,,,,,,,,
1709656047.033591,,,,,,,,,,,,,,,,,117.000000000,1709656047.033382893,0.000000000,0.033856422,0.000000000,0.000000000,0.033856422,0.000000000,-0.089636803,0.082629938,0.019272725,-10.406282425,-0.552581833,0.099678813,-1.606915116,0.104843491,0.024257461,22.927120209,-2.419801498,0.022531811,0.781970203,0.034025198,0.011515286,2.240477085,1.691748637,0.049421501,-0.100523986,0.789584603,0.000642973
1709656047.047228,0.481779089,0.624083718,0.574752831,0.281323308,0.494232487,0.586635032,0.256769292,0.314670220,0.464755243,0.406557234,0.171495940,0.602286917,0.562355057,0.149981715,0.471129582,0.000000000,,,,,,,,,,,,,,,,,,,,,,,,,,,,,
1709656047.067286,,,,,,,,,,,,,,,,,118.000000000,1709656047.066904068,0.000000000,0.033856422,0.000000000,0.000000000,0.033856422,0.000000000,-0.129309654,0.083356968,0.024251973,-10.485628128,-0.549164723,0.100630144,-1.606915116,0.105837491,0.034171466,23.085811615,-2.418963180,0.024411447,0.793872058,0.034292325,0.003579895,2.268858433,1.693397019,0.038686675,-0.029112855,0.789576680,-0.001943348
1709656047.080591,0.481779089,0.623401913,0.573959180,0.281521069,0.494232487,0.585863290,0.255602193,0.313483724,0.464231055,0.405616121,0.171261711,0.601974957,0.561267357,0.149978780,0.471129582,0.000000000,,,,,,,,,,,,,,,,,,,,,,,,,,,,,
1709656047.100545,,,,,,,,,,,,,,,,,119.000000000,1709656047.100253105,0.000000000,0.033856422,0.000000000,0.000000000,0.033856422,0.000000000,-0.129309654,0.084105847,0.019075837,-10.362642288,-0.545760612,0.098939843,-1.646587968,0.106845908,0.028319621,22.927120209,-2.418060664,0.028828401,0.793872058,0.034556402,0.003297377,2.246885777,1.695122713,0.051091609,-0.057494201,0.789575248,-0.001563632
1709656047.114463,0.481779089,0.622688704,0.573133292,0.281703587,0.494232487,0.585056625,0.254405556,0.312259728,0.463678368,0.404634552,0.171044776,0.601642139,0.560133946,0.149999957,0.471129582,0.000000000,,,,,,,,,,,,,,,,,,,,,,,,,,,,,
1709656047.133801,,,,,,,,,,,,,,,,,120.000000000,1709656047.133502960,0.000000000,0.033856090,0.000000000,0.000000000,0.033856090,0.000000000,-0.327673912,0.084857308,0.019214019,-10.608613968,-0.542237181,0.105196515,-1.646587968,0.107869560,0.027512048,22.927120209,-2.417147599,0.026630872,0.751757801,0.034812117,0.005473520,2.246885777,1.696884204,0.049127202,-0.128905341,0.789587637,0.001073738
1709656047.149010,0.481779089,0.621952036,0.572285505,0.281860297,0.494232487,0.584224112,0.253218866,0.311039888,0.463102227,0.403623847,0.170852899,0.601291664,0.558968376,0.150026822,0.471129582,0.000000000,,,,,,,,,,,,,,,,,,,,,,,,,,,,,
1709656047.166980,,,,,,,,,,,,,,,,,121.000000000,1709656047.166749001,0.000000000,0.033856090,0.000000000,0.000000000,0.033856090,0.000000000,-0.288001060,0.085539722,0.020602090,-10.933931351,-0.538612157,0.108485105,-1.725933671,0.108900777,0.028551763,23.006465912,-2.416177644,0.028847011,0.733447254,0.035062841,0.008415738,2.233152866,1.698639693,0.055504027,-0.115172423,0.789586268,0.001281948
1709656047.182858,0.481779089,0.621207378,0.571428601,0.281990462,0.494232487,0.583383070,0.252069175,0.309853450,0.462513978,0.402604745,0.170684062,0.600929454,0.557791791,0.150051300,0.471129582,0.000000000,,,,,,,,,,,,,,,,,,,,,,,,,,,,,
1709656047.200475,,,,,,,,,,,,,,,,,122.000000000,1709656047.200052023,0.000000000,0.033855762,0.000000000,0.000000000,0.033855762,0.000000000,-0.089636803,0.086190330,0.013457456,-11.219575882,-0.534937694,0.106082023,-1.725933671,0.109887572,0.033356337,23.125484467,-2.415155529,0.038174847,0.758166492,0.035304583,0.005973981,2.283506870,1.700325736,0.053658277,-0.085875548,0.789582634,-0.000506144
1709656047.216764,0.481779089,0.620463425,0.570569024,0.282150764,0.494232487,0.582543188,0.250948858,0.308709244,0.461922018,0.401588749,0.170492216,0.600558842,0.556615531,0.150032171,0.471129582,0.000000000,,,,,,,,,,,,,,,,,,,,,,,,,,,,,
1709656047.233912,,,,,,,,,,,,,,,,,123.000000000,1709656047.233567953,0.000000000,0.033855762,0.000000000,0.000000000,0.033855762,0.000000000,-0.129309654,0.086863993,0.021232184,-10.933931351,-0.531273941,0.104364919,-1.686260819,0.110814066,0.026163126,23.006465912,-2.414024815,0.028537682,0.787463367,0.035544695,0.007954122,2.254209995,1.702115969,0.052610351,-0.100523986,0.789584497,-0.000018392
1709656047.250953,0.481779089,0.619716772,0.569706492,0.282334601,0.494232487,0.581700764,0.249821601,0.307561870,0.461324595,0.400571672,0.170287386,0.600178874,0.555436700,0.150014931,0.471129582,0.000000000,,,,,,,,,,,,,,,,,,,,,,,,,,,,,
1709656047.267152,,,,,,,,,,,,,,,,,124.000000000,1709656047.266855001,0.000000000,0.033855762,0.000000000,0.000000000,0.033855762,0.000000000,-0.208655357,0.087571793,0.026883460,-11.136262894,-0.527585777,0.116880239,-1.686260819,0.111745213,0.028169736,22.966793060,-2.412823298,0.031130454,0.746264637,0.035785865,0.001034660,2.225828648,1.703897419,0.053115219,-0.085875548,0.789578317,-0.000152529
1709656047.284467,0.481779089,0.618975281,0.568853373,0.282527079,0.494232487,0.580864785,0.248707653,0.306428931,0.460727868,0.399564589,0.170083982,0.599794387,0.554269924,0.150005058,0.471129582,0.000000000,,,,,,,,,,,,,,,,,,,,,,,,,,,,,
1709656047.300631,,,,,,,,,,,,,,,,,125.000000000,1709656047.300234079,0.000000000,0.033855762,0.000000000,0.000000000,0.033855762,0.000000000,-0.129309654,0.088289314,0.020124344,-11.382234573,-0.523810805,0.105306348,-1.686260819,0.112707073,0.023998947,22.927120209,-2.411585037,0.036968424,0.746264637,0.036033877,0.005685164,2.261534214,1.705724985,0.047456756,-0.072142638,0.789579932,-0.000696554
1709656047.318554,0.481779089,0.618236133,0.568005704,0.282736710,0.494232487,0.580032031,0.247604770,0.305311380,0.460129742,0.398563526,0.169872059,0.599403949,0.553110242,0.149990837,0.471129582,0.000000000,,,,,,,,,,,,,,,,,,,,,,,,,,,,,
1709656047.333770,,,,,,,,,,,,,,,,,126.000000000,1709656047.333482027,0.000000000,0.033855762,0.000000000,0.000000000,0.033855762,0.000000000,-0.208655357,0.088976657,0.016418336,-11.219575882,-0.520198330,0.108248068,-1.725933671,0.113654368,0.030053397,23.046138763,-2.410372729,0.036304713,0.746264637,0.036293446,0.002914611,2.283506870,1.707476938,0.054003587,-0.072142638,0.789577135,-0.000625093
1709656047.352735,0.481779089,0.617477556,0.567143541,0.282938467,0.494232487,0.579178167,0.246503953,0.304193518,0.459511641,0.397539629,0.169671836,0.598997094,0.551926924,0.149980081,0.471129582,0.000000000,,,,,,,,,,,,,,,,,,,,,,,,,,,,,
1709656047.367025,,,,,,,,,,,,,,,,,127.000000000,1709656047.366799116,0.000000000,0.033855762,0.000000000,0.000000000,0.033855762,0.000000000,-0.288001060,0.089620795,0.015785689,-11.298921585,-0.516539822,0.116543461,-1.765606523,0.114608627,0.027064462,22.887447357,-2.409089684,0.036433809,0.763659656,0.036549068,0.009143153,2.246885777,1.709336100,0.051749670,-0.072142638,0.789580049,-0.000990365
1709656047.386713,0.481779089,0.616703546,0.566264894,0.283106086,0.494232487,0.578307484,0.245412636,0.303074696,0.458875242,0.396497705,0.169507565,0.598574042,0.550721892,0.149994941,0.471129582,0.000000000,,,,,,,,,,,,,,,,,,,,,,,,,,,,,
1709656047.400484,,,,,,,,,,,,,,,,,128.000000000,1709656047.400158882,0.000000000,0.033855762,0.000000000,0.000000000,0.033855762,0.000000000,-0.208655357,0.090235484,0.017517455,-11.830537796,-0.512778857,0.114422606,-1.765606523,0.115545871,0.027479070,22.966793060,-2.407809879,0.042200922,0.763659656,0.036787748,0.008392936,2.240477085,1.711147012,0.055343654,-0.093199767,0.789582388,-0.000425252
1709656047.420721,0.481779089,0.615934443,0.565394073,0.283287801,0.494232487,0.577442910,0.244328660,0.301965136,0.458239398,0.395465311,0.169337157,0.598146003,0.549527657,0.150016886,0.471129582,0.000000000,,,,,,,,,,,,,,,,,,,,,,,,,,,,,
1709656047.433949,,,,,,,,,,,,,,,,,129.000000000,1709656047.433562994,0.000000000,0.033855762,0.000000000,0.000000000,0.033855762,0.000000000,-0.129309654,0.090833979,0.018049802,-12.112215042,-0.509038820,0.102937136,-1.606915116,0.116464074,0.025068087,23.006465912,-2.406513855,0.033996084,0.751757801,0.037036165,0.016512395,2.246885777,1.712919083,0.048966133,-0.122496642,0.789582466,0.001326232
1709656047.454208,0.481779089,0.615190727,0.564552487,0.283508730,0.494232487,0.576607375,0.243276330,0.300899978,0.457621994,0.394469582,0.169142533,0.597724436,0.548374722,0.150015006,0.471129582,0.000000000,,,,,,,,,,,,,,,,,,,,,,,,,,,,,
1709656047.467173,,,,,,,,,,,,,,,,,130.000000000,1709656047.466902971,0.000000000,0.033855762,0.000000000,0.000000000,0.033855762,0.000000000,-0.129309654,0.091472687,0.016986378,-11.830537796,-0.505353407,0.107946030,-1.725933671,0.117408462,0.025861938,22.847774506,-2.405180327,0.051566652,0.770068347,0.037242972,0.001316988,2.240477085,1.714752535,0.053373374,-0.107848205,0.789581072,0.001031632
1709656047.487599,0.481779089,0.614423413,0.563685247,0.283768206,0.494232487,0.575745859,0.242179273,0.299795112,0.456982317,0.393444973,0.168921481,0.597281781,0.547187500,0.150015059,0.471129582,0.000000000,,,,,,,,,,,,,,,,,,,,,,,,,,,,,
1709656047.500991,,,,,,,,,,,,,,,,,131.000000000,1709656047.500396967,0.000000000,0.033856090,0.000000000,0.000000000,0.033856090,0.000000000,-0.129309654,0.092120358,0.017858730,-11.870210648,-0.501775682,0.108763215,-1.686260819,0.118338464,0.030034447,22.887447357,-2.403833232,0.036043024,0.758166492,0.037500128,0.002622370,2.181883335,1.716559438,0.050512261,-0.050169982,0.789574472,-0.001514599
1709656047.521632,0.481779089,0.613659067,0.562823715,0.283998391,0.494232487,0.574888253,0.241081679,0.298675152,0.456340864,0.392427194,0.168743707,0.596833522,0.546008049,0.150074763,0.471129582,0.000000000,,,,,,,,,,,,,,,,,,,,,,,,,,,,,
1709656047.533768,,,,,,,,,,,,,,,,,132.000000000,1709656047.533520937,0.000000000,0.033856090,0.000000000,0.000000000,0.033856090,0.000000000,-0.129309654,0.092779882,0.021221272,-12.112215042,-0.498074565,0.113650449,-1.725933671,0.119287706,0.023338581,22.887447357,-2.402528685,0.035853010,0.770068347,0.037728868,0.003267157,2.196531773,1.718392099,0.056031215,-0.079466857,0.789581836,-0.000034960
1709656047.555678,0.481779089,0.612895848,0.561967236,0.284228799,0.494232487,0.574032530,0.239987365,0.297555349,0.455696830,0.391413898,0.168571441,0.596379052,0.544834454,0.150156219,0.471129582,0.000000000,,,,,,,,,,,,,,,,,,,,,,,,,,,,,
1709656047.566928,,,,,,,,,,,,,,,,,133.000000000,1709656047.566710949,0.000000000,0.033856090,0.000000000,0.000000000,0.033856090,0.000000000,-0.129309654,0.093406142,0.014679585,-12.032869339,-0.494412070,0.111282525,-1.725933671,0.120231687,0.024815323,22.887447357,-2.401253194,0.038404513,0.746264637,0.037961139,0.008337407,2.233152866,1.720104809,0.048610116,-0.128905341,0.789583568,0.001744601
1709656047.589643,0.481779089,0.612108912,0.561087557,0.284453157,0.494232487,0.573150840,0.238893261,0.296434116,0.455027948,0.390372156,0.168410643,0.595903289,0.543628319,0.150235572,0.471129582,0.000000000,,,,,,,,,,,,,,,,,,,,,,,,,,,,,
1709656047.600551,,,,,,,,,,,,,,,,,134.000000000,1709656047.600234032,0.000000000,0.033856090,0.000000000,0.000000000,0.033856090,0.000000000,-0.248328209,0.094022921,0.018484600,-12.072542191,-0.490704218,0.105732545,-1.765606523,0.121180191,0.031818944,22.847774506,-2.399938262,0.037547072,0.758166492,0.038189673,0.010937941,2.211180210,1.721918691,0.051008985,-0.115172423,0.789585064,0.000909829
1709656047.623751,0.481779089,0.611308022,0.560192117,0.284660614,0.494232487,0.572254037,0.237797890,0.295303945,0.454342060,0.389314736,0.168272968,0.595410700,0.542402402,0.150339455,0.471129582,0.000000000,,,,,,,,,,,,,,,,,,,,,,,,,,,,,
1709656047.635015,,,,,,,,,,,,,,,,,135.000000000,1709656047.633580923,0.000000000,0.033856090,0.000000000,0.000000000,0.033856090,0.000000000,-0.248328209,0.094632461,0.020630747,-12.481172562,-0.486904993,0.106970829,-1.686260819,0.122116553,0.026893587,22.927120209,-2.398604917,0.036507258,0.763659656,0.038434087,0.007280840,2.218504429,1.723726424,0.053818938,-0.057494201,0.789576524,-0.001142702
1709656047.657887,0.481779089,0.610520316,0.559312957,0.284875392,0.494232487,0.571372568,0.236713438,0.294183783,0.453664021,0.388277633,0.168140261,0.594918376,0.541199374,0.150462492,0.471129582,0.000000000,,,,,,,,,,,,,,,,,,,,,,,,,,,,,
1709656047.667181,,,,,,,,,,,,,,,,,136.000000000,1709656047.666910887,0.000000000,0.033856090,0.000000000,0.000000000,0.033856090,0.000000000,-0.168982506,0.095227360,0.015668320,-12.929475784,-0.483123375,0.109394735,-1.646587968,0.123033935,0.025054099,23.046138763,-2.397314776,0.033977961,0.763659656,0.038639179,0.002477516,2.246885777,1.725545737,0.048777225,-0.072142638,0.789577228,-0.000773608
1709656047.691714,0.481779089,0.609745024,0.558446345,0.285133782,0.494232487,0.570505449,0.235646362,0.293095543,0.452993888,0.387259426,0.167972588,0.594425438,0.540016062,0.150551920,0.471129582,0.000000000,,,,,,,,,,,,,,,,,,,,,,,,,,,,,
1709656047.700963,,,,,,,,,,,,,,,,,137.000000000,1709656047.700524092,0.000000000,0.033856090,0.000000000,0.000000000,0.033856090,0.000000000,-0.129309654,0.095863361,0.019903424,-12.643831253,-0.479428788,0.110863531,-1.686260819,0.123936120,0.022214644,23.046138763,-2.395952134,0.035084378,0.746264637,0.038862286,0.003169771,2.290831089,1.727314954,0.058108920,-0.050169982,0.789574696,-0.001566184
1709656047.725616,0.481779089,0.608962218,0.557568847,0.285415288,0.494232487,0.569630352,0.234582943,0.292018434,0.452313355,0.386233826,0.167788228,0.593919054,0.538821272,0.150621110,0.471129582,0.000000000,,,,,,,,,,,,,,,,,,,,,,,,,,,,,
1709656047.733772,,,,,,,,,,,,,,,,,138.000000000,1709656047.733484983,0.000000000,0.033856090,0.000000000,0.000000000,0.033856090,0.000000000,-0.168982506,0.096546823,0.019987630,-12.762849808,-0.475733551,0.112602407,-1.686260819,0.124818171,0.025077029,22.808101654,-2.394481417,0.040440246,0.751757801,0.039101940,0.001525414,2.254209995,1.729146126,0.055063039,-0.115172423,0.789581642,0.000905360
1709656047.759615,0.481779089,0.608179268,0.556694259,0.285693274,0.494232487,0.568755697,0.233532286,0.290952262,0.451628748,0.385211024,0.167616014,0.593405505,0.537629942,0.150700074,0.471129582,0.000000000,,,,,,,,,,,,,,,,,,,,,,,,,,,,,
1709656047.767105,,,,,,,,,,,,,,,,,139.000000000,1709656047.766846895,0.000000000,0.033856090,0.000000000,0.000000000,0.033856090,0.000000000,-0.168982506,0.097212637,0.019094177,-12.885835648,-0.472025470,0.111318747,-1.686260819,0.125708443,0.024660071,22.847774506,-2.393014442,0.043942238,0.746264637,0.039331535,0.009411335,2.233152866,1.730993156,0.060328544,-0.085875548,0.789578674,-0.000268695
1709656047.794838,0.481779089,0.607403218,0.555832732,0.285984118,0.494232487,0.567889409,0.232487092,0.289892853,0.450947383,0.384200359,0.167438854,0.592890180,0.536454266,0.150790021,0.471129582,0.000000000,,,,,,,,,,,,,,,,,,,,,,,,,,,,,
1709656047.800927,,,,,,,,,,,,,,,,,140.000000000,1709656047.800535917,0.000000000,0.033856090,0.000000000,0.000000000,0.033856090,0.000000000,-0.168982506,0.097852159,0.016734079,-12.885835648,-0.468352989,0.113428004,-1.686260819,0.126604283,0.025090410,22.768428802,-2.391557697,0.042994856,0.739855945,0.039525620,0.003775820,2.240477085,1.732797168,0.043272887,-0.057494201,0.789575477,-0.001426972
1709656047.828267,0.481779089,0.606611269,0.554957347,0.286253263,0.494232487,0.567005991,0.231448985,0.288832996,0.450247186,0.383172020,0.167289779,0.592357592,0.535258651,0.150898076,0.471129582,0.000000000,,,,,,,,,,,,,,,,,,,,,,,,,,,,,
1709656047.833963,,,,,,,,,,,,,,,,,141.000000000,1709656047.833519936,0.000000000,0.033855435,0.000000000,0.000000000,0.033855435,0.000000000,-0.248328209,0.098465321,0.016869119,-12.762849808,-0.464660155,0.109990327,-1.686260819,0.127498663,0.020992004,22.728755951,-2.390104384,0.040983030,0.727954090,0.039795063,0.009059100,2.203855991,1.734669304,0.060338457,-0.079466857,0.789582264,-0.000896929
1709656047.861576,0.481779089,0.605795456,0.554054886,0.286464714,0.494232487,0.566096462,0.230382707,0.287716278,0.449519946,0.382115495,0.167210032,0.591800612,0.534028281,0.151103041,0.471129582,0.000000000,,,,,,,,,,,,,,,,,,,,,,,,,,,,,
1709656047.867131,,,,,,,,,,,,,,,,,142.000000000,1709656047.866875887,0.000000000,0.033855435,0.000000000,0.000000000,0.033855435,0.000000000,-0.248328209,0.099059730,0.016391892,-13.254793167,-0.460864085,0.113739362,-1.725933671,0.128374804,0.027371926,22.847774506,-2.388748196,0.033280718,0.763659656,0.039996811,0.008264976,2.240477085,1.736497817,0.055171195,-0.050169982,0.789577831,-0.001569499
1709656047.895649,0.481779089,0.604982887,0.553156034,0.286672928,0.494232487,0.565191083,0.229318361,0.286596147,0.448791567,0.381066059,0.167148900,0.591237527,0.532804562,0.151336503,0.471129582,0.000000000,,,,,,,,,,,,,,,,,,,,,,,,,,,,,
1709656047.900871,,,,,,,,,,,,,,,,,143.000000000,1709656047.900543928,0.000000000,0.033855435,0.000000000,0.000000000,0.033855435,0.000000000,-0.129309654,0.099648366,0.020589606,-13.742769241,-0.457037119,0.113912608,-1.646587968,0.129218514,0.025970038,23.006465912,-2.387472462,0.037800199,0.746264637,0.040220071,0.002366557,2.211180210,1.738290098,0.057186891,-0.100523986,0.789584527,0.000531992
1709656047.929637,0.481779089,0.604181811,0.552272722,0.286925410,0.494232487,0.564299110,0.228255847,0.285489425,0.448071484,0.380034500,0.167056445,0.590675022,0.531601711,0.151554631,0.471129582,0.000000000,,,,,,,,,,,,,,,,,,,,,,,,,,,,,
1709656047.933800,,,,,,,,,,,,,,,,,144.000000000,1709656047.933583021,0.000000000,0.033855435,0.000000000,0.000000000,0.033855435,0.000000000,-0.129309654,0.100261121,0.023562912,-13.580110550,-0.453297341,0.110908517,-1.606915116,0.130076096,0.027176025,23.006465912,-2.386131847,0.038037507,0.721545398,0.040452679,0.010961439,2.283506870,1.740007489,0.050140590,-0.100523986,0.789583559,0.000106738
1709656047.963592,0.481779089,0.603380122,0.551390241,0.287247019,0.494232487,0.563407009,0.227183220,0.284393191,0.447349258,0.379005056,0.166915372,0.590104352,0.530400613,0.151728517,0.471129582,0.000000000,,,,,,,,,,,,,,,,,,,,,,,,,,,,,
1709656047.967151,,,,,,,,,,,,,,,,,145.000000000,1709656047.966837883,0.000000000,0.033855435,0.000000000,0.000000000,0.033855435,0.000000000,-0.208655357,0.100925010,0.024813284,-13.580110550,-0.449573759,0.111229623,-1.606915116,0.130961333,0.024931356,22.808101654,-2.384677431,0.047028761,0.746264637,0.040669901,0.005795935,2.240477085,1.741860284,0.056478951,-0.093199767,0.789582433,0.000338337
1709656047.997592,0.481779089,0.602577545,0.550512510,0.287581555,0.494232487,0.562514593,0.226120457,0.283310550,0.446622991,0.377977676,0.166769568,0.589526869,0.529203616,0.151897185,0.471129582,0.000000000,,,,,,,,,,,,,,,,,,,,,,,,,,,,,
1709656048.000627,,,,,,,,,,,,,,,,,146.000000000,1709656048.000305891,0.000000000,0.033855435,0.000000000,0.000000000,0.033855435,0.000000000,-0.208655357,0.101580169,0.016840861,-13.782442093,-0.445845036,0.113910768,-1.725933671,0.131895627,0.030171743,22.808101654,-2.383182837,0.040494888,0.751757801,0.040871343,0.001763638,2.240477085,1.743697846,0.055449977,-0.050169982,0.789578536,-0.001162566
1709656048.031566,0.481779089,0.601780841,0.549643752,0.287923343,0.494232487,0.561629278,0.225095381,0.282273533,0.445898045,0.376960735,0.166615904,0.588946663,0.528018699,0.152033703,0.471129582,0.000000000,,,,,,,,,,,,,,,,,,,,,,,,,,,,,
1709656048.033677,,,,,,,,,,,,,,,,,147.000000000,1709656048.033462048,0.000000000,0.033855435,0.000000000,0.000000000,0.033855435,0.000000000,-0.288001060,0.102207142,0.018415470,-13.782442093,-0.442148836,0.111020556,-1.725933671,0.132807241,0.024660678,22.728755951,-2.381618935,0.046041498,0.721545398,0.041094671,0.004795773,2.240477085,1.745523797,0.050270308,-0.115172423,0.789581877,0.000793200
1709656048.065538,0.481779089,0.600974653,0.548767468,0.288236083,0.494232487,0.560734006,0.224101723,0.281262256,0.445158902,0.375934649,0.166491710,0.588352818,0.526823184,0.152171329,0.471129582,0.000000000,,,,,,,,,,,,,,,,,,,,,,,,,,,,,
1709656048.066987,,,,,,,,,,,,,,,,,148.000000000,1709656048.066698074,0.000000000,0.033855435,0.000000000,0.000000000,0.033855435,0.000000000,-0.168982506,0.102777393,0.018819314,-13.699129105,-0.438454970,0.117063046,-1.646587968,0.133690083,0.023942154,22.689083099,-2.380012024,0.043753564,0.716052234,0.041310820,0.001419765,2.233152866,1.747371622,0.057383628,-0.064818420,0.789575925,-0.001482759
1709656048.099617,0.481779089,0.600148533,0.547869033,0.288523929,0.494232487,0.559817111,0.223093105,0.280221441,0.444396388,0.374886046,0.166406971,0.587736131,0.525599534,0.152358649,0.471129582,0.000000000,,,,,,,,,,,,,,,,,,,,,,,,,,,,,
1709656048.100600,,,,,,,,,,,,,,,,,149.000000000,1709656048.100229979,0.000000000,0.033855435,0.000000000,0.000000000,0.033855435,0.000000000,-0.248328209,0.103341040,0.021314028,-14.230745316,-0.434665693,0.110043422,-1.646587968,0.134553004,0.026304459,22.689083099,-2.378422092,0.041445111,0.746264637,0.041493536,0.007330358,2.211180210,1.749212285,0.053484035,-0.079466857,0.789581084,-0.000608900
1709656048.133549,0.481779089,0.599327753,0.546978007,0.288782069,0.494232487,0.558906708,0.222080079,0.279158494,0.443634631,0.373847215,0.166371015,0.587115904,0.524386576,0.152615976,0.471129582,0.000000000,,,,,,,,,,,,,,,,,,,,,,,,,,,,,
1709656048.133726,,,,,,,,,,,,,,,,,150.000000000,1709656048.133546114,0.000000000,0.033855435,0.000000000,0.000000000,0.033855435,0.000000000,-0.168982506,0.103889177,0.011551591,-14.433076859,-0.430893524,0.115012684,-1.646587968,0.135393859,0.025102135,22.768428802,-2.376978319,0.045631744,0.704150379,0.041720383,0.004126412,2.218504429,1.751044483,0.056671313,-0.107848205,0.789580718,0.000253178
1709656048.167134,,,,,,,,,,,,,,,,,151.000000000,1709656048.166812897,0.000000000,0.033855435,0.000000000,0.000000000,0.033855435,0.000000000,-0.168982506,0.104445239,0.018886066,-14.230745316,-0.427171365,0.107361661,-1.606915116,0.136234752,0.022983033,22.808101654,-2.375585375,0.043720485,0.751757801,0.041891292,0.001440394,2.233152866,1.752800298,0.053016360,-0.057494201,0.789578294,-0.001281090
1709656048.167529,0.481779089,0.598513983,0.546095552,0.289053238,0.494232487,0.558004621,0.221063280,0.278091050,0.442876432,0.372820158,0.166337320,0.586493283,0.523186313,0.152893314,0.471129582,0.000000000,,,,,,,,,,,,,,,,,,,,,,,,,,,,,
1709656048.200528,,,,,,,,,,,,,,,,,152.000000000,1709656048.200150013,0.000000000,0.033855435,0.000000000,0.000000000,0.033855435,0.000000000,-0.129309654,0.105017928,0.017800270,-14.353731155,-0.423427613,0.107406928,-1.686260819,0.137077631,0.024031706,22.728755951,-2.374099993,0.042315451,0.721545398,0.042106856,0.005591779,2.225828648,1.754694605,0.058258594,-0.057494201,0.789579469,-0.001359805
1709656048.201575,0.481779089,0.597693140,0.545207569,0.289355835,0.494232487,0.557095265,0.220052828,0.277041278,0.442108472,0.371787168,0.166284361,0.585857973,0.521978728,0.153139069,0.471129582,0.000000000,,,,,,,,,,,,,,,,,,,,,,,,,,,,,
1709656048.233819,,,,,,,,,,,,,,,,,153.000000000,1709656048.233534098,0.000000000,0.033855762,0.000000000,0.000000000,0.033855762,0.000000000,-0.168982506,0.105617346,0.019669806,-14.635408401,-0.419664414,0.111815744,-1.606915116,0.137922605,0.023144276,22.728755951,-2.372576246,0.048327939,0.727954090,0.042324655,0.010120874,2.233152866,1.756564439,0.055425226,-0.072142638,0.789576751,-0.000513059
1709656048.235590,0.481779089,0.596867611,0.544314917,0.289669202,0.494232487,0.556181250,0.219036186,0.275984738,0.441332676,0.370751199,0.166234466,0.585211128,0.520766248,0.153398120,0.471129582,0.000000000,,,,,,,,,,,,,,,,,,,,,,,,,,,,,
1709656048.267125,,,,,,,,,,,,,,,,,154.000000000,1709656048.266812086,0.000000000,0.033855762,0.000000000,0.000000000,0.033855762,0.000000000,-0.089636803,0.106190922,0.016845282,-14.516389847,-0.415963521,0.107780364,-1.606915116,0.138778294,0.023766210,22.649410248,-2.371054029,0.043785130,0.727954090,0.042517530,0.012455352,2.233152866,1.758406613,0.048779805,-0.079466857,0.789579017,-0.000469634
1709656048.269498,0.481779089,0.596055817,0.543440588,0.289997301,0.494232487,0.555283036,0.218041060,0.274955837,0.440566829,0.369735492,0.166173233,0.584568403,0.519577884,0.153644830,0.471129582,0.000000000,,,,,,,,,,,,,,,,,,,,,,,,,,,,,
1709656048.300832,,,,,,,,,,,,,,,,,155.000000000,1709656048.300506115,0.000000000,0.033856090,0.000000000,0.000000000,0.033856090,0.000000000,-0.208655357,0.106774907,0.015279475,-14.433076859,-0.412249918,0.108801630,-1.686260819,0.139618320,0.020778347,22.649410248,-2.369462809,0.045674705,0.733447254,0.042726954,0.009985050,2.246885777,1.760168076,0.056134507,-0.079466857,0.789581804,-0.000886398
1709656048.303627,0.481779089,0.595232194,0.542555320,0.290326499,0.494232487,0.554372290,0.217053105,0.273934108,0.439785614,0.368707940,0.166118035,0.583909194,0.518375082,0.153889608,0.471129582,0.000000000,,,,,,,,,,,,,,,,,,,,,,,,,,,,,
1709656048.333826,,,,,,,,,,,,,,,,,156.000000000,1709656048.333483934,0.000000000,0.033856090,0.000000000,0.000000000,0.033856090,0.000000000,-0.049963951,0.107313466,0.008400091,-15.004365921,-0.408426019,0.114151639,-1.606915116,0.140456312,0.027890195,22.808101654,-2.367844188,0.051593366,0.721545398,0.042951984,0.005686093,2.233152866,1.761995965,0.051401823,-0.042845763,0.789578114,-0.002171703
1709656048.338058,0.481779089,0.594380787,0.541641635,0.290630201,0.494232487,0.553431395,0.216063502,0.272898943,0.438972388,0.367648820,0.166098849,0.583220275,0.517134448,0.154162898,0.471129582,0.000000000,,,,,,,,,,,,,,,,,,,,,,,,,,,,,
1709656048.366938,,,,,,,,,,,,,,,,,157.000000000,1709656048.366657972,0.000000000,0.033856090,0.000000000,0.000000000,0.033856090,0.000000000,-0.129309654,0.107859073,0.013784505,-15.286043167,-0.404605417,0.112561856,-1.606915116,0.141264989,0.021919713,22.847774506,-2.366238230,0.044537819,0.733447254,0.043141344,0.004576604,2.240477085,1.763878834,0.056634453,-0.085875548,0.789578264,-0.000904767
1709656048.371644,0.481779089,0.593541642,0.540740391,0.290938899,0.494232487,0.552504570,0.215093920,0.271885951,0.438167110,0.366607924,0.166086720,0.582532867,0.515913020,0.154433804,0.471129582,0.000000000,,,,,,,,,,,,,,,,,,,,,,,,,,,,,
1709656048.400663,,,,,,,,,,,,,,,,,158.000000000,1709656048.400300026,0.000000000,0.033856090,0.000000000,0.000000000,0.033856090,0.000000000,-0.049963951,0.108403104,0.015853689,-14.960725784,-0.400895264,0.105686518,-1.527569413,0.142046726,0.024825015,22.728755951,-2.364642155,0.049503566,0.727954090,0.043312333,0.009015970,2.254209995,1.765694619,0.049660566,-0.072142638,0.789576790,-0.000800554
1709656048.405998,0.481779089,0.592721058,0.539859768,0.291247142,0.494232487,0.551598775,0.214151848,0.270901874,0.437376103,0.365592973,0.166075648,0.581853125,0.514720779,0.154703086,0.471129582,0.000000000,,,,,,,,,,,,,,,,,,,,,,,,,,,,,
1709656048.433936,,,,,,,,,,,,,,,,,159.000000000,1709656048.433583021,0.000000000,0.033856090,0.000000000,0.000000000,0.033856090,0.000000000,-0.049963951,0.108403104,0.015853689,-14.960725784,-0.400895264,0.105686518,-1.527569413,0.142046726,0.024825015,22.728755951,-2.364642155,0.049503566,0.727954090,0.043312333,0.009015970,2.254209995,1.765694619,0.049660566,-0.072142638,0.789576790,-0.000800554
1709656048.439654,0.481779089,0.591893682,0.538977284,0.291600978,0.494232487,0.550686118,0.213162788,0.269873573,0.436577740,0.364572758,0.166052566,0.581161658,0.513523877,0.155003684,0.471129582,0.000000000,,,,,,,,,,,,,,,,,,,,,,,,,,,,,
1709656048.467400,,,,,,,,,,,,,,,,,160.000000000,1709656048.466943026,0.000000000,0.033856090,0.000000000,0.000000000,0.033856090,0.000000000,-0.049963951,0.108981538,0.019381268,-15.123384476,-0.397175251,0.110462121,-1.567242265,0.142876029,0.027747499,22.609737396,-2.363051036,0.040835192,0.721545398,0.043552793,0.008508425,2.233152866,1.767551914,0.059133882,-0.128905341,0.789586230,0.001769252
1709656048.473590,0.481779089,0.591053802,0.538082578,0.291961180,0.494232487,0.549760216,0.212124683,0.268782246,0.435764703,0.363540126,0.166053745,0.580452112,0.512311367,0.155381603,0.471129582,0.000000000,,,,,,,,,,,,,,,,,,,,,,,,,,,,,
